;FLAVOR:Marlin
;TIME:3016
;Filament used: 1.46465m
;Layer height: 0.12
;MINX:89
;MINY:62.5
;MINZ:0.12
;MAXX:131
;MAXY:104.5
;MAXZ:20.04
;Generated with Cura_SteamEngine 5.2.1
M82 ;absolute extrusion mode
; Ender 3 Custom Start G-code
G92 E0 ; Reset Extruder
G28 ; Home all axes
M104 S175 ; Start heating up the nozzle most of the way
M190 S60 ; Start heating the bed, wait until target temperature reached
M109 S200 ; Finish heating the nozzle
G1 Z2.0 F3000 ; Move Z Axis up little to prevent scratching of Heat Bed
G1 X0.1 Y20 Z0.3 F5000.0 ; Move to start position
G1 X0.1 Y200.0 Z0.3 F1500.0 E15 ; Draw the first line
G1 X0.4 Y200.0 Z0.3 F5000.0 ; Move to side a little
G1 X0.4 Y20 Z0.3 F1500.0 E30 ; Draw the second line
G92 E0 ; Reset Extruder
G1 Z2.0 F3000 ; Move Z Axis up little to prevent scratching of Heat Bed
G1 X5 Y20 Z0.3 F5000.0 ; Move over to prevent blob squish
G92 E0
G92 E0
G1 F1500 E-6.5
;LAYER_COUNT:167
;LAYER:0
M107
G0 F6000 X90.996 Y67.203 Z0.12
;TYPE:SKIRT
G1 F1500 E0
G1 F1200 X91.566 Y66.458 E0.01872
G1 X92.198 Y65.764 E0.03745
G1 X92.886 Y65.127 E0.05616
G1 X93.626 Y64.551 E0.07488
G1 X94.412 Y64.039 E0.0936
G1 X95.239 Y63.597 E0.11231
G1 X96.101 Y63.227 E0.13103
G1 X96.991 Y62.931 E0.14975
G1 X97.903 Y62.713 E0.16846
G1 X98.83 Y62.572 E0.18717
G1 X99.701 Y62.513 E0.20459
G1 X100.33 Y62.5 E0.21715
G1 X119.451 Y62.501 E0.59873
G1 X120.149 Y62.511 E0.61266
G1 X121.085 Y62.565 E0.63137
G1 X122.013 Y62.697 E0.65007
G1 X122.927 Y62.909 E0.6688
G1 X123.819 Y63.198 E0.68751
G1 X124.684 Y63.561 E0.70623
G1 X125.514 Y63.997 E0.72494
G1 X126.305 Y64.502 E0.74367
G1 X127.049 Y65.073 E0.76238
G1 X127.742 Y65.705 E0.7811
G1 X128.379 Y66.393 E0.79981
G1 X128.954 Y67.134 E0.81853
G1 X129.465 Y67.92 E0.83724
G1 X129.907 Y68.748 E0.85597
G1 X130.276 Y69.61 E0.87468
G1 X130.571 Y70.5 E0.89339
G1 X130.789 Y71.412 E0.9121
G1 X130.929 Y72.34 E0.93083
G1 X130.987 Y73.201 E0.94805
G1 X131 Y73.83 E0.96061
G1 X130.999 Y92.9 E1.34117
G1 X130.99 Y93.627 E1.35568
G1 X130.939 Y94.564 E1.37441
G1 X130.807 Y95.492 E1.39311
G1 X130.598 Y96.406 E1.41182
G1 X130.311 Y97.299 E1.43054
G1 X129.949 Y98.165 E1.44927
G1 X129.515 Y98.996 E1.46798
G1 X129.011 Y99.787 E1.4867
G1 X128.442 Y100.532 E1.50541
G1 X127.811 Y101.227 E1.52414
G1 X127.124 Y101.865 E1.54285
G1 X126.385 Y102.442 E1.56156
G1 X125.599 Y102.954 E1.58028
G1 X124.773 Y103.397 E1.59899
G1 X123.911 Y103.769 E1.61772
G1 X123.022 Y104.065 E1.63642
G1 X122.11 Y104.285 E1.65514
G1 X121.183 Y104.426 E1.67385
G1 X120.299 Y104.487 E1.69154
G1 X119.67 Y104.5 E1.70409
G1 X100.565 Y104.499 E2.08535
G1 X99.867 Y104.49 E2.09928
G1 X98.931 Y104.438 E2.11799
G1 X98.002 Y104.306 E2.13672
G1 X97.088 Y104.096 E2.15543
G1 X96.195 Y103.809 E2.17415
G1 X95.33 Y103.446 E2.19287
G1 X94.499 Y103.012 E2.21158
G1 X93.708 Y102.508 E2.2303
G1 X92.963 Y101.938 E2.24902
G1 X92.269 Y101.307 E2.26773
G1 X91.632 Y100.62 E2.28643
G1 X91.055 Y99.88 E2.30516
G1 X90.543 Y99.094 E2.32388
G1 X90.1 Y98.267 E2.3426
G1 X89.729 Y97.406 E2.36131
G1 X89.433 Y96.516 E2.38003
G1 X89.214 Y95.604 E2.39874
G1 X89.073 Y94.677 E2.41746
G1 X89.013 Y93.788 E2.43524
G1 X89 Y93.158 E2.44781
G1 X89.001 Y74.025 E2.82963
G1 X89.01 Y73.36 E2.8429
G1 X89.063 Y72.424 E2.86161
G1 X89.195 Y71.495 E2.88034
G1 X89.406 Y70.581 E2.89906
G1 X89.694 Y69.689 E2.91776
G1 X90.057 Y68.824 E2.93648
G1 X90.492 Y67.993 E2.9552
G1 X90.996 Y67.203 E2.9739
G0 F6000 X91.392 Y67.335
G1 F1200 X91.961 Y66.611 E2.99228
G1 X92.589 Y65.939 E3.01063
G1 X93.274 Y65.323 E3.02902
G1 X94.01 Y64.77 E3.04739
G1 X94.791 Y64.282 E3.06577
G1 X95.611 Y63.864 E3.08413
G1 X96.465 Y63.519 E3.10252
G1 X97.345 Y63.249 E3.12088
G1 X98.245 Y63.057 E3.13925
G1 X99.159 Y62.943 E3.15763
G1 X99.712 Y62.913 E3.16868
G1 X100.33 Y62.9 E3.18102
G1 X119.293 Y62.9 E3.55945
G1 X120.143 Y62.911 E3.57641
G1 X121.062 Y62.964 E3.59478
G1 X121.973 Y63.097 E3.61315
G1 X122.869 Y63.308 E3.63152
G1 X123.743 Y63.596 E3.64989
G1 X124.59 Y63.959 E3.66828
G1 X125.401 Y64.394 E3.68664
G1 X126.171 Y64.898 E3.70501
G1 X126.895 Y65.467 E3.72338
G1 X127.567 Y66.097 E3.74176
G1 X128.182 Y66.782 E3.76014
G1 X128.735 Y67.518 E3.77851
G1 X129.222 Y68.299 E3.79688
G1 X129.639 Y69.12 E3.81525
G1 X129.984 Y69.974 E3.83363
G1 X130.253 Y70.854 E3.852
G1 X130.445 Y71.755 E3.87038
G1 X130.558 Y72.668 E3.88874
G1 X130.587 Y73.212 E3.89961
G1 X130.6 Y73.83 E3.91195
G1 X130.599 Y92.895 E4.29241
G1 X130.59 Y93.622 E4.30692
G1 X130.539 Y94.541 E4.32529
G1 X130.408 Y95.453 E4.34367
G1 X130.198 Y96.349 E4.36204
G1 X129.912 Y97.224 E4.38041
G1 X129.551 Y98.071 E4.39878
G1 X129.117 Y98.883 E4.41716
G1 X128.615 Y99.655 E4.43553
G1 X128.047 Y100.38 E4.45391
G1 X127.419 Y101.053 E4.47228
G1 X126.735 Y101.669 E4.49065
G1 X126 Y102.223 E4.50902
G1 X125.22 Y102.712 E4.52739
G1 X124.4 Y103.131 E4.54577
G1 X123.547 Y103.477 E4.56414
G1 X122.667 Y103.748 E4.58251
G1 X121.767 Y103.941 E4.60088
G1 X120.853 Y104.056 E4.61926
G1 X120.288 Y104.087 E4.63056
G1 X119.67 Y104.1 E4.64289
G1 X100.57 Y104.099 E5.02405
G1 X99.872 Y104.09 E5.03798
G1 X98.953 Y104.038 E5.05635
G1 X98.042 Y103.907 E5.07472
G1 X97.146 Y103.697 E5.09308
G1 X96.271 Y103.41 E5.11146
G1 X95.424 Y103.048 E5.12984
G1 X94.612 Y102.614 E5.14822
G1 X93.841 Y102.112 E5.16658
G1 X93.116 Y101.544 E5.18496
G1 X92.443 Y100.915 E5.20334
G1 X91.828 Y100.231 E5.2217
G1 X91.274 Y99.496 E5.24006
G1 X90.786 Y98.715 E5.25844
G1 X90.367 Y97.895 E5.27682
G1 X90.021 Y97.042 E5.29519
G1 X89.751 Y96.162 E5.31356
G1 X89.558 Y95.261 E5.33195
G1 X89.444 Y94.348 E5.35031
G1 X89.413 Y93.777 E5.36172
G1 X89.4 Y93.158 E5.37407
G1 X89.401 Y74.031 E5.75577
G1 X89.41 Y73.366 E5.76905
G1 X89.462 Y72.446 E5.78744
G1 X89.594 Y71.535 E5.8058
G1 X89.805 Y70.639 E5.82417
G1 X90.092 Y69.764 E5.84255
G1 X90.455 Y68.918 E5.86092
G1 X90.889 Y68.106 E5.8793
G1 X91.392 Y67.335 E5.89767
G0 F6000 X91.788 Y67.471
G1 F1200 X92.355 Y66.767 E5.91571
G1 X92.981 Y66.117 E5.93372
G1 X93.662 Y65.524 E5.95174
G1 X94.394 Y64.994 E5.96977
G1 X95.169 Y64.531 E5.98779
G1 X95.982 Y64.138 E6.00581
G1 X96.827 Y63.818 E6.02384
G1 X97.696 Y63.575 E6.04185
G1 X98.584 Y63.409 E6.05987
G1 X99.723 Y63.313 E6.08268
G1 X100.33 Y63.3 E6.0948
G1 X119.293 Y63.3 E6.47323
G1 X120.137 Y63.311 E6.49007
G1 X121.039 Y63.364 E6.5081
G1 X121.932 Y63.496 E6.52612
G1 X122.81 Y63.707 E6.54414
G1 X123.666 Y63.995 E6.56216
G1 X124.493 Y64.357 E6.58018
G1 X125.285 Y64.792 E6.59821
G1 X126.036 Y65.294 E6.61624
G1 X126.739 Y65.861 E6.63426
G1 X127.389 Y66.488 E6.65228
G1 X127.981 Y67.17 E6.6703
G1 X128.511 Y67.901 E6.68832
G1 X128.973 Y68.677 E6.70635
G1 X129.366 Y69.49 E6.72437
G1 X129.684 Y70.335 E6.74238
G1 X129.927 Y71.205 E6.76041
G1 X130.092 Y72.093 E6.77843
G1 X130.187 Y73.223 E6.80106
G1 X130.2 Y73.83 E6.81318
G1 X130.199 Y92.89 E7.19354
G1 X130.19 Y93.617 E7.20805
G1 X130.139 Y94.519 E7.22608
G1 X130.008 Y95.413 E7.24411
G1 X129.799 Y96.291 E7.26212
G1 X129.513 Y97.148 E7.28015
G1 X129.152 Y97.976 E7.29818
G1 X128.72 Y98.768 E7.31618
G1 X128.219 Y99.52 E7.33422
G1 X127.653 Y100.224 E7.35224
G1 X127.028 Y100.875 E7.37025
G1 X126.347 Y101.469 E7.38828
G1 X125.616 Y102 E7.40632
G1 X124.842 Y102.464 E7.42432
G1 X124.029 Y102.858 E7.44235
G1 X123.185 Y103.178 E7.46037
G1 X122.315 Y103.423 E7.4784
G1 X121.428 Y103.589 E7.49641
G1 X120.277 Y103.687 E7.51946
G1 X119.67 Y103.7 E7.53158
G1 X100.575 Y103.699 E7.91264
G1 X99.877 Y103.69 E7.92657
G1 X98.976 Y103.639 E7.94458
G1 X98.082 Y103.507 E7.96262
G1 X97.204 Y103.298 E7.98063
G1 X96.347 Y103.011 E7.99866
G1 X95.52 Y102.65 E8.01667
G1 X94.727 Y102.217 E8.0347
G1 X93.976 Y101.716 E8.05272
G1 X93.272 Y101.15 E8.07074
G1 X92.621 Y100.524 E8.08877
G1 X92.028 Y99.843 E8.10679
G1 X91.498 Y99.112 E8.12481
G1 X91.034 Y98.337 E8.14283
G1 X90.64 Y97.524 E8.16086
G1 X90.32 Y96.68 E8.17887
G1 X90.076 Y95.81 E8.19691
G1 X89.91 Y94.922 E8.21493
G1 X89.813 Y93.767 E8.23806
G1 X89.8 Y93.158 E8.25022
G1 X89.801 Y74.036 E8.63182
G1 X89.81 Y73.371 E8.64509
G1 X89.862 Y72.469 E8.66312
G1 X89.994 Y71.576 E8.68114
G1 X90.204 Y70.698 E8.69915
G1 X90.491 Y69.841 E8.71719
G1 X90.853 Y69.014 E8.7352
G1 X91.286 Y68.222 E8.75322
G1 X91.788 Y67.471 E8.77124
G1 F1500 E2.27124
;MESH:a3-2cm-cube.stl
G0 F6000 X99.335 Y73.914
G0 X100.414 Y73.914
G0 X101 Y92.5
;TYPE:WALL-INNER
G1 F1500 E8.77124
G1 F1200 X119 Y92.5 E9.13045
G1 X119 Y74.5 E9.48966
G1 X101 Y74.5 E9.84887
G1 X101 Y92.5 E10.20808
G0 F6000 X100.6 Y92.9
G1 F1200 X119.4 Y92.9 E10.58326
G1 X119.4 Y74.1 E10.95843
G1 X100.6 Y74.1 E11.3336
G1 X100.6 Y92.9 E11.70878
G0 F6000 X100.2 Y93.3
;TYPE:WALL-OUTER
G1 F1200 X119.8 Y93.3 E12.09992
G1 X119.8 Y73.7 E12.49106
G1 X100.2 Y73.7 E12.8822
G1 X100.2 Y93.3 E13.27334
G0 F6000 X100.47 Y93.03
G0 X101.1 Y92.14
G0 X101.36 Y92.14
;TYPE:SKIN
G1 F1200 X118.64 Y92.14 E13.61818
G1 X118.64 Y74.86 E13.96302
G1 X101.36 Y74.86 E14.30786
G1 X101.36 Y92.14 E14.6527
G0 F6000 X102.122 Y91.94
G1 F1200 X101.559 Y91.377 E14.66859
G0 F6000 X101.559 Y90.811
G1 F1200 X102.688 Y91.94 E14.70045
G0 F6000 X103.253 Y91.94
G1 F1200 X101.559 Y90.245 E14.74827
G0 F6000 X101.559 Y89.68
G1 F1200 X103.819 Y91.94 E14.81206
G0 F6000 X104.385 Y91.94
G1 F1200 X101.559 Y89.114 E14.89181
G0 F6000 X101.559 Y88.548
G1 F1200 X104.95 Y91.94 E14.98753
G0 F6000 X105.516 Y91.94
G1 F1200 X101.559 Y87.983 E15.0992
G0 F6000 X101.559 Y87.417
G1 F1200 X106.082 Y91.94 E15.22685
G0 F6000 X106.647 Y91.94
G1 F1200 X101.559 Y86.851 E15.37046
G0 F6000 X101.559 Y86.286
G1 F1200 X107.213 Y91.94 E15.53003
G0 F6000 X107.779 Y91.94
G1 F1200 X101.559 Y85.72 E15.70557
G0 F6000 X101.559 Y85.154
G1 F1200 X108.345 Y91.94 E15.89709
G0 F6000 X108.91 Y91.94
G1 F1200 X101.559 Y84.589 E16.10455
G0 F6000 X101.559 Y84.023
G1 F1200 X109.476 Y91.94 E16.32798
G0 F6000 X110.042 Y91.94
G1 F1200 X101.559 Y83.457 E16.56739
G0 F6000 X101.559 Y82.892
G1 F1200 X110.607 Y91.94 E16.82274
G0 F6000 X111.173 Y91.94
G1 F1200 X101.559 Y82.326 E17.09407
G0 F6000 X101.559 Y81.76
G1 F1200 X111.739 Y91.94 E17.38137
G0 F6000 X112.304 Y91.94
G1 F1200 X101.559 Y81.194 E17.68463
G0 F6000 X101.559 Y80.629
G1 F1200 X112.87 Y91.94 E18.00386
G0 F6000 X113.436 Y91.94
G1 F1200 X101.559 Y80.063 E18.33905
G0 F6000 X101.559 Y79.497
G1 F1200 X114.001 Y91.94 E18.6902
G0 F6000 X114.567 Y91.94
G1 F1200 X101.559 Y78.932 E19.05732
G0 F6000 X101.559 Y78.366
G1 F1200 X115.133 Y91.94 E19.44041
G0 F6000 X115.698 Y91.94
G1 F1200 X101.559 Y77.8 E19.83945
G0 F6000 X101.559 Y77.235
G1 F1200 X116.264 Y91.94 E20.25446
G0 F6000 X116.83 Y91.94
G1 F1200 X101.559 Y76.669 E20.68544
G0 F6000 X101.559 Y76.103
G1 F1200 X117.395 Y91.94 E21.13238
G0 F6000 X117.961 Y91.94
G1 F1200 X101.559 Y75.538 E21.59528
G0 F6000 X101.647 Y75.06
G1 F1200 X118.439 Y91.852 E22.06919
G0 F6000 X118.439 Y91.286
G1 F1200 X102.212 Y75.06 E22.52713
G0 F6000 X102.778 Y75.06
G1 F1200 X118.439 Y90.721 E22.96912
G0 F6000 X118.439 Y90.155
G1 F1200 X103.344 Y75.06 E23.39513
G0 F6000 X103.91 Y75.06
G1 F1200 X118.439 Y89.589 E23.80517
G0 F6000 X118.439 Y89.024
G1 F1200 X104.475 Y75.06 E24.19927
G0 F6000 X105.041 Y75.06
G1 F1200 X118.439 Y88.458 E24.57739
G0 F6000 X118.439 Y87.892
G1 F1200 X105.607 Y75.06 E24.93954
G0 F6000 X106.172 Y75.06
G1 F1200 X118.439 Y87.326 E25.28572
G0 F6000 X118.439 Y86.761
G1 F1200 X106.738 Y75.06 E25.61595
G0 F6000 X107.304 Y75.06
G1 F1200 X118.439 Y86.195 E25.9302
G0 F6000 X118.439 Y85.629
G1 F1200 X107.869 Y75.06 E26.2285
G0 F6000 X108.435 Y75.06
G1 F1200 X118.439 Y85.064 E26.51083
G0 F6000 X118.439 Y84.498
G1 F1200 X109.001 Y75.06 E26.77719
G0 F6000 X109.566 Y75.06
G1 F1200 X118.439 Y83.932 E27.0276
G0 F6000 X118.439 Y83.367
G1 F1200 X110.132 Y75.06 E27.26204
G0 F6000 X110.698 Y75.06
G1 F1200 X118.439 Y82.801 E27.4805
G0 F6000 X118.439 Y82.235
G1 F1200 X111.263 Y75.06 E27.68301
G0 F6000 X111.829 Y75.06
G1 F1200 X118.439 Y81.67 E27.86956
G0 F6000 X118.439 Y81.104
G1 F1200 X112.395 Y75.06 E28.04014
G0 F6000 X112.961 Y75.06
G1 F1200 X118.439 Y80.538 E28.19474
G0 F6000 X118.439 Y79.973
G1 F1200 X113.526 Y75.06 E28.33339
G0 F6000 X114.092 Y75.06
G1 F1200 X118.439 Y79.407 E28.45607
G0 F6000 X118.439 Y78.841
G1 F1200 X114.658 Y75.06 E28.56278
G0 F6000 X115.223 Y75.06
G1 F1200 X118.439 Y78.276 E28.65354
G0 F6000 X118.439 Y77.71
G1 F1200 X115.789 Y75.06 E28.72833
G0 F6000 X116.355 Y75.06
G1 F1200 X118.439 Y77.144 E28.78715
G0 F6000 X118.439 Y76.578
G1 F1200 X116.92 Y75.06 E28.83
G0 F6000 X117.486 Y75.06
G1 F1200 X118.439 Y76.013 E28.8569
G0 F6000 X118.439 Y75.447
M104 S200
G1 F1200 X118.052 Y75.06 E28.86782
G1 F1500 E22.36782
;MESH:NONMESH
G0 F300 X118.052 Y75.06 Z0.24
G0 F6000 X118.052 Y74.6
G0 X101.172 Y74.672
G0 X101 Y92.5
;TIME_ELAPSED:83.947777
;LAYER:1
M106 S85
;TYPE:WALL-INNER
;MESH:a3-2cm-cube.stl
G1 F1500 E28.86782
G1 F1350 X119 Y92.5 E29.22703
G1 X119 Y74.5 E29.58624
G1 X101 Y74.5 E29.94545
G1 X101 Y92.5 E30.30466
G0 F7500 X100.6 Y92.9
G1 F1350 X119.4 Y92.9 E30.67983
G1 X119.4 Y74.1 E31.05501
G1 X100.6 Y74.1 E31.43018
G1 X100.6 Y92.9 E31.80536
G0 F7500 X100.2 Y93.3
;TYPE:WALL-OUTER
G1 F1350 X119.8 Y93.3 E32.1965
G1 X119.8 Y73.7 E32.58763
G1 X100.2 Y73.7 E32.97877
G1 X100.2 Y93.3 E33.36991
G0 F7500 X100.47 Y93.03
G0 X101.1 Y92.14
G0 X101.36 Y92.14
;TYPE:SKIN
G1 F1350 X118.64 Y92.14 E33.71475
G1 X118.64 Y74.86 E34.0596
G1 X101.36 Y74.86 E34.40444
G1 X101.36 Y92.14 E34.74928
G0 F7500 X101.1 Y92.14
G0 X101.1 Y75.499
G0 X101.559 Y75.499
G1 F1350 X101.999 Y75.06 E34.76168
G0 F7500 X102.565 Y75.06
G1 F1350 X101.559 Y76.065 E34.79006
G0 F7500 X101.559 Y76.631
G1 F1350 X103.13 Y75.06 E34.8344
G0 F7500 X103.696 Y75.06
G1 F1350 X101.559 Y77.196 E34.89469
G0 F7500 X101.559 Y77.762
G1 F1350 X104.262 Y75.06 E34.97096
G0 F7500 X104.827 Y75.06
G1 F1350 X101.559 Y78.328 E35.06319
G0 F7500 X101.559 Y78.894
G1 F1350 X105.393 Y75.06 E35.1714
G0 F7500 X105.959 Y75.06
G1 F1350 X101.559 Y79.459 E35.29556
G0 F7500 X101.559 Y80.025
G1 F1350 X106.524 Y75.06 E35.43568
G0 F7500 X107.09 Y75.06
G1 F1350 X101.559 Y80.591 E35.59178
G0 F7500 X101.559 Y81.156
G1 F1350 X107.656 Y75.06 E35.76384
G0 F7500 X108.221 Y75.06
G1 F1350 X101.559 Y81.722 E35.95185
G0 F7500 X101.559 Y82.288
G1 F1350 X108.787 Y75.06 E36.15584
G0 F7500 X109.353 Y75.06
G1 F1350 X101.559 Y82.853 E36.37579
G0 F7500 X101.559 Y83.419
G1 F1350 X109.919 Y75.06 E36.61171
G0 F7500 X110.484 Y75.06
G1 F1350 X101.559 Y83.985 E36.8636
G0 F7500 X101.559 Y84.55
G1 F1350 X111.05 Y75.06 E37.13144
G0 F7500 X111.616 Y75.06
G1 F1350 X101.559 Y85.116 E37.41526
G0 F7500 X101.559 Y85.682
G1 F1350 X112.181 Y75.06 E37.71503
G0 F7500 X112.747 Y75.06
G1 F1350 X101.559 Y86.247 E38.03077
G0 F7500 X101.559 Y86.813
G1 F1350 X113.313 Y75.06 E38.36248
G0 F7500 X113.878 Y75.06
G1 F1350 X101.559 Y87.379 E38.71014
G0 F7500 X101.559 Y87.944
G1 F1350 X114.444 Y75.06 E39.07377
G0 F7500 X115.01 Y75.06
G1 F1350 X101.559 Y88.51 E39.45338
G0 F7500 X101.559 Y89.076
G1 F1350 X115.575 Y75.06 E39.84894
G0 F7500 X116.141 Y75.06
G1 F1350 X101.559 Y89.642 E40.26047
G0 F7500 X101.559 Y90.207
G1 F1350 X116.707 Y75.06 E40.68797
G0 F7500 X117.272 Y75.06
G1 F1350 X101.559 Y90.773 E41.13142
G0 F7500 X101.559 Y91.339
G1 F1350 X117.838 Y75.06 E41.59085
G0 F7500 X118.404 Y75.06
G1 F1350 X101.559 Y91.904 E42.06624
G0 F7500 X102.089 Y91.94
G1 F1350 X118.439 Y75.59 E42.52767
G0 F7500 X118.439 Y76.156
G1 F1350 X102.655 Y91.94 E42.97313
G0 F7500 X103.221 Y91.94
G1 F1350 X118.439 Y76.721 E43.40263
G0 F7500 X118.439 Y77.287
G1 F1350 X103.787 Y91.94 E43.81615
G0 F7500 X104.352 Y91.94
G1 F1350 X118.439 Y77.853 E44.21372
G0 F7500 X118.439 Y78.418
G1 F1350 X104.918 Y91.94 E44.59533
G0 F7500 X105.484 Y91.94
G1 F1350 X118.439 Y78.984 E44.96096
G0 F7500 X118.439 Y79.55
G1 F1350 X106.049 Y91.94 E45.31063
G0 F7500 X106.615 Y91.94
G1 F1350 X118.439 Y80.115 E45.64434
G0 F7500 X118.439 Y80.681
G1 F1350 X107.181 Y91.94 E45.96208
G0 F7500 X107.746 Y91.94
G1 F1350 X118.439 Y81.247 E46.26386
G0 F7500 X118.439 Y81.812
G1 F1350 X108.312 Y91.94 E46.54968
G0 F7500 X108.878 Y91.94
G1 F1350 X118.439 Y82.378 E46.81953
G0 F7500 X118.439 Y82.944
G1 F1350 X109.443 Y91.94 E47.07341
G0 F7500 X110.009 Y91.94
G1 F1350 X118.439 Y83.51 E47.31133
G0 F7500 X118.439 Y84.075
G1 F1350 X110.575 Y91.94 E47.53328
