;FLAVOR:Marlin
;TIME:1556
;Filament used: 1.28224m
;Layer height: 0.2
;MINX:89
;MINY:89
;MINZ:0.2
;MAXX:131
;MAXY:131
;MAXZ:20
;Generated with Cura_SteamEngine 4.8.0
M140 S60
M105
M190 S60
M104 S200
M105
M109 S200
M82 ;absolute extrusion mode
; Ender 3 Custom Start G-code
G92 E0 ; Reset Extruder
G28 ; Home all axes
G1 Z2.0 F3000 ; Move Z Axis up little to prevent scratching of Heat Bed
G1 X0.1 Y20 Z0.3 F5000.0 ; Move to start position
G1 X0.1 Y200.0 Z0.3 F1500.0 E15 ; Draw the first line
G1 X0.4 Y200.0 Z0.3 F5000.0 ; Move to side a little
G1 X0.4 Y20 Z0.3 F1500.0 E30 ; Draw the second line
G92 E0 ; Reset Extruder
G1 Z2.0 F3000 ; Move Z Axis up little to prevent scratching of Heat Bed
G1 X5 Y20 Z0.3 F5000.0 ; Move over to prevent blob squish
G92 E0
G92 E0
G1 F1500 E-6.5
;LAYER_COUNT:100
;LAYER:0
M107
G0 F6000 X92.198 Y92.264 Z0.2
;TYPE:SKIRT
G1 F1500 E0
G1 F1200 X92.886 Y91.627 E0.03119
G1 X93.626 Y91.051 E0.06237
G1 X94.412 Y90.539 E0.09357
G1 X95.239 Y90.097 E0.12476
G1 X96.101 Y89.727 E0.15596
G1 X96.991 Y89.431 E0.18716
G1 X97.903 Y89.213 E0.21835
G1 X98.83 Y89.072 E0.24953
G1 X99.701 Y89.013 E0.27857
G1 X100.022 Y89.004 E0.28925
G1 X100.33 Y89 E0.29949
G1 X119.293 Y89 E0.93021
G1 X120.149 Y89.011 E0.95868
G1 X121.085 Y89.065 E0.98986
G1 X122.013 Y89.197 E1.02104
G1 X122.927 Y89.409 E1.05225
G1 X123.819 Y89.698 E1.08343
G1 X124.684 Y90.061 E1.11463
G1 X125.514 Y90.497 E1.14582
G1 X126.305 Y91.002 E1.17703
G1 X127.049 Y91.573 E1.20822
G1 X127.742 Y92.205 E1.23942
G1 X128.379 Y92.893 E1.2706
G1 X128.954 Y93.634 E1.3018
G1 X129.465 Y94.42 E1.33298
G1 X129.907 Y95.248 E1.3642
G1 X130.276 Y96.11 E1.39538
G1 X130.571 Y97 E1.42657
G1 X130.789 Y97.912 E1.45776
G1 X130.929 Y98.84 E1.48897
G1 X130.987 Y99.701 E1.51767
G1 X130.996 Y100.021 E1.52832
G1 X131 Y100.33 E1.5386
G1 X130.999 Y119.4 E2.17287
G1 X130.99 Y120.127 E2.19705
G1 X130.939 Y121.064 E2.22826
G1 X130.807 Y121.992 E2.25944
G1 X130.598 Y122.906 E2.29062
G1 X130.311 Y123.799 E2.32182
G1 X129.949 Y124.665 E2.35304
G1 X129.515 Y125.496 E2.38422
G1 X129.011 Y126.287 E2.41542
G1 X128.442 Y127.032 E2.4466
G1 X127.811 Y127.727 E2.47782
G1 X127.124 Y128.365 E2.509
G1 X126.385 Y128.942 E2.54018
G1 X125.599 Y129.454 E2.57138
G1 X124.773 Y129.897 E2.60256
G1 X123.911 Y130.269 E2.63378
G1 X123.022 Y130.565 E2.66495
G1 X122.11 Y130.785 E2.69615
G1 X121.183 Y130.926 E2.72734
G1 X120.299 Y130.987 E2.75681
G1 X119.978 Y130.996 E2.76749
G1 X119.67 Y131 E2.77774
G1 X100.565 Y130.999 E3.41317
G1 X99.867 Y130.99 E3.43639
G1 X98.931 Y130.938 E3.46757
G1 X98.002 Y130.806 E3.49878
G1 X97.088 Y130.596 E3.52997
G1 X96.195 Y130.309 E3.56117
G1 X95.33 Y129.946 E3.59237
G1 X94.499 Y129.512 E3.62355
G1 X93.708 Y129.008 E3.65474
G1 X92.963 Y128.438 E3.68594
G1 X92.269 Y127.807 E3.71714
G1 X91.632 Y127.12 E3.7483
G1 X91.055 Y126.38 E3.77951
G1 X90.543 Y125.594 E3.81071
G1 X90.1 Y124.767 E3.84192
G1 X89.729 Y123.906 E3.8731
G1 X89.433 Y123.016 E3.90429
G1 X89.214 Y122.104 E3.93549
G1 X89.073 Y121.177 E3.96668
G1 X89.013 Y120.288 E3.99631
G1 X89.004 Y119.955 E4.00739
G1 X89 Y119.658 E4.01727
G1 X89.001 Y100.525 E4.65364
G1 X89.01 Y99.86 E4.67576
G1 X89.063 Y98.924 E4.70694
G1 X89.195 Y97.995 E4.73815
G1 X89.406 Y97.081 E4.76935
G1 X89.694 Y96.189 E4.80052
G1 X90.057 Y95.324 E4.83172
G1 X90.492 Y94.493 E4.86292
G1 X90.996 Y93.703 E4.89409
G1 X91.566 Y92.958 E4.92529
G1 X92.198 Y92.264 E4.95651
G0 F6000 X92.589 Y92.439
G1 F1200 X93.274 Y91.823 E4.98715
G1 X94.01 Y91.27 E5.01777
G1 X94.791 Y90.782 E5.0484
G1 X95.611 Y90.364 E5.07901
G1 X96.465 Y90.019 E5.10964
G1 X97.345 Y89.749 E5.14026
G1 X98.245 Y89.557 E5.17087
G1 X99.159 Y89.443 E5.2015
G1 X99.712 Y89.413 E5.21992
G1 X100.033 Y89.404 E5.2306
G1 X100.33 Y89.4 E5.24048
G1 X119.293 Y89.4 E5.87119
G1 X120.143 Y89.411 E5.89947
G1 X121.062 Y89.464 E5.93008
G1 X121.973 Y89.597 E5.9607
G1 X122.869 Y89.808 E5.99132
G1 X123.743 Y90.096 E6.02193
G1 X124.59 Y90.459 E6.05258
G1 X125.401 Y90.894 E6.08319
G1 X126.171 Y91.398 E6.1138
G1 X126.895 Y91.967 E6.14442
G1 X127.567 Y92.597 E6.17506
G1 X128.182 Y93.282 E6.20568
G1 X128.735 Y94.018 E6.2363
G1 X129.222 Y94.799 E6.26691
G1 X129.639 Y95.62 E6.29754
G1 X129.984 Y96.474 E6.32817
G1 X130.253 Y97.354 E6.35878
G1 X130.445 Y98.255 E6.38942
G1 X130.558 Y99.168 E6.42001
G1 X130.587 Y99.712 E6.43813
G1 X130.596 Y100.032 E6.44878
G1 X130.6 Y100.33 E6.45869
G1 X130.599 Y119.395 E7.0928
G1 X130.59 Y120.122 E7.11698
G1 X130.539 Y121.041 E7.14759
G1 X130.408 Y121.953 E7.17824
G1 X130.198 Y122.849 E7.20885
G1 X129.912 Y123.724 E7.23946
G1 X129.551 Y124.571 E7.27009
G1 X129.117 Y125.383 E7.30071
G1 X128.615 Y126.155 E7.33134
G1 X128.047 Y126.88 E7.36197
G1 X127.419 Y127.553 E7.39259
G1 X126.735 Y128.169 E7.4232
G1 X126 Y128.723 E7.45382
G1 X125.22 Y129.212 E7.48444
G1 X124.4 Y129.631 E7.51506
G1 X123.547 Y129.977 E7.54568
G1 X122.667 Y130.248 E7.5763
G1 X121.767 Y130.441 E7.60692
G1 X120.853 Y130.556 E7.63756
G1 X120.288 Y130.587 E7.65638
G1 X119.967 Y130.596 E7.66706
G1 X119.67 Y130.6 E7.67694
G1 X100.57 Y130.599 E8.31221
G1 X99.872 Y130.59 E8.33542
G1 X98.953 Y130.538 E8.36604
G1 X98.042 Y130.407 E8.39665
G1 X97.146 Y130.197 E8.42726
G1 X96.271 Y129.91 E8.45789
G1 X95.424 Y129.548 E8.48852
G1 X94.612 Y129.114 E8.51915
G1 X93.841 Y128.612 E8.54975
G1 X93.116 Y128.044 E8.58038
G1 X92.443 Y127.415 E8.61102
G1 X91.828 Y126.731 E8.64161
G1 X91.274 Y125.996 E8.67222
G1 X90.786 Y125.215 E8.70285
G1 X90.367 Y124.395 E8.73348
G1 X90.021 Y123.542 E8.7641
G1 X89.751 Y122.662 E8.79471
G1 X89.558 Y121.761 E8.82536
G1 X89.444 Y120.848 E8.85596
G1 X89.413 Y120.277 E8.87498
G1 X89.404 Y119.944 E8.88606
G1 X89.4 Y119.658 E8.89558
G1 X89.401 Y100.531 E9.53174
G1 X89.41 Y99.866 E9.55386
G1 X89.462 Y98.946 E9.58451
G1 X89.594 Y98.035 E9.61513
G1 X89.805 Y97.139 E9.64574
G1 X90.092 Y96.264 E9.67637
G1 X90.455 Y95.418 E9.70699
G1 X90.889 Y94.606 E9.73761
G1 X91.392 Y93.835 E9.76823
G1 X91.961 Y93.111 E9.79886
G1 X92.589 Y92.439 E9.82945
G0 F6000 X92.981 Y92.617
G1 F1200 X93.662 Y92.024 E9.85948
G1 X94.394 Y91.494 E9.88954
G1 X95.169 Y91.031 E9.91957
G1 X95.982 Y90.638 E9.9496
G1 X96.827 Y90.318 E9.97966
G1 X97.696 Y90.075 E10.00967
G1 X98.584 Y89.909 E10.03971
G1 X99.723 Y89.813 E10.07773
G1 X100.044 Y89.804 E10.08841
G1 X100.33 Y89.8 E10.09793
G1 X119.293 Y89.8 E10.72864
G1 X120.137 Y89.811 E10.75671
G1 X121.039 Y89.864 E10.78676
G1 X121.932 Y89.996 E10.81679
G1 X122.81 Y90.207 E10.84682
G1 X123.666 Y90.495 E10.87686
G1 X124.493 Y90.857 E10.90689
G1 X125.285 Y91.292 E10.93694
G1 X126.036 Y91.794 E10.96698
G1 X126.739 Y92.361 E10.99702
G1 X127.389 Y92.988 E11.02706
G1 X127.981 Y93.67 E11.0571
G1 X128.511 Y94.401 E11.08713
G1 X128.973 Y95.177 E11.11717
G1 X129.366 Y95.99 E11.1472
G1 X129.684 Y96.835 E11.17723
G1 X129.927 Y97.705 E11.20728
G1 X130.092 Y98.593 E11.23732
G1 X130.187 Y99.723 E11.27503
G1 X130.196 Y100.043 E11.28568
G1 X130.2 Y100.33 E11.29523
G1 X130.199 Y119.39 E11.92916
G1 X130.19 Y120.117 E11.95335
G1 X130.139 Y121.019 E11.9834
G1 X130.008 Y121.913 E12.01345
G1 X129.799 Y122.791 E12.04347
G1 X129.513 Y123.648 E12.07351
G1 X129.152 Y124.476 E12.10356
G1 X128.72 Y125.268 E12.13356
G1 X128.219 Y126.02 E12.16362
G1 X127.653 Y126.724 E12.19366
G1 X127.028 Y127.375 E12.22368
G1 X126.347 Y127.969 E12.25373
G1 X125.616 Y128.5 E12.28378
G1 X124.842 Y128.964 E12.3138
G1 X124.029 Y129.358 E12.34385
G1 X123.185 Y129.678 E12.37387
G1 X122.315 Y129.923 E12.40393
G1 X121.428 Y130.089 E12.43394
G1 X120.277 Y130.187 E12.47237
G1 X119.956 Y130.196 E12.48305
G1 X119.67 Y130.2 E12.49256
G1 X100.575 Y130.199 E13.12766
G1 X99.877 Y130.19 E13.15088
G1 X98.976 Y130.139 E13.1809
G1 X98.082 Y130.007 E13.21095
G1 X97.204 Y129.798 E13.24097
G1 X96.347 Y129.511 E13.27103
G1 X95.52 Y129.15 E13.30104
G1 X94.727 Y128.717 E13.33109
G1 X93.976 Y128.216 E13.36112
G1 X93.272 Y127.65 E13.39116
G1 X92.621 Y127.024 E13.4212
G1 X92.028 Y126.343 E13.45124
G1 X91.498 Y125.612 E13.48127
G1 X91.034 Y124.837 E13.51131
G1 X90.64 Y124.024 E13.54136
G1 X90.32 Y123.18 E13.57138
G1 X90.076 Y122.31 E13.60143
G1 X89.91 Y121.422 E13.63148
G1 X89.813 Y120.267 E13.67003
G1 X89.804 Y119.934 E13.68111
G1 X89.8 Y119.658 E13.69029
G1 X89.801 Y100.536 E14.32629
G1 X89.81 Y99.871 E14.34841
G1 X89.862 Y98.969 E14.37846
G1 X89.994 Y98.076 E14.40849
G1 X90.204 Y97.198 E14.43851
G1 X90.491 Y96.341 E14.46857
G1 X90.853 Y95.514 E14.4986
G1 X91.286 Y94.722 E14.52862
G1 X91.788 Y93.971 E14.55867
G1 X92.355 Y93.267 E14.58873
G1 X92.981 Y92.617 E14.61875
G1 F1500 E8.11875
;MESH:cube2cm.stl
G0 F6000 X100.414 Y99.335
G0 X100.414 Y100.414
G0 X119.218 Y100.782
G0 X119.4 Y119.4
;TYPE:WALL-INNER
G1 F1500 E14.61875
G1 F1200 X100.6 Y119.4 E15.24404
G1 X100.6 Y100.6 E15.86933
G1 X119.4 Y100.6 E16.49462
G1 X119.4 Y119.4 E17.11991
G0 F6000 X119.8 Y119.8
;TYPE:WALL-OUTER
G1 F1200 X100.2 Y119.8 E17.77181
G1 X100.2 Y100.2 E18.42371
G1 X119.8 Y100.2 E19.0756
G1 X119.8 Y119.8 E19.7275
G1 F1500 E13.2275
G0 F6000 X119.5 Y119.53
G0 X110.2 Y119.19
G0 X110.2 Y110.2
;TYPE:SKIN
G1 F1500 E19.7275
G1 F1200 X109.8 Y110.2 E19.74081
G1 X109.8 Y109.8 E19.75411
G1 X110.2 Y109.8 E19.76741
G1 X110.2 Y110.2 E19.78072
G0 F6000 X110.6 Y110.6
G1 F1200 X109.4 Y110.6 E19.82063
G1 X109.4 Y109.4 E19.86054
G1 X110.6 Y109.4 E19.90046
G1 X110.6 Y110.6 E19.94037
G0 F6000 X111 Y111
G1 F1200 X109 Y111 E20.00689
G1 X109 Y109 E20.07341
G1 X111 Y109 E20.13993
G1 X111 Y111 E20.20645
G0 F6000 X111.4 Y111.4
G1 F1200 X108.6 Y111.4 E20.29958
G1 X108.6 Y108.6 E20.39271
G1 X111.4 Y108.6 E20.48583
G1 X111.4 Y111.4 E20.57896
G0 F6000 X111.8 Y111.8
G1 F1200 X108.2 Y111.8 E20.6987
G1 X108.2 Y108.2 E20.81843
G1 X111.8 Y108.2 E20.93817
G1 X111.8 Y111.8 E21.05791
G0 F6000 X112.2 Y112.2
G1 F1200 X107.8 Y112.2 E21.20425
G1 X107.8 Y107.8 E21.3506
G1 X112.2 Y107.8 E21.49694
G1 X112.2 Y112.2 E21.64329
G0 F6000 X112.6 Y112.6
G1 F1200 X107.4 Y112.6 E21.81624
G1 X107.4 Y107.4 E21.98919
G1 X112.6 Y107.4 E22.16214
G1 X112.6 Y112.6 E22.3351
G0 F6000 X113 Y113
G1 F1200 X107 Y113 E22.53466
G1 X107 Y107 E22.73422
G1 X113 Y107 E22.93378
G1 X113 Y113 E23.13334
G0 F6000 X113.4 Y113.4
G1 F1200 X106.6 Y113.4 E23.35951
G1 X106.6 Y106.6 E23.58568
G1 X113.4 Y106.6 E23.81185
G1 X113.4 Y113.4 E24.03802
G0 F6000 X113.8 Y113.8
G1 F1200 X106.2 Y113.8 E24.29079
G1 X106.2 Y106.2 E24.54357
G1 X113.8 Y106.2 E24.79635
G1 X113.8 Y113.8 E25.04912
G0 F6000 X114.2 Y114.2
G1 F1200 X105.8 Y114.2 E25.32851
G1 X105.8 Y105.8 E25.60789
G1 X114.2 Y105.8 E25.88728
G1 X114.2 Y114.2 E26.16666
G0 F6000 X114.6 Y114.6
G1 F1200 X105.4 Y114.6 E26.47266
G1 X105.4 Y105.4 E26.77865
G1 X114.6 Y105.4 E27.08464
G1 X114.6 Y114.6 E27.39064
G0 F6000 X115 Y115
G1 F1200 X105 Y115 E27.72324
G1 X105 Y105 E28.05584
G1 X115 Y105 E28.38844
G1 X115 Y115 E28.72104
G0 F6000 X115.4 Y115.4
G1 F1200 X104.6 Y115.4 E29.08025
G1 X104.6 Y104.6 E29.43946
G1 X115.4 Y104.6 E29.79867
G1 X115.4 Y115.4 E30.15788
G0 F6000 X115.8 Y115.8
G1 F1200 X104.2 Y115.8 E30.5437
G1 X104.2 Y104.2 E30.92952
G1 X115.8 Y104.2 E31.31533
G1 X115.8 Y115.8 E31.70115
G0 F6000 X116.2 Y116.2
G1 F1200 X103.8 Y116.2 E32.11358
G1 X103.8 Y103.8 E32.526
G1 X116.2 Y103.8 E32.93843
G1 X116.2 Y116.2 E33.35085
G0 F6000 X116.6 Y116.6
G1 F1200 X103.4 Y116.6 E33.78989
G1 X103.4 Y103.4 E34.22892
G1 X116.6 Y103.4 E34.66795
G1 X116.6 Y116.6 E35.10699
G0 F6000 X117 Y117
G1 F1200 X103 Y117 E35.57263
G1 X103 Y103 E36.03827
G1 X117 Y103 E36.50391
G1 X117 Y117 E36.96956
G0 F6000 X117.4 Y117.4
G1 F1200 X102.6 Y117.4 E37.46181
G1 X102.6 Y102.6 E37.95406
G1 X117.4 Y102.6 E38.44631
G1 X117.4 Y117.4 E38.93856
G0 F6000 X117.8 Y117.8
G1 F1200 X102.2 Y117.8 E39.45741
G1 X102.2 Y102.2 E39.97627
G1 X117.8 Y102.2 E40.49513
G1 X117.8 Y117.8 E41.01399
G0 F6000 X118.2 Y118.2
G1 F1200 X101.8 Y118.2 E41.55945
G1 X101.8 Y101.8 E42.10492
G1 X118.2 Y101.8 E42.65039
G1 X118.2 Y118.2 E43.19585
G0 F6000 X118.6 Y118.6
G1 F1200 X101.4 Y118.6 E43.76793
G1 X101.4 Y101.4 E44.34
G1 X118.6 Y101.4 E44.91208
G1 X118.6 Y118.6 E45.48415
G0 F6000 X119 Y119
G1 F1200 X101 Y119 E46.08283
G1 X101 Y101 E46.68152
G1 X119 Y101 E47.2802
G1 X119 Y119 E47.87888
G0 F6000 X119 Y119.2
;MESH:NONMESH
G0 F300 X119 Y119.2 Z0.4
G0 F6000 X119.4 Y119.4
;TIME_ELAPSED:82.331592
;LAYER:1
M106 S85
;TYPE:WALL-INNER
;MESH:cube2cm.stl
G1 F1350 X100.6 Y119.4 E48.50417
G1 X100.6 Y100.6 E49.12946
G1 X119.4 Y100.6 E49.75475
G1 X119.4 Y119.4 E50.38004
G0 F7500 X119.8 Y119.8
;TYPE:WALL-OUTER
G1 F1350 X100.2 Y119.8 E51.03194
G1 X100.2 Y100.2 E51.68384
G1 X119.8 Y100.2 E52.33574
G1 X119.8 Y119.8 E52.98764
G1 F1500 E46.48764
G0 F7500 X119.5 Y119.53
G0 X110.2 Y119.19
G0 X110.2 Y110.2
;TYPE:SKIN
G1 F1500 E52.98764
G1 F1350 X109.8 Y110.2 E53.00094
G1 X109.8 Y109.8 E53.01425
G1 X110.2 Y109.8 E53.02755
G1 X110.2 Y110.2 E53.04085
G0 F7500 X110.6 Y110.6
G1 F1350 X109.4 Y110.6 E53.08077
G1 X109.4 Y109.4 E53.12068
G1 X110.6 Y109.4 E53.16059
G1 X110.6 Y110.6 E53.2005
G0 F7500 X111 Y111
G1 F1350 X109 Y111 E53.26702
G1 X109 Y109 E53.33354
G1 X111 Y109 E53.40006
G1 X111 Y111 E53.46658
G0 F7500 X111.4 Y111.4
G1 F1350 X108.6 Y111.4 E53.55971
G1 X108.6 Y108.6 E53.65284
G1 X111.4 Y108.6 E53.74597
G1 X111.4 Y111.4 E53.8391
G0 F7500 X111.8 Y111.8
G1 F1350 X108.2 Y111.8 E53.95883
G1 X108.2 Y108.2 E54.07857
G1 X111.8 Y108.2 E54.19831
G1 X111.8 Y111.8 E54.31804
G0 F7500 X112.2 Y112.2
G1 F1350 X107.8 Y112.2 E54.46439
G1 X107.8 Y107.8 E54.61073
G1 X112.2 Y107.8 E54.75708
G1 X112.2 Y112.2 E54.90342
G0 F7500 X112.6 Y112.6
G1 F1350 X107.4 Y112.6 E55.07637
G1 X107.4 Y107.4 E55.24933
G1 X112.6 Y107.4 E55.42228
G1 X112.6 Y112.6 E55.59523
G0 F7500 X113 Y113
G1 F1350 X107 Y113 E55.79479
G1 X107 Y107 E55.99435
G1 X113 Y107 E56.19391
G1 X113 Y113 E56.39348
G0 F7500 X113.4 Y113.4
G1 F1350 X106.6 Y113.4 E56.61964
G1 X106.6 Y106.6 E56.84581
G1 X113.4 Y106.6 E57.07198
G1 X113.4 Y113.4 E57.29815
G0 F7500 X113.8 Y113.8
G1 F1350 X106.2 Y113.8 E57.55093
G1 X106.2 Y106.2 E57.8037
G1 X113.8 Y106.2 E58.05648
G1 X113.8 Y113.8 E58.30926
G0 F7500 X114.2 Y114.2
G1 F1350 X105.8 Y114.2 E58.58864
G1 X105.8 Y105.8 E58.86803
G1 X114.2 Y105.8 E59.14741
G1 X114.2 Y114.2 E59.4268
G0 F7500 X114.6 Y114.6
G1 F1350 X105.4 Y114.6 E59.73279
G1 X105.4 Y105.4 E60.03879
G1 X114.6 Y105.4 E60.34478
G1 X114.6 Y114.6 E60.65077
G0 F7500 X115 Y115
G1 F1350 X105 Y115 E60.98337
G1 X105 Y105 E61.31598
G1 X115 Y105 E61.64858
G1 X115 Y115 E61.98118
G0 F7500 X115.4 Y115.4
G1 F1350 X104.6 Y115.4 E62.34039
G1 X104.6 Y104.6 E62.6996
G1 X115.4 Y104.6 E63.05881
G1 X115.4 Y115.4 E63.41802
G0 F7500 X115.8 Y115.8
G1 F1350 X104.2 Y115.8 E63.80383
G1 X104.2 Y104.2 E64.18965
G1 X115.8 Y104.2 E64.57547
G1 X115.8 Y115.8 E64.96129
G0 F7500 X116.2 Y116.2
G1 F1350 X103.8 Y116.2 E65.37371
G1 X103.8 Y103.8 E65.78614
G1 X116.2 Y103.8 E66.19856
G1 X116.2 Y116.2 E66.61099
G0 F7500 X116.6 Y116.6
G1 F1350 X103.4 Y116.6 E67.05002
G1 X103.4 Y103.4 E67.48906
G1 X116.6 Y103.4 E67.92809
G1 X116.6 Y116.6 E68.36712
G0 F7500 X117 Y117
G1 F1350 X103 Y117 E68.83277
G1 X103 Y103 E69.29841
G1 X117 Y103 E69.76405
G1 X117 Y117 E70.22969
G0 F7500 X117.4 Y117.4
G1 F1350 X102.6 Y117.4 E70.72194
G1 X102.6 Y102.6 E71.21419
G1 X117.4 Y102.6 E71.70644
G1 X117.4 Y117.4 E72.19869
G0 F7500 X117.8 Y117.8
G1 F1350 X102.2 Y117.8 E72.71755
G1 X102.2 Y102.2 E73.23641
G1 X117.8 Y102.2 E73.75527
G1 X117.8 Y117.8 E74.27412
G0 F7500 X118.2 Y118.2
G1 F1350 X101.8 Y118.2 E74.81959
G1 X101.8 Y101.8 E75.36506
G1 X118.2 Y101.8 E75.91052
G1 X118.2 Y118.2 E76.45599
G0 F7500 X118.6 Y118.6
G1 F1350 X101.4 Y118.6 E77.02806
G1 X101.4 Y101.4 E77.60014
G1 X118.6 Y101.4 E78.17221
G1 X118.6 Y118.6 E78.74429
