;FLAVOR:Marlin
;TIME:2872
;Filament used: 0.709436m
;Layer height: 0.12
;MINX:84.011
;MINY:84.011
;MINZ:0.12
;MAXX:135.989
;MAXY:135.989
;MAXZ:30.064
;Generated with Cura_SteamEngine 5.2.1
M82 ;absolute extrusion mode
; Ender 3 Custom Start G-code
G92 E0 ; Reset Extruder
G28 ; Home all axes
M104 S175 ; Start heating up the nozzle most of the way
M190 S60 ; Start heating the bed, wait until target temperature reached
M109 S200 ; Finish heating the nozzle
G1 Z2.0 F3000 ; Move Z Axis up little to prevent scratching of Heat Bed
G1 X0.1 Y20 Z0.3 F5000.0 ; Move to start position
G1 X0.1 Y200.0 Z0.3 F1500.0 E15 ; Draw the first line
G1 X0.4 Y200.0 Z0.3 F5000.0 ; Move to side a little
G1 X0.4 Y20 Z0.3 F1500.0 E30 ; Draw the second line
G92 E0 ; Reset Extruder
G1 Z2.0 F3000 ; Move Z Axis up little to prevent scratching of Heat Bed
G1 X5 Y20 Z0.3 F5000.0 ; Move over to prevent blob squish
G92 E0
G92 E0
G1 F1500 E-6.5
;LAYER_COUNT:250
;LAYER:0
M107
G0 F6000 X91.784 Y91.466 Z0.12
;TYPE:SKIRT
G1 F1500 E0
G1 F1200 X92.481 Y90.837 E0.01874
G1 X93.306 Y90.156 E0.04008
G1 X94.51 Y89.196 E0.07081
G1 X95.152 Y88.699 E0.08702
G1 X95.917 Y88.158 E0.10571
G1 X96.718 Y87.688 E0.12425
G1 X97.584 Y87.229 E0.14381
G1 X98.915 Y86.55 E0.17363
G1 X99.7 Y86.163 E0.19109
G1 X100.559 Y85.786 E0.20981
G1 X101.392 Y85.499 E0.22739
G1 X102.207 Y85.256 E0.24437
G1 X103.607 Y84.859 E0.27341
G1 X104.46 Y84.629 E0.29104
G1 X105.375 Y84.425 E0.30974
G1 X106.028 Y84.328 E0.32292
G1 X106.695 Y84.254 E0.33631
G1 X108.367 Y84.104 E0.36981
G1 X109.201 Y84.041 E0.3865
G1 X110.139 Y84.011 E0.40523
G1 X110.755 Y84.035 E0.41753
G1 X111.304 Y84.076 E0.42852
G1 X113.179 Y84.255 E0.46611
G1 X114.122 Y84.36 E0.48504
G1 X115.049 Y84.505 E0.50377
G1 X115.902 Y84.712 E0.52128
G1 X116.626 Y84.919 E0.53631
G1 X118.124 Y85.367 E0.56751
G1 X118.981 Y85.636 E0.58544
G1 X119.863 Y85.955 E0.60415
G1 X120.72 Y86.351 E0.62299
G1 X121.515 Y86.762 E0.64085
G1 X122.903 Y87.503 E0.67225
G1 X123.662 Y87.921 E0.68955
G1 X124.462 Y88.409 E0.70825
G1 X125.228 Y88.971 E0.72721
G1 X126.047 Y89.63 E0.74818
G1 X127.208 Y90.596 E0.77832
G1 X127.849 Y91.144 E0.79515
G1 X128.534 Y91.784 E0.81386
G1 X129.163 Y92.481 E0.8326
G1 X129.844 Y93.306 E0.85395
G1 X130.804 Y94.51 E0.88467
G1 X131.301 Y95.152 E0.90088
G1 X131.842 Y95.917 E0.91958
G1 X132.312 Y96.718 E0.93811
G1 X132.771 Y97.584 E0.95767
G1 X133.45 Y98.915 E0.98749
G1 X133.844 Y99.716 E1.0053
G1 X134.221 Y100.575 E1.02402
G1 X134.513 Y101.428 E1.04201
G1 X134.743 Y102.203 E1.05815
G1 X135.138 Y103.594 E1.087
G1 X135.373 Y104.47 E1.1051
G1 X135.577 Y105.386 E1.12383
G1 X135.668 Y105.994 E1.1361
G1 X135.738 Y106.622 E1.14871
G1 X135.909 Y108.519 E1.18672
G1 X135.959 Y109.179 E1.19993
G1 X135.989 Y110.116 E1.21864
G1 X135.967 Y110.715 E1.2306
G1 X135.924 Y111.305 E1.2424
G1 X135.73 Y113.326 E1.28292
G1 X135.65 Y114.059 E1.29763
G1 X135.509 Y114.987 E1.31637
G1 X135.294 Y115.881 E1.33471
G1 X135.081 Y116.625 E1.35016
G1 X134.589 Y118.267 E1.38437
G1 X134.366 Y118.977 E1.39922
G1 X134.047 Y119.859 E1.41793
G1 X133.649 Y120.72 E1.43686
G1 X133.238 Y121.515 E1.45472
G1 X132.497 Y122.903 E1.48612
G1 X132.079 Y123.662 E1.50341
G1 X131.591 Y124.462 E1.52211
G1 X131.032 Y125.225 E1.54099
G1 X130.366 Y126.052 E1.56218
G1 X129.3 Y127.331 E1.59541
G1 X128.856 Y127.849 E1.60902
G1 X128.216 Y128.534 E1.62773
G1 X127.519 Y129.163 E1.64647
G1 X126.694 Y129.844 E1.66781
G1 X125.49 Y130.804 E1.69854
G1 X124.848 Y131.301 E1.71475
G1 X124.083 Y131.842 E1.73344
G1 X123.282 Y132.312 E1.75198
G1 X122.416 Y132.771 E1.77154
G1 X121.085 Y133.45 E1.80136
G1 X120.3 Y133.837 E1.81882
G1 X119.441 Y134.214 E1.83754
G1 X118.608 Y134.501 E1.85512
G1 X117.797 Y134.743 E1.87201
G1 X116.406 Y135.138 E1.90087
G1 X115.534 Y135.372 E1.91889
G1 X114.619 Y135.576 E1.9376
G1 X113.972 Y135.672 E1.95065
G1 X113.305 Y135.746 E1.96404
G1 X111.465 Y135.91 E2.00091
G1 X110.792 Y135.96 E2.01437
G1 X109.855 Y135.989 E2.03308
G1 X109.233 Y135.965 E2.0455
G1 X108.695 Y135.924 E2.05627
G1 X106.821 Y135.745 E2.09384
G1 X105.88 Y135.64 E2.11273
G1 X104.953 Y135.495 E2.13146
G1 X104.098 Y135.288 E2.14901
G1 X103.374 Y135.081 E2.16404
G1 X101.876 Y134.633 E2.19524
G1 X101.019 Y134.364 E2.21317
G1 X100.137 Y134.045 E2.23188
G1 X99.28 Y133.649 E2.25072
G1 X98.485 Y133.238 E2.26858
G1 X97.097 Y132.497 E2.29998
G1 X96.338 Y132.079 E2.31728
G1 X95.538 Y131.591 E2.33598
G1 X94.775 Y131.032 E2.35485
G1 X93.948 Y130.366 E2.37604
G1 X92.669 Y129.3 E2.40927
G1 X92.151 Y128.856 E2.42288
G1 X91.466 Y128.216 E2.44159
G1 X90.837 Y127.519 E2.46033
G1 X90.156 Y126.694 E2.48168
G1 X89.196 Y125.49 E2.51241
G1 X88.699 Y124.848 E2.52861
G1 X88.158 Y124.083 E2.54731
G1 X87.688 Y123.282 E2.56584
G1 X87.229 Y122.416 E2.5854
G1 X86.55 Y121.085 E2.61522
G1 X86.163 Y120.298 E2.63272
G1 X85.785 Y119.44 E2.65143
G1 X85.497 Y118.6 E2.66915
G1 X85.257 Y117.797 E2.68587
G1 X84.862 Y116.406 E2.71473
G1 X84.626 Y115.525 E2.73293
G1 X84.422 Y114.609 E2.75166
G1 X84.329 Y113.976 E2.76443
G1 X84.254 Y113.305 E2.7779
G1 X84.09 Y111.465 E2.81477
G1 X84.04 Y110.792 E2.82823
G1 X84.011 Y109.855 E2.84694
G1 X84.035 Y109.233 E2.85936
G1 X84.076 Y108.695 E2.87013
G1 X84.255 Y106.821 E2.9077
G1 X84.36 Y105.88 E2.92659
G1 X84.505 Y104.953 E2.94532
G1 X84.712 Y104.098 E2.96287
G1 X84.919 Y103.376 E2.97786
G1 X85.367 Y101.877 E3.00908
G1 X85.635 Y101.021 E3.02698
G1 X85.954 Y100.139 E3.0457
G1 X86.35 Y99.283 E3.06452
G1 X86.762 Y98.485 E3.08245
G1 X87.503 Y97.097 E3.11384
G1 X87.921 Y96.338 E3.13114
G1 X88.409 Y95.538 E3.14984
G1 X88.968 Y94.775 E3.16871
G1 X89.634 Y93.948 E3.1899
G1 X90.7 Y92.669 E3.22313
G1 X91.144 Y92.151 E3.23674
G1 X91.784 Y91.466 E3.25545
G0 F6000 X92.077 Y91.739
G1 F1200 X92.737 Y91.145 E3.27317
G1 X93.556 Y90.469 E3.29436
G1 X94.885 Y89.41 E3.32828
G1 X95.396 Y89.015 E3.34117
G1 X96.148 Y88.485 E3.35953
G1 X96.906 Y88.041 E3.37706
G1 X97.766 Y87.586 E3.39647
G1 X99.239 Y86.835 E3.42947
G1 X99.876 Y86.522 E3.44363
G1 X100.72 Y86.153 E3.46201
G1 X101.507 Y85.883 E3.47862
G1 X102.316 Y85.641 E3.49547
G1 X103.716 Y85.244 E3.52451
G1 X104.564 Y85.016 E3.54203
G1 X105.462 Y84.816 E3.56039
G1 X106.075 Y84.725 E3.57276
G1 X106.731 Y84.652 E3.58593
G1 X108.403 Y84.502 E3.61943
G1 X109.231 Y84.439 E3.636
G1 X110.151 Y84.411 E3.65437
G1 X110.728 Y84.434 E3.6659
G1 X111.266 Y84.474 E3.67666
G1 X113.326 Y84.672 E3.71796
G1 X114.077 Y84.757 E3.73304
G1 X114.987 Y84.9 E3.75143
G1 X115.792 Y85.097 E3.76796
G1 X116.511 Y85.302 E3.78288
G1 X118.009 Y85.75 E3.81409
G1 X118.861 Y86.017 E3.83191
G1 X119.727 Y86.331 E3.85029
G1 X120.536 Y86.706 E3.86808
G1 X121.19 Y87.043 E3.88276
G1 X122.715 Y87.856 E3.91725
G1 X123.468 Y88.271 E3.93441
G1 X124.254 Y88.751 E3.95279
G1 X124.977 Y89.283 E3.9707
G1 X125.791 Y89.938 E3.99155
G1 X126.952 Y90.904 E4.02169
G1 X127.588 Y91.448 E4.03839
G1 X128.261 Y92.077 E4.05678
G1 X128.855 Y92.737 E4.0745
G1 X129.531 Y93.556 E4.09569
G1 X130.59 Y94.885 E4.1296
G1 X130.985 Y95.396 E4.14249
G1 X131.515 Y96.148 E4.16085
G1 X131.959 Y96.906 E4.17838
G1 X132.414 Y97.766 E4.1978
G1 X133.167 Y99.244 E4.2309
G1 X133.485 Y99.892 E4.2453
G1 X133.854 Y100.735 E4.26367
G1 X134.13 Y101.542 E4.28069
G1 X134.358 Y102.312 E4.29671
G1 X134.753 Y103.703 E4.32557
G1 X134.987 Y104.574 E4.34357
G1 X135.186 Y105.473 E4.36194
G1 X135.27 Y106.042 E4.37342
G1 X135.34 Y106.658 E4.38579
G1 X135.51 Y108.549 E4.42368
G1 X135.56 Y109.209 E4.43689
G1 X135.589 Y110.129 E4.45526
G1 X135.568 Y110.69 E4.46646
G1 X135.526 Y111.267 E4.47801
G1 X135.347 Y113.141 E4.51558
G1 X135.252 Y114.016 E4.53314
G1 X135.113 Y114.926 E4.55151
G1 X134.909 Y115.771 E4.56886
G1 X134.698 Y116.51 E4.5842
G1 X134.25 Y118.008 E4.6154
G1 X133.984 Y118.857 E4.63315
G1 X133.67 Y119.723 E4.65154
G1 X133.294 Y120.536 E4.66941
G1 X132.957 Y121.19 E4.68409
G1 X132.144 Y122.715 E4.71858
G1 X131.729 Y123.468 E4.73574
G1 X131.249 Y124.254 E4.75412
G1 X130.72 Y124.974 E4.77195
G1 X130.059 Y125.796 E4.793
G1 X129.095 Y126.954 E4.82307
G1 X128.552 Y127.588 E4.83972
G1 X127.923 Y128.261 E4.85811
G1 X127.263 Y128.855 E4.87583
G1 X126.444 Y129.531 E4.89702
G1 X125.115 Y130.59 E4.93093
G1 X124.604 Y130.985 E4.94382
G1 X123.852 Y131.515 E4.96218
G1 X123.094 Y131.959 E4.97971
G1 X122.234 Y132.414 E4.99913
G1 X120.761 Y133.165 E5.03212
G1 X120.124 Y133.478 E5.04629
G1 X119.28 Y133.847 E5.06467
G1 X118.493 Y134.117 E5.08127
G1 X117.688 Y134.358 E5.09804
G1 X116.297 Y134.753 E5.1269
G1 X115.431 Y134.986 E5.14479
G1 X114.532 Y135.185 E5.16317
G1 X113.925 Y135.275 E5.17542
G1 X113.269 Y135.348 E5.18859
G1 X111.597 Y135.498 E5.22209
G1 X110.762 Y135.561 E5.2388
G1 X109.842 Y135.589 E5.25717
G1 X109.26 Y135.566 E5.26879
G1 X108.733 Y135.526 E5.27934
G1 X106.676 Y135.328 E5.32058
G1 X105.924 Y135.243 E5.33568
G1 X105.015 Y135.1 E5.35404
G1 X104.208 Y134.903 E5.37062
G1 X103.489 Y134.698 E5.38554
G1 X101.991 Y134.25 E5.41674
G1 X101.139 Y133.983 E5.43456
G1 X100.273 Y133.669 E5.45294
G1 X99.464 Y133.294 E5.47074
G1 X98.81 Y132.957 E5.48542
G1 X97.285 Y132.144 E5.51991
G1 X96.532 Y131.729 E5.53707
G1 X95.746 Y131.249 E5.55544
G1 X95.026 Y130.72 E5.57327
G1 X94.204 Y130.059 E5.59432
G1 X93.046 Y129.095 E5.62439
G1 X92.412 Y128.552 E5.64105
G1 X91.739 Y127.923 E5.65943
G1 X91.145 Y127.263 E5.67715
G1 X90.469 Y126.444 E5.69835
G1 X89.41 Y125.115 E5.73226
G1 X89.015 Y124.604 E5.74515
G1 X88.485 Y123.852 E5.76351
G1 X88.041 Y123.094 E5.78104
G1 X87.586 Y122.234 E5.80045
G1 X86.907 Y120.903 E5.83027
G1 X86.522 Y120.122 E5.84765
G1 X86.152 Y119.279 E5.86602
G1 X85.88 Y118.486 E5.88275
G1 X85.642 Y117.688 E5.89937
G1 X85.247 Y116.297 E5.92823
G1 X85.012 Y115.422 E5.94631
G1 X84.813 Y114.523 E5.96468
G1 X84.726 Y113.93 E5.97664
G1 X84.652 Y113.269 E5.98991
G1 X84.502 Y111.597 E6.02342
G1 X84.439 Y110.762 E6.04013
G1 X84.411 Y109.842 E6.05849
G1 X84.434 Y109.26 E6.07012
G1 X84.474 Y108.733 E6.08066
G1 X84.672 Y106.676 E6.1219
G1 X84.757 Y105.924 E6.13701
G1 X84.9 Y105.015 E6.15537
G1 X85.097 Y104.208 E6.17195
G1 X85.302 Y103.491 E6.18683
G1 X85.794 Y101.847 E6.22107
G1 X86.016 Y101.141 E6.23584
G1 X86.33 Y100.276 E6.25421
G1 X86.705 Y99.466 E6.27202
G1 X87.043 Y98.81 E6.28675
G1 X87.856 Y97.285 E6.32123
G1 X88.271 Y96.532 E6.33839
G1 X88.751 Y95.746 E6.35677
G1 X89.28 Y95.026 E6.3746
G1 X89.941 Y94.204 E6.39565
G1 X90.905 Y93.046 E6.42572
G1 X91.448 Y92.412 E6.44238
G1 X92.077 Y91.739 E6.46076
G0 F6000 X92.369 Y92.013
G1 F1200 X92.992 Y91.453 E6.47748
G1 X93.805 Y90.782 E6.49851
G1 X95.009 Y89.822 E6.52924
G1 X95.641 Y89.332 E6.5452
G1 X96.379 Y88.812 E6.56322
G1 X97.094 Y88.394 E6.57975
G1 X97.948 Y87.942 E6.59903
G1 X99.416 Y87.194 E6.63191
G1 X100.053 Y86.881 E6.64607
G1 X100.88 Y86.519 E6.66409
G1 X101.621 Y86.266 E6.67971
G1 X102.425 Y86.026 E6.69646
G1 X103.963 Y85.591 E6.72836
G1 X104.667 Y85.402 E6.7429
G1 X105.549 Y85.207 E6.76093
G1 X106.122 Y85.123 E6.77249
G1 X106.767 Y85.051 E6.78544
G1 X108.591 Y84.888 E6.82198
G1 X109.261 Y84.838 E6.83539
G1 X110.164 Y84.811 E6.85342
G1 X110.701 Y84.833 E6.86414
G1 X111.228 Y84.872 E6.87469
G1 X113.103 Y85.051 E6.91228
G1 X114.032 Y85.155 E6.93093
G1 X114.924 Y85.296 E6.94895
G1 X115.683 Y85.481 E6.96454
G1 X116.272 Y85.649 E6.97677
G1 X118.032 Y86.176 E7.01343
G1 X118.741 Y86.399 E7.02826
G1 X119.59 Y86.708 E7.04629
G1 X120.353 Y87.062 E7.06308
G1 X121.139 Y87.468 E7.08073
G1 X122.656 Y88.279 E7.11506
G1 X123.275 Y88.621 E7.12917
G1 X124.045 Y89.092 E7.14719
G1 X124.727 Y89.595 E7.1641
G1 X125.535 Y90.245 E7.18479
G1 X126.696 Y91.211 E7.21493
G1 X127.328 Y91.752 E7.23153
G1 X127.987 Y92.369 E7.24955
G1 X128.547 Y92.992 E7.26627
G1 X129.218 Y93.805 E7.2873
G1 X130.178 Y95.009 E7.31803
G1 X130.668 Y95.641 E7.33399
G1 X131.188 Y96.379 E7.35201
G1 X131.606 Y97.094 E7.36854
G1 X132.058 Y97.948 E7.38782
G1 X132.808 Y99.42 E7.42079
G1 X133.126 Y100.068 E7.43519
G1 X133.487 Y100.896 E7.45322
G1 X133.746 Y101.656 E7.46924
G1 X133.973 Y102.422 E7.48518
G1 X134.41 Y103.963 E7.51715
G1 X134.601 Y104.677 E7.5319
G1 X134.795 Y105.559 E7.54992
G1 X134.873 Y106.09 E7.56063
G1 X134.942 Y106.694 E7.57276
G1 X135.099 Y108.433 E7.60761
G1 X135.161 Y109.239 E7.62374
G1 X135.189 Y110.142 E7.64177
G1 X135.169 Y110.664 E7.65219
G1 X135.128 Y111.229 E7.6635
G1 X134.935 Y113.24 E7.70381
G1 X134.855 Y113.973 E7.71853
G1 X134.717 Y114.865 E7.73654
G1 X134.524 Y115.662 E7.75291
G1 X134.314 Y116.396 E7.76814
G1 X133.866 Y117.894 E7.79934
G1 X133.602 Y118.737 E7.81697
G1 X133.294 Y119.586 E7.835
G1 X132.938 Y120.353 E7.85187
G1 X132.532 Y121.139 E7.86953
G1 X131.721 Y122.656 E7.90385
G1 X131.379 Y123.275 E7.91797
G1 X130.908 Y124.045 E7.93598
G1 X130.408 Y124.724 E7.95281
G1 X129.869 Y125.396 E7.97
G1 X128.787 Y126.698 E8.00378
G1 X128.248 Y127.328 E8.02033
G1 X127.631 Y127.987 E8.03834
G1 X127.008 Y128.547 E8.05506
G1 X126.195 Y129.218 E8.0761
G1 X124.991 Y130.178 E8.10683
G1 X124.359 Y130.668 E8.12279
G1 X123.621 Y131.188 E8.1408
G1 X122.906 Y131.606 E8.15733
G1 X122.052 Y132.058 E8.17661
G1 X120.584 Y132.806 E8.20949
G1 X119.947 Y133.119 E8.22365
G1 X119.12 Y133.481 E8.24167
G1 X118.379 Y133.734 E8.2573
G1 X117.578 Y133.973 E8.27398
G1 X116.04 Y134.409 E8.30588
G1 X115.327 Y134.6 E8.32061
G1 X114.446 Y134.794 E8.33861
G1 X113.878 Y134.877 E8.35007
G1 X113.233 Y134.949 E8.36302
G1 X111.406 Y135.112 E8.39962
G1 X110.733 Y135.162 E8.41309
G1 X109.83 Y135.189 E8.43112
G1 X109.287 Y135.167 E8.44196
G1 X108.771 Y135.128 E8.45229
G1 X106.897 Y134.949 E8.48986
G1 X105.969 Y134.845 E8.50849
G1 X105.077 Y134.704 E8.52652
G1 X104.317 Y134.519 E8.54213
G1 X103.728 Y134.351 E8.55435
G1 X101.968 Y133.824 E8.59101
G1 X101.259 Y133.601 E8.60584
G1 X100.41 Y133.292 E8.62387
G1 X99.647 Y132.938 E8.64066
G1 X98.861 Y132.532 E8.65831
G1 X97.344 Y131.721 E8.69264
G1 X96.725 Y131.379 E8.70676
G1 X95.955 Y130.908 E8.72477
G1 X95.276 Y130.408 E8.7416
G1 X94.604 Y129.869 E8.75879
G1 X93.302 Y128.787 E8.79257
G1 X92.672 Y128.248 E8.80912
G1 X92.013 Y127.631 E8.82713
G1 X91.453 Y127.008 E8.84385
G1 X90.782 Y126.195 E8.86489
G1 X89.822 Y124.991 E8.89562
G1 X89.332 Y124.359 E8.91157
G1 X88.812 Y123.621 E8.92959
G1 X88.394 Y122.906 E8.94612
G1 X87.942 Y122.052 E8.9654
G1 X87.263 Y120.721 E8.99522
G1 X86.881 Y119.945 E9.01248
G1 X86.519 Y119.118 E9.0305
G1 X86.263 Y118.371 E9.04625
G1 X86.067 Y117.716 E9.0599
G1 X85.632 Y116.187 E9.09162
G1 X85.399 Y115.318 E9.10958
G1 X85.204 Y114.436 E9.1276
G1 X85.123 Y113.883 E9.13876
G1 X85.051 Y113.233 E9.15181
G1 X84.888 Y111.406 E9.18841
G1 X84.838 Y110.733 E9.20188
G1 X84.811 Y109.83 E9.21991
G1 X84.833 Y109.287 E9.23075
G1 X84.872 Y108.771 E9.24108
G1 X85.051 Y106.897 E9.27865
G1 X85.155 Y105.969 E9.29728
G1 X85.296 Y105.077 E9.3153
G1 X85.481 Y104.317 E9.33091
G1 X85.685 Y103.605 E9.34569
G1 X86.133 Y102.106 E9.37691
G1 X86.398 Y101.261 E9.39459
G1 X86.706 Y100.413 E9.41259
G1 X87.061 Y99.649 E9.4294
G1 X87.468 Y98.861 E9.4471
G1 X88.279 Y97.344 E9.48143
G1 X88.621 Y96.725 E9.49554
G1 X89.092 Y95.955 E9.51356
G1 X89.592 Y95.276 E9.53038
G1 X90.131 Y94.604 E9.54758
G1 X91.213 Y93.302 E9.58136
G1 X91.752 Y92.672 E9.5979
G1 X92.369 Y92.013 E9.61592
G1 F1500 E3.11592
;MESH:a3-Cylinder.stl
G0 F6000 X94.588 Y112.815
G0 X95.404 Y115.695
G0 X96.821 Y118.472
G0 X98.807 Y120.963
G0 X101.258 Y123.002
G0 X104.059 Y124.497
G0 X107.006 Y125.379
G0 X109.88 Y125.657
G0 X109.99 Y124.799
;TYPE:WALL-OUTER
G1 F1500 E9.61592
G1 F1200 X112.655 Y124.558 E9.66932
G1 X115.38 Y123.785 E9.72585
G1 X118 Y122.45 E9.78453
G1 X120.356 Y120.57 E9.84468
G1 X122.279 Y118.258 E9.90469
G1 X123.694 Y115.608 E9.96464
G1 X124.526 Y112.825 E10.02261
G1 X124.799 Y110.008 E10.07909
G1 X124.558 Y107.345 E10.13245
G1 X123.785 Y104.62 E10.18897
G1 X122.45 Y102 E10.24765
G1 X120.57 Y99.644 E10.3078
G1 X118.258 Y97.721 E10.36782
G1 X115.612 Y96.308 E10.42768
G1 X112.825 Y95.474 E10.48573
G1 X110.01 Y95.201 E10.54217
G1 X107.345 Y95.442 E10.59557
G1 X104.62 Y96.215 E10.6521
G1 X102 Y97.55 E10.71078
G1 X99.644 Y99.43 E10.77093
G1 X97.721 Y101.742 E10.83094
G1 X96.306 Y104.392 E10.89089
G1 X95.474 Y107.175 E10.94886
G1 X95.201 Y109.992 E11.00534
G1 X95.322 Y111.325 E11.03205
