;FLAVOR:Marlin
;TIME:2388
;Filament used: 3.0151m
;Layer height: 0.28
;MINX:84.006
;MINY:84.006
;MINZ:0.28
;MAXX:135.991
;MAXY:135.994
;MAXZ:29.96
;Generated with Cura_SteamEngine 4.8.0
M140 S60
M105
M190 S60
M104 S200
M105
M109 S200
M82 ;absolute extrusion mode
; Ender 3 Custom Start G-code
G92 E0 ; Reset Extruder
G28 ; Home all axes
G1 Z2.0 F3000 ; Move Z Axis up little to prevent scratching of Heat Bed
G1 X0.1 Y20 Z0.3 F5000.0 ; Move to start position
G1 X0.1 Y200.0 Z0.3 F1500.0 E15 ; Draw the first line
G1 X0.4 Y200.0 Z0.3 F5000.0 ; Move to side a little
G1 X0.4 Y20 Z0.3 F1500.0 E30 ; Draw the second line
G92 E0 ; Reset Extruder
G1 Z2.0 F3000 ; Move Z Axis up little to prevent scratching of Heat Bed
G1 X5 Y20 Z0.3 F5000.0 ; Move over to prevent blob squish
G92 E0
G92 E0
G1 F1500 E-6.5
;LAYER_COUNT:107
;LAYER:0
M107
G0 F6000 X91.75 Y91.493 Z0.28
;TYPE:SKIRT
G1 F1500 E0
G1 F1200 X91.951 Y91.297 E0.01307
G1 X92.333 Y90.934 E0.03761
G1 X92.648 Y90.645 E0.05752
G1 X92.831 Y90.483 E0.0689
G1 X93.156 Y90.203 E0.08887
G1 X93.64 Y89.801 E0.11817
G1 X93.871 Y89.615 E0.13198
G1 X94.144 Y89.402 E0.1481
G1 X94.36 Y89.238 E0.16073
G1 X94.704 Y88.983 E0.18067
G1 X95.084 Y88.712 E0.2024
G1 X95.3 Y88.563 E0.21462
G1 X95.748 Y88.263 E0.23973
G1 X96.174 Y87.987 E0.26336
G1 X96.42 Y87.833 E0.27688
G1 X96.608 Y87.719 E0.28711
G1 X96.963 Y87.512 E0.30625
G1 X97.706 Y87.101 E0.34579
G1 X98.028 Y86.931 E0.36274
G1 X98.451 Y86.716 E0.38484
G1 X98.686 Y86.6 E0.39704
G1 X99.014 Y86.443 E0.41397
G1 X99.24 Y86.338 E0.42558
G1 X99.506 Y86.218 E0.43917
G1 X99.773 Y86.102 E0.45272
G1 X100.203 Y85.923 E0.47441
G1 X100.641 Y85.748 E0.49637
G1 X100.915 Y85.643 E0.51003
G1 X101.159 Y85.553 E0.52214
G1 X101.521 Y85.426 E0.54001
G1 X102.076 Y85.243 E0.56722
G1 X102.596 Y85.081 E0.59258
G1 X102.995 Y84.967 E0.6119
G1 X103.63 Y84.798 E0.6425
G1 X103.993 Y84.708 E0.65992
G1 X104.432 Y84.607 E0.68089
G1 X104.848 Y84.52 E0.70068
G1 X105.312 Y84.432 E0.72267
G1 X105.625 Y84.377 E0.73747
G1 X106.194 Y84.286 E0.7643
G1 X106.472 Y84.245 E0.77739
G1 X106.741 Y84.209 E0.79002
G1 X107.078 Y84.169 E0.80583
G1 X107.546 Y84.121 E0.82773
G1 X108.099 Y84.075 E0.85357
G1 X108.362 Y84.057 E0.86585
G1 X108.705 Y84.038 E0.88184
G1 X108.954 Y84.027 E0.89345
G1 X109.321 Y84.015 E0.91055
G1 X109.61 Y84.009 E0.92401
G1 X110.081 Y84.006 E0.94594
G1 X110.571 Y84.012 E0.96876
G1 X111.206 Y84.034 E0.99834
G1 X111.473 Y84.047 E1.01079
G1 X111.762 Y84.065 E1.02427
G1 X112.364 Y84.114 E1.0524
G1 X112.601 Y84.136 E1.06348
G1 X112.928 Y84.171 E1.07879
G1 X113.188 Y84.202 E1.09099
G1 X113.691 Y84.268 E1.11461
G1 X114.148 Y84.338 E1.13614
G1 X114.722 Y84.438 E1.16327
G1 X115.218 Y84.533 E1.18678
G1 X115.44 Y84.579 E1.19734
G1 X115.768 Y84.652 E1.21299
G1 X116.355 Y84.794 E1.24111
G1 X116.913 Y84.941 E1.26798
G1 X117.33 Y85.059 E1.28816
G1 X117.756 Y85.188 E1.30888
G1 X118.162 Y85.319 E1.32875
G1 X118.502 Y85.435 E1.34548
G1 X118.942 Y85.593 E1.36725
G1 X119.217 Y85.696 E1.38092
G1 X119.756 Y85.906 E1.40785
G1 X120.203 Y86.092 E1.4304
G1 X120.704 Y86.313 E1.4559
G1 X120.93 Y86.416 E1.46746
G1 X121.446 Y86.66 E1.49404
G1 X121.838 Y86.857 E1.51447
G1 X122.168 Y87.031 E1.53184
G1 X122.738 Y87.344 E1.56212
G1 X122.984 Y87.483 E1.57528
G1 X123.303 Y87.669 E1.59247
G1 X123.52 Y87.799 E1.60425
G1 X123.8 Y87.971 E1.61955
G1 X124.043 Y88.125 E1.63295
G1 X124.386 Y88.351 E1.65207
G1 X124.759 Y88.604 E1.67306
G1 X125.019 Y88.786 E1.68784
G1 X125.403 Y89.063 E1.70989
G1 X125.637 Y89.236 E1.72344
G1 X125.881 Y89.422 E1.73772
G1 X126.078 Y89.576 E1.74937
G1 X126.441 Y89.866 E1.771
G1 X126.641 Y90.03 E1.78304
G1 X126.845 Y90.201 E1.79544
G1 X127.08 Y90.403 E1.80987
G1 X127.355 Y90.647 E1.82699
G1 X127.619 Y90.889 E1.84366
G1 X128.036 Y91.284 E1.87041
G1 X128.249 Y91.492 E1.88427
G1 X128.507 Y91.75 E1.90126
G1 X128.703 Y91.951 E1.91433
G1 X129.066 Y92.333 E1.93887
G1 X129.355 Y92.648 E1.95878
G1 X129.517 Y92.831 E1.97016
G1 X129.797 Y93.156 E1.99013
G1 X130.199 Y93.64 E2.01943
G1 X130.385 Y93.871 E2.03324
G1 X130.598 Y94.144 E2.04936
G1 X130.761 Y94.359 E2.06193
G1 X131.002 Y94.684 E2.08077
G1 X131.274 Y95.064 E2.10253
G1 X131.437 Y95.3 E2.11588
G1 X131.737 Y95.748 E2.14099
G1 X132.004 Y96.161 E2.16389
G1 X132.153 Y96.398 E2.17692
G1 X132.274 Y96.597 E2.18777
G1 X132.488 Y96.963 E2.20751
G1 X132.899 Y97.706 E2.24705
G1 X133.069 Y98.028 E2.264
G1 X133.284 Y98.451 E2.2861
G1 X133.4 Y98.686 E2.2983
G1 X133.557 Y99.014 E2.31523
G1 X133.662 Y99.24 E2.32684
G1 X133.782 Y99.506 E2.34043
G1 X133.898 Y99.773 E2.35398
G1 X134.077 Y100.203 E2.37567
G1 X134.252 Y100.641 E2.39763
G1 X134.352 Y100.902 E2.41065
G1 X134.442 Y101.145 E2.42271
G1 X134.576 Y101.526 E2.44152
G1 X134.759 Y102.082 E2.46878
G1 X134.902 Y102.539 E2.49107
G1 X135.031 Y102.984 E2.51265
G1 X135.198 Y103.613 E2.54295
G1 X135.296 Y104.009 E2.56195
G1 X135.41 Y104.512 E2.58596
G1 X135.482 Y104.857 E2.60237
G1 X135.528 Y105.089 E2.61339
G1 X135.581 Y105.378 E2.62707
G1 X135.621 Y105.613 E2.63817
G1 X135.711 Y106.172 E2.66453
G1 X135.756 Y106.475 E2.6788
G1 X135.793 Y106.754 E2.6919
G1 X135.83 Y107.075 E2.70695
G1 X135.878 Y107.542 E2.72881
G1 X135.903 Y107.821 E2.74185
G1 X135.941 Y108.334 E2.7658
G1 X135.961 Y108.682 E2.78203
G1 X135.974 Y108.971 E2.79551
G1 X135.983 Y109.26 E2.80897
G1 X135.988 Y109.559 E2.82289
G1 X135.991 Y110.32 E2.85833
G1 X135.983 Y110.792 E2.88031
G1 X135.968 Y111.176 E2.8982
G1 X135.936 Y111.74 E2.92451
G1 X135.916 Y112.018 E2.93749
G1 X135.864 Y112.6 E2.9647
G1 X135.829 Y112.927 E2.98001
G1 X135.798 Y113.184 E2.99206
G1 X135.732 Y113.688 E3.01573
G1 X135.662 Y114.148 E3.0374
G1 X135.562 Y114.722 E3.06453
G1 X135.514 Y114.98 E3.07675
G1 X135.443 Y115.337 E3.0937
G1 X135.357 Y115.732 E3.11252
G1 X135.263 Y116.128 E3.13147
G1 X135.111 Y116.72 E3.15993
G1 X134.994 Y117.146 E3.1805
G1 X134.878 Y117.541 E3.19967
G1 X134.683 Y118.153 E3.22958
G1 X134.565 Y118.502 E3.24674
G1 X134.407 Y118.942 E3.26851
G1 X134.304 Y119.217 E3.28218
G1 X134.094 Y119.756 E3.30912
G1 X133.908 Y120.203 E3.33166
G1 X133.687 Y120.704 E3.35716
G1 X133.587 Y120.924 E3.36841
G1 X133.371 Y121.381 E3.39195
G1 X133.252 Y121.623 E3.4045
G1 X133.088 Y121.944 E3.42129
G1 X132.972 Y122.161 E3.43275
G1 X132.657 Y122.735 E3.46323
G1 X132.522 Y122.974 E3.47602
G1 X132.337 Y123.292 E3.49315
G1 X132.196 Y123.528 E3.50595
G1 X132.023 Y123.809 E3.52131
G1 X131.875 Y124.043 E3.53421
G1 X131.649 Y124.386 E3.55333
G1 X131.396 Y124.759 E3.57432
G1 X131.209 Y125.026 E3.5895
G1 X130.933 Y125.408 E3.61144
G1 X130.774 Y125.623 E3.62389
G1 X130.587 Y125.869 E3.63828
G1 X130.422 Y126.081 E3.65079
G1 X130.143 Y126.43 E3.6716
G1 X129.793 Y126.851 E3.69709
G1 X129.611 Y127.063 E3.7101
G1 X129.368 Y127.338 E3.72719
G1 X129.111 Y127.619 E3.74492
G1 X128.716 Y128.036 E3.77167
G1 X128.508 Y128.249 E3.78553
G1 X128.25 Y128.507 E3.80252
G1 X128.049 Y128.703 E3.81559
G1 X127.667 Y129.066 E3.84013
G1 X127.349 Y129.358 E3.86023
G1 X126.856 Y129.786 E3.89063
G1 X126.657 Y129.955 E3.90279
G1 X126.358 Y130.201 E3.92082
G1 X126.146 Y130.371 E3.93347
G1 X125.866 Y130.59 E3.95002
G1 X125.644 Y130.758 E3.96299
G1 X125.326 Y130.994 E3.98143
G1 X124.937 Y131.273 E4.00372
G1 X124.714 Y131.428 E4.01636
G1 X124.266 Y131.729 E4.0415
G1 X123.831 Y132.011 E4.06564
G1 X123.582 Y132.166 E4.07929
G1 X123.215 Y132.385 E4.09919
G1 X122.858 Y132.589 E4.11834
G1 X122.276 Y132.908 E4.14924
G1 X122.001 Y133.054 E4.16374
G1 X121.581 Y133.269 E4.18571
G1 X121.296 Y133.41 E4.20052
G1 X120.964 Y133.568 E4.21764
G1 X120.494 Y133.782 E4.24169
G1 X120.247 Y133.89 E4.25424
G1 X119.772 Y134.088 E4.2782
G1 X119.336 Y134.261 E4.30004
G1 X118.864 Y134.439 E4.32353
G1 X118.473 Y134.576 E4.34282
G1 X117.917 Y134.759 E4.37008
G1 X117.413 Y134.916 E4.39466
G1 X117.001 Y135.034 E4.41462
G1 X116.365 Y135.203 E4.44526
G1 X116 Y135.294 E4.46277
G1 X115.513 Y135.405 E4.48603
G1 X115.083 Y135.494 E4.50648
G1 X114.629 Y135.579 E4.52799
G1 X114.375 Y135.623 E4.53999
G1 X113.806 Y135.714 E4.56682
G1 X113.533 Y135.754 E4.57967
G1 X113.265 Y135.79 E4.59226
G1 X112.923 Y135.831 E4.6083
G1 X112.455 Y135.879 E4.63021
G1 X112.202 Y135.902 E4.64204
G1 X111.899 Y135.926 E4.65619
G1 X111.64 Y135.943 E4.66828
G1 X111.298 Y135.962 E4.68423
G1 X111.047 Y135.973 E4.69592
G1 X110.68 Y135.985 E4.71302
G1 X110.391 Y135.991 E4.72648
G1 X109.919 Y135.994 E4.74846
G1 X109.429 Y135.988 E4.77128
G1 X108.794 Y135.966 E4.80087
G1 X108.524 Y135.953 E4.81345
G1 X108.236 Y135.935 E4.82689
G1 X107.985 Y135.916 E4.83861
G1 X107.404 Y135.864 E4.86577
G1 X107.076 Y135.829 E4.88113
G1 X106.812 Y135.798 E4.89351
G1 X106.309 Y135.732 E4.91713
G1 X105.852 Y135.662 E4.93866
G1 X105.278 Y135.562 E4.96579
G1 X104.663 Y135.443 E4.99496
G1 X104.252 Y135.353 E5.01455
G1 X103.876 Y135.264 E5.03254
G1 X103.626 Y135.202 E5.04454
G1 X103.087 Y135.059 E5.0705
G1 X102.649 Y134.935 E5.0917
G1 X102.251 Y134.813 E5.11108
G1 X101.847 Y134.683 E5.13084
G1 X101.498 Y134.565 E5.148
G1 X101.058 Y134.407 E5.16977
G1 X100.783 Y134.304 E5.18344
G1 X100.244 Y134.094 E5.21038
G1 X99.797 Y133.908 E5.23292
G1 X99.296 Y133.687 E5.25842
G1 X99.061 Y133.58 E5.27044
G1 X98.75 Y133.434 E5.28644
G1 X98.48 Y133.303 E5.30041
G1 X98.176 Y133.15 E5.31626
G1 X97.83 Y132.968 E5.33447
G1 X97.265 Y132.658 E5.36447
G1 X97.034 Y132.528 E5.37682
G1 X96.717 Y132.344 E5.39388
G1 X96.448 Y132.182 E5.40851
G1 X96.167 Y132.008 E5.4239
G1 X95.788 Y131.765 E5.44486
G1 X95.609 Y131.646 E5.45487
G1 X95.235 Y131.392 E5.47592
G1 X94.98 Y131.213 E5.49043
G1 X94.596 Y130.936 E5.51247
G1 X94.363 Y130.764 E5.52596
G1 X94.115 Y130.575 E5.54048
G1 X93.903 Y130.409 E5.55302
G1 X93.545 Y130.122 E5.57438
G1 X93.15 Y129.794 E5.59829
G1 X92.953 Y129.625 E5.61038
G1 X92.678 Y129.383 E5.62743
G1 X92.38 Y129.111 E5.64622
G1 X91.963 Y128.716 E5.67297
G1 X91.735 Y128.493 E5.68782
G1 X91.307 Y128.06 E5.71617
G1 X90.943 Y127.678 E5.74074
G1 X90.682 Y127.394 E5.7587
G1 X90.469 Y127.153 E5.77367
G1 X90.202 Y126.843 E5.79272
G1 X89.801 Y126.36 E5.82196
G1 X89.605 Y126.115 E5.83656
G1 X89.381 Y125.827 E5.85355
G1 X89.224 Y125.62 E5.86565
G1 X88.99 Y125.304 E5.88396
G1 X88.732 Y124.944 E5.90458
G1 X88.572 Y124.713 E5.91767
G1 X88.269 Y124.262 E5.94297
G1 X88.132 Y124.053 E5.95461
G1 X87.841 Y123.593 E5.97995
G1 X87.623 Y123.231 E5.99963
G1 X87.546 Y123.099 E6.00674
G1 X87.407 Y122.852 E6.01994
G1 X87.095 Y122.284 E6.05012
G1 X86.925 Y121.963 E6.06703
G1 X86.711 Y121.541 E6.08906
G1 X86.443 Y120.986 E6.11776
G1 X86.323 Y120.728 E6.13101
G1 X86.116 Y120.26 E6.15484
G1 X86.008 Y120.005 E6.16773
G1 X85.914 Y119.776 E6.17926
G1 X85.738 Y119.333 E6.20146
G1 X85.624 Y119.034 E6.21636
G1 X85.525 Y118.762 E6.22984
G1 X85.417 Y118.448 E6.2453
G1 X85.171 Y117.697 E6.2821
G1 X85.078 Y117.393 E6.2969
G1 X84.968 Y117.008 E6.31554
G1 X84.799 Y116.374 E6.3461
G1 X84.707 Y116.002 E6.36394
G1 X84.606 Y115.562 E6.38496
G1 X84.52 Y115.153 E6.40442
G1 X84.43 Y114.679 E6.42689
G1 X84.374 Y114.36 E6.44197
G1 X84.285 Y113.802 E6.46828
G1 X84.224 Y113.374 E6.48841
G1 X84.176 Y112.979 E6.50694
G1 X84.122 Y112.454 E6.53151
G1 X84.099 Y112.209 E6.54297
G1 X84.075 Y111.91 E6.55694
G1 X84.057 Y111.638 E6.56963
G1 X84.038 Y111.295 E6.58563
G1 X84.027 Y111.048 E6.59714
G1 X84.015 Y110.683 E6.61415
G1 X84.009 Y110.392 E6.6277
G1 X84.006 Y109.919 E6.64973
G1 X84.012 Y109.429 E6.67254
G1 X84.034 Y108.794 E6.70213
G1 X84.047 Y108.53 E6.71444
G1 X84.065 Y108.24 E6.72797
G1 X84.084 Y107.984 E6.73992
G1 X84.114 Y107.633 E6.75632
G1 X84.139 Y107.376 E6.76835
G1 X84.203 Y106.809 E6.79492
G1 X84.267 Y106.318 E6.81797
G1 X84.339 Y105.849 E6.84007
G1 X84.439 Y105.276 E6.86715
G1 X84.486 Y105.025 E6.87904
G1 X84.575 Y104.581 E6.90013
G1 X84.65 Y104.243 E6.91625
G1 X84.729 Y103.905 E6.93241
G1 X84.797 Y103.631 E6.94556
G1 X84.954 Y103.035 E6.97426
G1 X85.022 Y102.794 E6.98592
G1 X85.137 Y102.41 E7.00458
G1 X85.316 Y101.848 E7.03205
G1 X85.438 Y101.49 E7.04966
G1 X85.596 Y101.051 E7.07138
G1 X85.696 Y100.783 E7.0847
G1 X85.906 Y100.244 E7.11164
G1 X86.096 Y99.788 E7.13464
G1 X86.318 Y99.286 E7.1602
G1 X86.41 Y99.083 E7.17058
G1 X86.55 Y98.783 E7.18599
G1 X86.686 Y98.503 E7.20049
G1 X86.841 Y98.194 E7.21659
G1 X87.035 Y97.824 E7.23604
G1 X87.348 Y97.255 E7.26628
G1 X87.478 Y97.026 E7.27854
G1 X87.663 Y96.708 E7.29567
G1 X87.808 Y96.465 E7.30885
G1 X87.985 Y96.178 E7.32455
G1 X88.216 Y95.817 E7.34451
G1 X88.365 Y95.591 E7.35711
G1 X88.62 Y95.217 E7.37819
G1 X88.782 Y94.987 E7.39129
G1 X89.057 Y94.605 E7.41321
G1 X89.236 Y94.363 E7.42722
G1 X89.422 Y94.119 E7.44151
G1 X89.578 Y93.919 E7.45332
G1 X89.869 Y93.555 E7.47502
G1 X90.202 Y93.154 E7.49929
G1 X90.402 Y92.921 E7.51359
G1 X90.645 Y92.647 E7.53064
G1 X90.889 Y92.381 E7.54745
G1 X91.284 Y91.964 E7.57419
G1 X91.492 Y91.751 E7.58806
G1 X91.75 Y91.493 E7.60505
G0 F6000 X92.033 Y91.776
G1 F1200 X92.226 Y91.587 E7.61763
G1 X92.608 Y91.224 E7.64216
G1 X92.916 Y90.942 E7.66161
G1 X93.092 Y90.786 E7.67256
G1 X93.417 Y90.506 E7.69253
G1 X93.895 Y90.109 E7.72147
G1 X94.118 Y89.931 E7.73475
G1 X94.391 Y89.718 E7.75088
G1 X94.599 Y89.559 E7.76307
G1 X94.943 Y89.304 E7.78301
G1 X95.314 Y89.039 E7.80424
G1 X95.523 Y88.895 E7.81606
G1 X95.971 Y88.595 E7.84116
G1 X96.39 Y88.324 E7.8644
G1 X96.628 Y88.175 E7.87747
G1 X97.044 Y87.926 E7.90005
G1 X97.316 Y87.772 E7.9146
G1 X97.899 Y87.451 E7.94559
G1 X98.209 Y87.288 E7.9619
G1 X98.632 Y87.073 E7.984
G1 X98.858 Y86.961 E7.99574
G1 X99.186 Y86.804 E8.01267
G1 X99.67 Y86.583 E8.03745
G1 X99.928 Y86.471 E8.05054
G1 X100.351 Y86.295 E8.07188
G1 X100.789 Y86.12 E8.09384
G1 X101.054 Y86.018 E8.10706
G1 X101.298 Y85.928 E8.11917
G1 X101.647 Y85.806 E8.13639
G1 X102.202 Y85.623 E8.1636
G1 X102.714 Y85.464 E8.18856
G1 X103.098 Y85.354 E8.20716
G1 X103.733 Y85.185 E8.23776
G1 X104.082 Y85.098 E8.25451
G1 X104.521 Y84.997 E8.27549
G1 X104.923 Y84.913 E8.29461
G1 X105.387 Y84.825 E8.3166
G1 X105.688 Y84.772 E8.33083
G1 X106.257 Y84.681 E8.35766
G1 X106.525 Y84.642 E8.37027
G1 X106.794 Y84.606 E8.38291
G1 X107.118 Y84.567 E8.39811
G1 X107.586 Y84.519 E8.42001
G1 X107.828 Y84.497 E8.43133
G1 X108.13 Y84.473 E8.44543
G1 X108.384 Y84.456 E8.45729
G1 X108.727 Y84.437 E8.47328
G1 X109.334 Y84.415 E8.50157
G1 X109.612 Y84.409 E8.51451
G1 X110.083 Y84.406 E8.53645
G1 X110.563 Y84.412 E8.5588
G1 X111.191 Y84.434 E8.58806
G1 X111.448 Y84.447 E8.60004
G1 X111.978 Y84.482 E8.62478
G1 X112.33 Y84.512 E8.64123
G1 X112.885 Y84.569 E8.6672
G1 X113.136 Y84.599 E8.67897
G1 X113.639 Y84.665 E8.7026
G1 X114.079 Y84.732 E8.72332
G1 X114.653 Y84.832 E8.75045
G1 X115.238 Y84.945 E8.7782
G1 X115.359 Y84.97 E8.78395
G1 X115.675 Y85.041 E8.79903
G1 X116.254 Y85.181 E8.82677
G1 X116.805 Y85.326 E8.8533
G1 X117.216 Y85.442 E8.87318
G1 X117.633 Y85.569 E8.89348
G1 X118.039 Y85.7 E8.91335
G1 X118.366 Y85.812 E8.92944
G1 X118.806 Y85.97 E8.95121
G1 X119.072 Y86.069 E8.96443
G1 X119.611 Y86.279 E8.99136
G1 X120.041 Y86.458 E9.01305
G1 X120.542 Y86.679 E9.03855
G1 X120.761 Y86.778 E9.04974
G1 X121.062 Y86.919 E9.06522
G1 X121.472 Y87.12 E9.08648
G1 X121.758 Y87.266 E9.10143
G1 X121.975 Y87.382 E9.11289
G1 X122.545 Y87.695 E9.14317
G1 X122.782 Y87.829 E9.15585
G1 X123.101 Y88.015 E9.17304
G1 X123.31 Y88.14 E9.18438
G1 X123.59 Y88.312 E9.19968
G1 X123.824 Y88.46 E9.21257
G1 X124.161 Y88.682 E9.23136
G1 X124.534 Y88.935 E9.25235
G1 X124.785 Y89.11 E9.2666
G1 X125.169 Y89.387 E9.28865
G1 X125.394 Y89.554 E9.30169
G1 X125.828 Y89.888 E9.32719
G1 X126.191 Y90.178 E9.34883
G1 X126.384 Y90.336 E9.36044
G1 X126.588 Y90.507 E9.37284
G1 X126.814 Y90.702 E9.38674
G1 X127.089 Y90.946 E9.40386
