;FLAVOR:Marlin
;TIME:2811
;Filament used: 1.38909m
;Layer height: 0.12
;MINX:89
;MINY:89
;MINZ:0.12
;MAXX:131
;MAXY:131
;MAXZ:20.04
;Generated with Cura_SteamEngine 5.2.1
M82 ;absolute extrusion mode
; Ender 3 Custom Start G-code
G92 E0 ; Reset Extruder
G28 ; Home all axes
M104 S175 ; Start heating up the nozzle most of the way
M190 S60 ; Start heating the bed, wait until target temperature reached
M109 S200 ; Finish heating the nozzle
G1 Z2.0 F3000 ; Move Z Axis up little to prevent scratching of Heat Bed
G1 X0.1 Y20 Z0.3 F5000.0 ; Move to start position
G1 X0.1 Y200.0 Z0.3 F1500.0 E15 ; Draw the first line
G1 X0.4 Y200.0 Z0.3 F5000.0 ; Move to side a little
G1 X0.4 Y20 Z0.3 F1500.0 E30 ; Draw the second line
G92 E0 ; Reset Extruder
G1 Z2.0 F3000 ; Move Z Axis up little to prevent scratching of Heat Bed
G1 X5 Y20 Z0.3 F5000.0 ; Move over to prevent blob squish
G92 E0
G92 E0
G1 F1500 E-6.5
;LAYER_COUNT:167
;LAYER:0
M107
G0 F6000 X92.198 Y92.264 Z0.12
;TYPE:SKIRT
G1 F1500 E0
G1 F1200 X92.886 Y91.627 E0.01871
G1 X93.626 Y91.051 E0.03742
G1 X94.412 Y90.539 E0.05614
G1 X95.239 Y90.097 E0.07486
G1 X96.101 Y89.727 E0.09358
G1 X96.991 Y89.431 E0.11229
G1 X97.903 Y89.213 E0.13101
G1 X98.83 Y89.072 E0.14972
G1 X99.701 Y89.013 E0.16714
G1 X100.33 Y89 E0.1797
G1 X119.451 Y89.001 E0.56128
G1 X120.149 Y89.011 E0.57521
G1 X121.085 Y89.065 E0.59392
G1 X122.013 Y89.197 E0.61262
G1 X122.927 Y89.409 E0.63135
G1 X123.819 Y89.698 E0.65006
G1 X124.684 Y90.061 E0.66878
G1 X125.514 Y90.497 E0.68749
G1 X126.305 Y91.002 E0.70622
G1 X127.049 Y91.573 E0.72493
G1 X127.742 Y92.205 E0.74365
G1 X128.379 Y92.893 E0.76236
G1 X128.954 Y93.634 E0.78108
G1 X129.465 Y94.42 E0.79979
G1 X129.907 Y95.248 E0.81852
G1 X130.276 Y96.11 E0.83723
G1 X130.571 Y97 E0.85594
G1 X130.789 Y97.912 E0.87465
G1 X130.929 Y98.84 E0.89338
G1 X130.987 Y99.701 E0.9106
G1 X131 Y100.33 E0.92316
G1 X130.999 Y119.4 E1.30372
G1 X130.99 Y120.127 E1.31823
G1 X130.939 Y121.064 E1.33696
G1 X130.807 Y121.992 E1.35566
G1 X130.598 Y122.906 E1.37437
G1 X130.311 Y123.799 E1.39309
G1 X129.949 Y124.665 E1.41182
G1 X129.515 Y125.496 E1.43053
G1 X129.011 Y126.287 E1.44925
G1 X128.442 Y127.032 E1.46796
G1 X127.811 Y127.727 E1.48669
G1 X127.124 Y128.365 E1.5054
G1 X126.385 Y128.942 E1.52411
G1 X125.599 Y129.454 E1.54283
G1 X124.773 Y129.897 E1.56153
G1 X123.911 Y130.269 E1.58027
G1 X123.022 Y130.565 E1.59897
G1 X122.11 Y130.785 E1.61769
G1 X121.183 Y130.926 E1.6364
G1 X120.299 Y130.987 E1.65409
G1 X119.67 Y131 E1.66664
G1 X100.565 Y130.999 E2.0479
G1 X99.867 Y130.99 E2.06183
G1 X98.931 Y130.938 E2.08054
G1 X98.002 Y130.806 E2.09927
G1 X97.088 Y130.596 E2.11798
G1 X96.195 Y130.309 E2.1367
G1 X95.33 Y129.946 E2.15542
G1 X94.499 Y129.512 E2.17413
G1 X93.708 Y129.008 E2.19285
G1 X92.963 Y128.438 E2.21157
G1 X92.269 Y127.807 E2.23028
G1 X91.632 Y127.12 E2.24898
G1 X91.055 Y126.38 E2.26771
G1 X90.543 Y125.594 E2.28643
G1 X90.1 Y124.767 E2.30515
G1 X89.729 Y123.906 E2.32386
G1 X89.433 Y123.016 E2.34257
G1 X89.214 Y122.104 E2.36129
G1 X89.073 Y121.177 E2.38
G1 X89.013 Y120.288 E2.39779
G1 X89 Y119.658 E2.41036
G1 X89.001 Y100.525 E2.79218
G1 X89.01 Y99.86 E2.80545
G1 X89.063 Y98.924 E2.82416
G1 X89.195 Y97.995 E2.84289
G1 X89.406 Y97.081 E2.86161
G1 X89.694 Y96.189 E2.88031
G1 X90.057 Y95.324 E2.89903
G1 X90.492 Y94.493 E2.91775
G1 X90.996 Y93.703 E2.93645
G1 X91.566 Y92.958 E2.95517
G1 X92.198 Y92.264 E2.9739
G0 F6000 X92.589 Y92.439
G1 F1200 X93.274 Y91.823 E2.99229
G1 X94.01 Y91.27 E3.01066
G1 X94.791 Y90.782 E3.02904
G1 X95.611 Y90.364 E3.0474
G1 X96.465 Y90.019 E3.06578
G1 X97.345 Y89.749 E3.08415
G1 X98.245 Y89.557 E3.10252
G1 X99.159 Y89.443 E3.1209
G1 X99.712 Y89.413 E3.13195
G1 X100.33 Y89.4 E3.14429
G1 X119.293 Y89.4 E3.52271
G1 X120.143 Y89.411 E3.53968
G1 X121.062 Y89.464 E3.55805
G1 X121.973 Y89.597 E3.57642
G1 X122.869 Y89.808 E3.59479
G1 X123.743 Y90.096 E3.61315
G1 X124.59 Y90.459 E3.63154
G1 X125.401 Y90.894 E3.64991
G1 X126.171 Y91.398 E3.66828
G1 X126.895 Y91.967 E3.68665
G1 X127.567 Y92.597 E3.70503
G1 X128.182 Y93.282 E3.7234
G1 X128.735 Y94.018 E3.74178
G1 X129.222 Y94.799 E3.76014
G1 X129.639 Y95.62 E3.77852
G1 X129.984 Y96.474 E3.7969
G1 X130.253 Y97.354 E3.81526
G1 X130.445 Y98.255 E3.83365
G1 X130.558 Y99.168 E3.85201
G1 X130.587 Y99.712 E3.86288
G1 X130.6 Y100.33 E3.87521
G1 X130.599 Y119.395 E4.25568
G1 X130.59 Y120.122 E4.27019
G1 X130.539 Y121.041 E4.28855
G1 X130.408 Y121.953 E4.30694
G1 X130.198 Y122.849 E4.32531
G1 X129.912 Y123.724 E4.34368
G1 X129.551 Y124.571 E4.36205
G1 X129.117 Y125.383 E4.38042
G1 X128.615 Y126.155 E4.3988
G1 X128.047 Y126.88 E4.41718
G1 X127.419 Y127.553 E4.43555
G1 X126.735 Y128.169 E4.45392
G1 X126 Y128.723 E4.47229
G1 X125.22 Y129.212 E4.49066
G1 X124.4 Y129.631 E4.50904
G1 X123.547 Y129.977 E4.52741
G1 X122.667 Y130.248 E4.54578
G1 X121.767 Y130.441 E4.56415
G1 X120.853 Y130.556 E4.58253
G1 X120.288 Y130.587 E4.59383
G1 X119.67 Y130.6 E4.60616
G1 X100.57 Y130.599 E4.98732
G1 X99.872 Y130.59 E5.00125
G1 X98.953 Y130.538 E5.01962
G1 X98.042 Y130.407 E5.03799
G1 X97.146 Y130.197 E5.05635
G1 X96.271 Y129.91 E5.07473
G1 X95.424 Y129.548 E5.09311
G1 X94.612 Y129.114 E5.11149
G1 X93.841 Y128.612 E5.12985
G1 X93.116 Y128.044 E5.14823
G1 X92.443 Y127.415 E5.16661
G1 X91.828 Y126.731 E5.18496
G1 X91.274 Y125.996 E5.20333
G1 X90.786 Y125.215 E5.22171
G1 X90.367 Y124.395 E5.24009
G1 X90.021 Y123.542 E5.25846
G1 X89.751 Y122.662 E5.27683
G1 X89.558 Y121.761 E5.29521
G1 X89.444 Y120.848 E5.31358
G1 X89.413 Y120.277 E5.32499
G1 X89.4 Y119.658 E5.33734
G1 X89.401 Y100.531 E5.71904
G1 X89.41 Y99.866 E5.73232
G1 X89.462 Y98.946 E5.7507
G1 X89.594 Y98.035 E5.76907
G1 X89.805 Y97.139 E5.78744
G1 X90.092 Y96.264 E5.80582
G1 X90.455 Y95.418 E5.82419
G1 X90.889 Y94.606 E5.84257
G1 X91.392 Y93.835 E5.86094
G1 X91.961 Y93.111 E5.87931
G1 X92.589 Y92.439 E5.89767
G0 F6000 X92.981 Y92.617
G1 F1200 X93.662 Y92.024 E5.91569
G1 X94.394 Y91.494 E5.93372
G1 X95.169 Y91.031 E5.95174
G1 X95.982 Y90.638 E5.96976
G1 X96.827 Y90.318 E5.98779
G1 X97.696 Y90.075 E6.0058
G1 X98.584 Y89.909 E6.02383
G1 X99.723 Y89.813 E6.04664
G1 X100.33 Y89.8 E6.05875
G1 X119.293 Y89.8 E6.43718
G1 X120.137 Y89.811 E6.45402
G1 X121.039 Y89.864 E6.47206
G1 X121.932 Y89.996 E6.49007
G1 X122.81 Y90.207 E6.50809
G1 X123.666 Y90.495 E6.52611
G1 X124.493 Y90.857 E6.54413
G1 X125.285 Y91.292 E6.56216
G1 X126.036 Y91.794 E6.58019
G1 X126.739 Y92.361 E6.59821
G1 X127.389 Y92.988 E6.61623
G1 X127.981 Y93.67 E6.63426
G1 X128.511 Y94.401 E6.65228
G1 X128.973 Y95.177 E6.6703
G1 X129.366 Y95.99 E6.68832
G1 X129.684 Y96.835 E6.70634
G1 X129.927 Y97.705 E6.72436
G1 X130.092 Y98.593 E6.74239
G1 X130.187 Y99.723 E6.76502
G1 X130.2 Y100.33 E6.77713
G1 X130.199 Y119.39 E7.1575
G1 X130.19 Y120.117 E7.172
G1 X130.139 Y121.019 E7.19003
G1 X130.008 Y121.913 E7.20807
G1 X129.799 Y122.791 E7.22608
G1 X129.513 Y123.648 E7.24411
G1 X129.152 Y124.476 E7.26213
G1 X128.72 Y125.268 E7.28014
G1 X128.219 Y126.02 E7.29817
G1 X127.653 Y126.724 E7.31619
G1 X127.028 Y127.375 E7.3342
G1 X126.347 Y127.969 E7.35224
G1 X125.616 Y128.5 E7.37027
G1 X124.842 Y128.964 E7.38828
G1 X124.029 Y129.358 E7.40631
G1 X123.185 Y129.678 E7.42432
G1 X122.315 Y129.923 E7.44236
G1 X121.428 Y130.089 E7.46036
G1 X120.277 Y130.187 E7.48342
G1 X119.67 Y130.2 E7.49553
G1 X100.575 Y130.199 E7.87659
G1 X99.877 Y130.19 E7.89052
G1 X98.976 Y130.139 E7.90853
G1 X98.082 Y130.007 E7.92657
G1 X97.204 Y129.798 E7.94458
G1 X96.347 Y129.511 E7.96261
G1 X95.52 Y129.15 E7.98062
G1 X94.727 Y128.717 E7.99865
G1 X93.976 Y128.216 E8.01667
G1 X93.272 Y127.65 E8.0347
G1 X92.621 Y127.024 E8.05272
G1 X92.028 Y126.343 E8.07074
G1 X91.498 Y125.612 E8.08876
G1 X91.034 Y124.837 E8.10678
G1 X90.64 Y124.024 E8.12481
G1 X90.32 Y123.18 E8.14283
G1 X90.076 Y122.31 E8.16086
G1 X89.91 Y121.422 E8.17889
G1 X89.813 Y120.267 E8.20202
G1 X89.8 Y119.658 E8.21417
G1 X89.801 Y100.536 E8.59577
G1 X89.81 Y99.871 E8.60904
G1 X89.862 Y98.969 E8.62707
G1 X89.994 Y98.076 E8.64509
G1 X90.204 Y97.198 E8.6631
G1 X90.491 Y96.341 E8.68114
G1 X90.853 Y95.514 E8.69916
G1 X91.286 Y94.722 E8.71717
G1 X91.788 Y93.971 E8.7352
G1 X92.355 Y93.267 E8.75323
G1 X92.981 Y92.617 E8.77124
G1 F1500 E2.27124
;MESH:2cm-cube.stl
G0 F6000 X100.414 Y99.335
G0 X100.414 Y100.414
G0 X101 Y119
;TYPE:WALL-INNER
G1 F1500 E8.77124
G1 F1200 X119 Y119 E9.13045
G1 X119 Y101 E9.48966
G1 X101 Y101 E9.84887
G1 X101 Y119 E10.20808
G0 F6000 X100.6 Y119.4
G1 F1200 X119.4 Y119.4 E10.58326
G1 X119.4 Y100.6 E10.95843
G1 X100.6 Y100.6 E11.3336
G1 X100.6 Y119.4 E11.70878
G0 F6000 X100.2 Y119.8
;TYPE:WALL-OUTER
G1 F1200 X119.8 Y119.8 E12.09992
G1 X119.8 Y100.2 E12.49106
G1 X100.2 Y100.2 E12.8822
G1 X100.2 Y119.8 E13.27334
G0 F6000 X100.47 Y119.53
G0 X101.1 Y118.6
G0 X101.4 Y118.6
;TYPE:SKIN
G1 F1200 X118.6 Y118.6 E13.61658
G1 X118.6 Y101.4 E13.95982
G1 X101.4 Y101.4 E14.30307
G1 X101.4 Y118.6 E14.64631
G0 F6000 X101.8 Y118.2
G1 F1200 X118.2 Y118.2 E14.97359
G1 X118.2 Y101.8 E15.30087
G1 X101.8 Y101.8 E15.62815
G1 X101.8 Y118.2 E15.95543
G0 F6000 X102.2 Y117.8
G1 F1200 X117.8 Y117.8 E16.26675
G1 X117.8 Y102.2 E16.57806
G1 X102.2 Y102.2 E16.88938
G1 X102.2 Y117.8 E17.20069
G0 F6000 X102.6 Y117.4
G1 F1200 X117.4 Y117.4 E17.49604
G1 X117.4 Y102.6 E17.79139
G1 X102.6 Y102.6 E18.08674
G1 X102.6 Y117.4 E18.38209
G0 F6000 X103 Y117
G1 F1200 X117 Y117 E18.66148
G1 X117 Y103 E18.94086
G1 X103 Y103 E19.22025
G1 X103 Y117 E19.49963
G0 F6000 X103.4 Y116.6
G1 F1200 X116.6 Y116.6 E19.76305
G1 X116.6 Y103.4 E20.02647
G1 X103.4 Y103.4 E20.28989
G1 X103.4 Y116.6 E20.55331
G0 F6000 X103.8 Y116.2
G1 F1200 X116.2 Y116.2 E20.80077
G1 X116.2 Y103.8 E21.04822
G1 X103.8 Y103.8 E21.29568
G1 X103.8 Y116.2 E21.54314
G0 F6000 X104.2 Y115.8
G1 F1200 X115.8 Y115.8 E21.77463
G1 X115.8 Y104.2 E22.00612
G1 X104.2 Y104.2 E22.23761
G1 X104.2 Y115.8 E22.4691
G0 F6000 X104.6 Y115.4
G1 F1200 X115.4 Y115.4 E22.68462
G1 X115.4 Y104.6 E22.90015
G1 X104.6 Y104.6 E23.11567
G1 X104.6 Y115.4 E23.3312
G0 F6000 X105 Y115
G1 F1200 X115 Y115 E23.53076
G1 X115 Y105 E23.73032
G1 X105 Y105 E23.92988
G1 X105 Y115 E24.12944
G0 F6000 X105.4 Y114.6
G1 F1200 X114.6 Y114.6 E24.31304
G1 X114.6 Y105.4 E24.49664
G1 X105.4 Y105.4 E24.68023
G1 X105.4 Y114.6 E24.86383
G0 F6000 X105.8 Y114.2
G1 F1200 X114.2 Y114.2 E25.03146
G1 X114.2 Y105.8 E25.19909
G1 X105.8 Y105.8 E25.36672
G1 X105.8 Y114.2 E25.53435
G0 F6000 X106.2 Y113.8
G1 F1200 X113.8 Y113.8 E25.68602
G1 X113.8 Y106.2 E25.83768
G1 X106.2 Y106.2 E25.98935
G1 X106.2 Y113.8 E26.14102
G0 F6000 X106.6 Y113.4
G1 F1200 X113.4 Y113.4 E26.27672
G1 X113.4 Y106.6 E26.41242
G1 X106.6 Y106.6 E26.54812
G1 X106.6 Y113.4 E26.68382
G0 F6000 X107 Y113
G1 F1200 X113 Y113 E26.80356
G1 X113 Y107 E26.92329
G1 X107 Y107 E27.04303
G1 X107 Y113 E27.16277
G0 F6000 X107.4 Y112.6
G1 F1200 X112.6 Y112.6 E27.26654
G1 X112.6 Y107.4 E27.37031
G1 X107.4 Y107.4 E27.47408
G1 X107.4 Y112.6 E27.57785
G0 F6000 X107.8 Y112.2
G1 F1200 X112.2 Y112.2 E27.66566
G1 X112.2 Y107.8 E27.75347
G1 X107.8 Y107.8 E27.84127
G1 X107.8 Y112.2 E27.92908
G0 F6000 X108.2 Y111.8
G1 F1200 X111.8 Y111.8 E28.00092
G1 X111.8 Y108.2 E28.07277
G1 X108.2 Y108.2 E28.14461
G1 X108.2 Y111.8 E28.21645
G0 F6000 X108.6 Y111.4
G1 F1200 X111.4 Y111.4 E28.27233
G1 X111.4 Y108.6 E28.3282
G1 X108.6 Y108.6 E28.38408
G1 X108.6 Y111.4 E28.43996
G0 F6000 X109 Y111
G1 F1200 X111 Y111 E28.47987
G1 X111 Y109 E28.51978
G1 X109 Y109 E28.55969
G1 X109 Y111 E28.59961
G0 F6000 X109.4 Y110.6
G1 F1200 X110.6 Y110.6 E28.62355
G1 X110.6 Y109.4 E28.6475
G1 X109.4 Y109.4 E28.67145
G1 X109.4 Y110.6 E28.69539
G0 F6000 X109.8 Y110.2
M104 S200
G1 F1200 X110.2 Y110.2 E28.70338
G1 X110.2 Y109.8 E28.71136
G1 X109.8 Y109.8 E28.71934
G1 X109.8 Y110.2 E28.72732
G1 F1500 E22.22732
;MESH:NONMESH
G0 F300 X109.8 Y110.2 Z0.24
G0 F6000 X101.2 Y110.2
G0 X101 Y119
;TIME_ELAPSED:81.705538
;LAYER:1
M106 S85
;TYPE:WALL-INNER
;MESH:2cm-cube.stl
G1 F1500 E28.72732
G1 F1350 X119 Y119 E29.08653
G1 X119 Y101 E29.44574
G1 X101 Y101 E29.80495
G1 X101 Y119 E30.16416
G0 F7500 X100.6 Y119.4
G1 F1350 X119.4 Y119.4 E30.53934
G1 X119.4 Y100.6 E30.91451
G1 X100.6 Y100.6 E31.28969
G1 X100.6 Y119.4 E31.66486
G0 F7500 X100.2 Y119.8
;TYPE:WALL-OUTER
G1 F1350 X119.8 Y119.8 E32.056
G1 X119.8 Y100.2 E32.44714
G1 X100.2 Y100.2 E32.83828
G1 X100.2 Y119.8 E33.22942
G0 F7500 X100.47 Y119.53
G0 X101.1 Y118.6
G0 X101.4 Y118.6
;TYPE:SKIN
G1 F1350 X118.6 Y118.6 E33.57266
G1 X118.6 Y101.4 E33.91591
G1 X101.4 Y101.4 E34.25915
G1 X101.4 Y118.6 E34.60239
G0 F7500 X101.8 Y118.2
G1 F1350 X118.2 Y118.2 E34.92967
G1 X118.2 Y101.8 E35.25695
G1 X101.8 Y101.8 E35.58423
G1 X101.8 Y118.2 E35.91151
G0 F7500 X102.2 Y117.8
G1 F1350 X117.8 Y117.8 E36.22283
G1 X117.8 Y102.2 E36.53414
G1 X102.2 Y102.2 E36.84546
G1 X102.2 Y117.8 E37.15677
G0 F7500 X102.6 Y117.4
G1 F1350 X117.4 Y117.4 E37.45212
G1 X117.4 Y102.6 E37.74747
G1 X102.6 Y102.6 E38.04282
G1 X102.6 Y117.4 E38.33817
G0 F7500 X103 Y117
G1 F1350 X117 Y117 E38.61756
G1 X117 Y103 E38.89694
G1 X103 Y103 E39.17633
G1 X103 Y117 E39.45571
G0 F7500 X103.4 Y116.6
G1 F1350 X116.6 Y116.6 E39.71913
G1 X116.6 Y103.4 E39.98255
G1 X103.4 Y103.4 E40.24597
G1 X103.4 Y116.6 E40.50939
G0 F7500 X103.8 Y116.2
G1 F1350 X116.2 Y116.2 E40.75685
G1 X116.2 Y103.8 E41.00431
G1 X103.8 Y103.8 E41.25176
G1 X103.8 Y116.2 E41.49922
G0 F7500 X104.2 Y115.8
G1 F1350 X115.8 Y115.8 E41.73071
G1 X115.8 Y104.2 E41.9622
G1 X104.2 Y104.2 E42.19369
G1 X104.2 Y115.8 E42.42518
G0 F7500 X104.6 Y115.4
G1 F1350 X115.4 Y115.4 E42.6407
G1 X115.4 Y104.6 E42.85623
G1 X104.6 Y104.6 E43.07176
G1 X104.6 Y115.4 E43.28728
G0 F7500 X105 Y115
G1 F1350 X115 Y115 E43.48684
G1 X115 Y105 E43.6864
G1 X105 Y105 E43.88596
G1 X105 Y115 E44.08552
G0 F7500 X105.4 Y114.6
G1 F1350 X114.6 Y114.6 E44.26912
G1 X114.6 Y105.4 E44.45272
G1 X105.4 Y105.4 E44.63631
G1 X105.4 Y114.6 E44.81991
G0 F7500 X105.8 Y114.2
G1 F1350 X114.2 Y114.2 E44.98754
G1 X114.2 Y105.8 E45.15517
G1 X105.8 Y105.8 E45.3228
G1 X105.8 Y114.2 E45.49043
G0 F7500 X106.2 Y113.8
G1 F1350 X113.8 Y113.8 E45.6421
G1 X113.8 Y106.2 E45.79377
G1 X106.2 Y106.2 E45.94543
G1 X106.2 Y113.8 E46.0971
G0 F7500 X106.6 Y113.4
G1 F1350 X113.4 Y113.4 E46.2328
G1 X113.4 Y106.6 E46.3685
G1 X106.6 Y106.6 E46.5042
G1 X106.6 Y113.4 E46.6399
G0 F7500 X107 Y113
G1 F1350 X113 Y113 E46.75964
G1 X113 Y107 E46.87938
G1 X107 Y107 E46.99911
G1 X107 Y113 E47.11885
G0 F7500 X107.4 Y112.6
G1 F1350 X112.6 Y112.6 E47.22262
G1 X112.6 Y107.4 E47.32639
G1 X107.4 Y107.4 E47.43016
G1 X107.4 Y112.6 E47.53394
G0 F7500 X107.8 Y112.2
G1 F1350 X112.2 Y112.2 E47.62174
G1 X112.2 Y107.8 E47.70955
G1 X107.8 Y107.8 E47.79736
G1 X107.8 Y112.2 E47.88516
G0 F7500 X108.2 Y111.8
G1 F1350 X111.8 Y111.8 E47.957
G1 X111.8 Y108.2 E48.02885
G1 X108.2 Y108.2 E48.10069
G1 X108.2 Y111.8 E48.17253
G0 F7500 X108.6 Y111.4
G1 F1350 X111.4 Y111.4 E48.22841
G1 X111.4 Y108.6 E48.28428
G1 X108.6 Y108.6 E48.34016
G1 X108.6 Y111.4 E48.39604
G0 F7500 X109 Y111
G1 F1350 X111 Y111 E48.43595
G1 X111 Y109 E48.47586
G1 X109 Y109 E48.51577
G1 X109 Y111 E48.55569
G0 F7500 X109.4 Y110.6
G1 F1350 X110.6 Y110.6 E48.57963
G1 X110.6 Y109.4 E48.60358
G1 X109.4 Y109.4 E48.62753
G1 X109.4 Y110.6 E48.65148
G0 F7500 X110.2 Y110.2
G1 F1350 X110.2 Y109.8 E48.65946
G1 X109.8 Y109.8 E48.66744
G1 X109.8 Y110.2 E48.67542
G1 X110.2 Y110.2 E48.68341
G1 F1500 E42.18341
;MESH:NONMESH
G0 F300 X110.2 Y110.2 Z0.36
G0 F7500 X110.2 Y118.8
G0 X101 Y119
;TIME_ELAPSED:130.807972
;LAYER:2
M106 S170
;TYPE:WALL-INNER
;MESH:2cm-cube.stl
G1 F1500 E48.68341
G1 X119 Y119 E49.04262
G1 X119 Y101 E49.40182
G1 X101 Y101 E49.76103
G1 X101 Y119 E50.12024
G0 F9000 X100.6 Y119.4
G1 F1500 X119.4 Y119.4 E50.49542
G1 X119.4 Y100.6 E50.87059
G1 X100.6 Y100.6 E51.24577
G1 X100.6 Y119.4 E51.62094
G0 F9000 X100.2 Y119.8
;TYPE:WALL-OUTER
G1 F1500 X119.8 Y119.8 E52.01208
G1 X119.8 Y100.2 E52.40322
G1 X100.2 Y100.2 E52.79436
G1 X100.2 Y119.8 E53.1855
G0 F9000 X100.47 Y119.53
G0 X101.1 Y118.6
G0 X101.4 Y118.6
;TYPE:SKIN
G1 F1500 X118.6 Y118.6 E53.52874
G1 X118.6 Y101.4 E53.87199
G1 X101.4 Y101.4 E54.21523
G1 X101.4 Y118.6 E54.55848
G0 F9000 X101.8 Y118.2
