;FLAVOR:Marlin
;TIME:2388
;Filament used: 3.01418m
;Layer height: 0.28
;MINX:84.009
;MINY:84.009
;MINZ:0.28
;MAXX:135.991
;MAXY:135.991
;MAXZ:29.96
;Generated with Cura_SteamEngine 4.8.0
M140 S60
M105
M190 S60
M104 S200
M105
M109 S200
M82 ;absolute extrusion mode
; Ender 3 Custom Start G-code
G92 E0 ; Reset Extruder
G28 ; Home all axes
G1 Z2.0 F3000 ; Move Z Axis up little to prevent scratching of Heat Bed
G1 X0.1 Y20 Z0.3 F5000.0 ; Move to start position
G1 X0.1 Y200.0 Z0.3 F1500.0 E15 ; Draw the first line
G1 X0.4 Y200.0 Z0.3 F5000.0 ; Move to side a little
G1 X0.4 Y20 Z0.3 F1500.0 E30 ; Draw the second line
G92 E0 ; Reset Extruder
G1 Z2.0 F3000 ; Move Z Axis up little to prevent scratching of Heat Bed
G1 X5 Y20 Z0.3 F5000.0 ; Move over to prevent blob squish
G92 E0
G92 E0
G1 F1500 E-6.5
;LAYER_COUNT:107
;LAYER:0
M107
G0 F6000 X91.581 Y91.662 Z0.28
;TYPE:SKIRT
G1 F1500 E0
G1 F1200 X91.77 Y91.474 E0.01241
G1 X91.979 Y91.271 E0.02598
G1 X92.186 Y91.076 E0.03922
G1 X92.623 Y90.673 E0.0669
G1 X92.892 Y90.432 E0.08372
G1 X93.15 Y90.212 E0.09951
G1 X93.632 Y89.812 E0.12867
G1 X93.945 Y89.561 E0.14736
G1 X94.186 Y89.375 E0.16153
G1 X94.657 Y89.022 E0.18894
G1 X94.897 Y88.847 E0.20277
G1 X95.058 Y88.733 E0.21196
G1 X95.296 Y88.569 E0.22541
G1 X95.798 Y88.233 E0.25354
G1 X96.195 Y87.978 E0.27551
G1 X96.43 Y87.833 E0.28837
G1 X96.904 Y87.55 E0.31408
G1 X97.294 Y87.326 E0.33502
G1 X97.557 Y87.183 E0.34896
G1 X98.2 Y86.843 E0.38283
G1 X98.683 Y86.602 E0.40796
G1 X99.299 Y86.314 E0.43963
G1 X99.685 Y86.142 E0.4593
G1 X100.436 Y85.833 E0.49712
G1 X100.81 Y85.687 E0.51581
G1 X101.101 Y85.58 E0.53025
G1 X101.725 Y85.361 E0.56104
G1 X102.234 Y85.196 E0.58596
G1 X102.89 Y85.001 E0.61783
G1 X103.227 Y84.906 E0.63413
G1 X103.535 Y84.827 E0.64894
G1 X104.194 Y84.667 E0.68051
G1 X104.673 Y84.561 E0.70336
G1 X105.382 Y84.422 E0.737
G1 X105.916 Y84.331 E0.76222
G1 X106.604 Y84.231 E0.7946
G1 X107.111 Y84.17 E0.81837
G1 X107.793 Y84.103 E0.85028
G1 X108.266 Y84.066 E0.87238
G1 X108.923 Y84.03 E0.90301
G1 X109.447 Y84.014 E0.92743
G1 X110.151 Y84.009 E0.96021
G1 X110.621 Y84.016 E0.9821
G1 X111.266 Y84.039 E1.01215
G1 X111.782 Y84.07 E1.03622
G1 X112.494 Y84.129 E1.06949
G1 X112.969 Y84.178 E1.09172
G1 X113.632 Y84.262 E1.12284
G1 X114.162 Y84.343 E1.14781
G1 X114.864 Y84.467 E1.181
G1 X115.364 Y84.567 E1.20474
G1 X116.049 Y84.721 E1.23744
G1 X116.605 Y84.861 E1.26413
G1 X117.34 Y85.067 E1.29968
G1 X117.812 Y85.211 E1.32266
G1 X118.489 Y85.434 E1.35585
G1 X118.983 Y85.61 E1.38026
G1 X119.586 Y85.841 E1.41033
G1 X119.924 Y85.976 E1.42728
G1 X120.212 Y86.099 E1.44186
G1 X120.789 Y86.355 E1.47126
G1 X121.115 Y86.505 E1.48797
G1 X121.404 Y86.645 E1.50292
G1 X121.959 Y86.924 E1.53184
G1 X122.314 Y87.11 E1.5505
G1 X122.586 Y87.26 E1.56497
G1 X123.142 Y87.577 E1.59477
G1 X123.478 Y87.776 E1.61295
G1 X123.701 Y87.914 E1.62517
G1 X124.233 Y88.253 E1.65454
G1 X124.557 Y88.467 E1.67262
G1 X124.822 Y88.65 E1.68762
G1 X125.32 Y89.005 E1.71609
G1 X125.679 Y89.27 E1.73687
G1 X125.92 Y89.456 E1.75105
G1 X126.406 Y89.842 E1.77995
G1 X126.713 Y90.094 E1.79844
G1 X126.929 Y90.279 E1.81168
G1 X127.565 Y90.841 E1.8512
G1 X127.667 Y90.934 E1.85763
G1 X127.951 Y91.202 E1.87581
G1 X128.33 Y91.573 E1.90051
G1 X128.526 Y91.77 E1.91345
G1 X128.729 Y91.979 E1.92702
G1 X128.924 Y92.186 E1.94026
G1 X129.327 Y92.623 E1.96794
G1 X129.568 Y92.892 E1.98476
G1 X129.788 Y93.15 E2.00054
G1 X130.188 Y93.632 E2.02971
G1 X130.439 Y93.945 E2.04839
G1 X130.625 Y94.186 E2.06257
G1 X130.978 Y94.657 E2.08998
G1 X131.163 Y94.91 E2.10457
G1 X131.271 Y95.063 E2.11329
G1 X131.417 Y95.276 E2.12531
G1 X131.754 Y95.778 E2.15347
G1 X131.923 Y96.037 E2.16787
G1 X132.169 Y96.433 E2.18958
G1 X132.45 Y96.904 E2.21512
G1 X132.666 Y97.28 E2.23531
G1 X132.805 Y97.534 E2.24879
G1 X133.114 Y98.115 E2.27943
G1 X133.272 Y98.423 E2.29555
G1 X133.398 Y98.683 E2.309
G1 X133.686 Y99.299 E2.34067
G1 X133.858 Y99.685 E2.36034
G1 X134.167 Y100.436 E2.39816
G1 X134.313 Y100.81 E2.41685
G1 X134.418 Y101.096 E2.43104
G1 X134.637 Y101.719 E2.46179
G1 X134.805 Y102.237 E2.48715
G1 X135 Y102.894 E2.51906
G1 X135.094 Y103.227 E2.53517
G1 X135.173 Y103.535 E2.54998
G1 X135.333 Y104.194 E2.58155
G1 X135.438 Y104.67 E2.60425
G1 X135.577 Y105.378 E2.63785
G1 X135.669 Y105.915 E2.66322
G1 X135.769 Y106.603 E2.69559
G1 X135.83 Y107.11 E2.71937
G1 X135.897 Y107.792 E2.75128
G1 X135.934 Y108.265 E2.77337
G1 X135.97 Y108.922 E2.80401
G1 X135.986 Y109.446 E2.82842
G1 X135.991 Y110.15 E2.8612
G1 X135.984 Y110.619 E2.88304
G1 X135.961 Y111.265 E2.91314
G1 X135.93 Y111.782 E2.93726
G1 X135.871 Y112.494 E2.97053
G1 X135.821 Y112.973 E2.99295
G1 X135.738 Y113.626 E3.0236
G1 X135.66 Y114.141 E3.04786
G1 X135.535 Y114.853 E3.08152
G1 X135.432 Y115.367 E3.10593
G1 X135.278 Y116.051 E3.13857
G1 X135.141 Y116.596 E3.16474
G1 X134.935 Y117.333 E3.20037
G1 X134.789 Y117.812 E3.22369
G1 X134.574 Y118.465 E3.2557
G1 X134.404 Y118.945 E3.27942
G1 X134.094 Y119.753 E3.31971
G1 X133.912 Y120.188 E3.34167
G1 X133.653 Y120.774 E3.3715
G1 X133.478 Y121.152 E3.3909
G1 X133.348 Y121.42 E3.40477
G1 X133.069 Y121.973 E3.43361
G1 X132.89 Y122.314 E3.45154
G1 X132.742 Y122.582 E3.4658
G1 X132.427 Y123.135 E3.49543
G1 X132.216 Y123.491 E3.5147
G1 X132.091 Y123.693 E3.52576
G1 X131.752 Y124.226 E3.55518
G1 X131.508 Y124.594 E3.57574
G1 X131.35 Y124.822 E3.58865
G1 X130.995 Y125.32 E3.61713
G1 X130.735 Y125.672 E3.63751
G1 X130.538 Y125.928 E3.65255
G1 X130.154 Y126.411 E3.68128
G1 X129.898 Y126.722 E3.70004
G1 X129.713 Y126.937 E3.71325
G1 X129.281 Y127.427 E3.74366
G1 X129.012 Y127.723 E3.76229
G1 X128.798 Y127.949 E3.77678
G1 X128.44 Y128.316 E3.80065
G1 X128.249 Y128.507 E3.81323
G1 X128.04 Y128.711 E3.82683
G1 X127.813 Y128.926 E3.84139
G1 X127.377 Y129.328 E3.86901
G1 X127.109 Y129.568 E3.88576
G1 X126.842 Y129.795 E3.90208
G1 X126.359 Y130.195 E3.93128
G1 X126.047 Y130.445 E3.94989
G1 X125.818 Y130.622 E3.96337
G1 X125.346 Y130.976 E3.99084
G1 X125.092 Y131.161 E4.00548
G1 X124.932 Y131.274 E4.0146
G1 X124.713 Y131.424 E4.02696
G1 X124.218 Y131.756 E4.05471
G1 X123.963 Y131.923 E4.0689
G1 X123.803 Y132.024 E4.07771
G1 X123.579 Y132.161 E4.08994
G1 X123.106 Y132.444 E4.11561
G1 X122.816 Y132.612 E4.13121
G1 X122.443 Y132.817 E4.15103
G1 X121.798 Y133.158 E4.185
G1 X121.322 Y133.395 E4.20976
G1 X120.707 Y133.683 E4.24139
G1 X120.315 Y133.858 E4.26138
G1 X119.564 Y134.167 E4.29919
G1 X119.19 Y134.313 E4.31788
G1 X118.899 Y134.42 E4.33232
G1 X118.275 Y134.639 E4.36312
G1 X117.766 Y134.804 E4.38803
G1 X117.11 Y134.999 E4.4199
G1 X116.773 Y135.094 E4.4362
G1 X116.465 Y135.173 E4.45101
G1 X115.806 Y135.333 E4.48258
G1 X115.327 Y135.439 E4.50543
G1 X114.618 Y135.578 E4.53907
G1 X114.084 Y135.669 E4.56429
G1 X113.396 Y135.769 E4.59667
G1 X112.889 Y135.83 E4.62045
G1 X112.207 Y135.897 E4.65236
G1 X111.734 Y135.934 E4.67445
G1 X111.077 Y135.97 E4.70509
G1 X110.553 Y135.986 E4.7295
G1 X109.849 Y135.991 E4.76228
G1 X109.378 Y135.984 E4.78421
G1 X108.734 Y135.961 E4.81422
G1 X108.221 Y135.931 E4.83815
G1 X107.507 Y135.872 E4.87151
G1 X107.028 Y135.822 E4.89393
G1 X106.366 Y135.738 E4.92501
G1 X105.838 Y135.657 E4.94988
G1 X105.136 Y135.533 E4.98307
G1 X104.621 Y135.43 E5.00753
G1 X103.936 Y135.275 E5.04023
G1 X103.409 Y135.142 E5.06554
G1 X102.674 Y134.937 E5.10107
G1 X102.183 Y134.787 E5.12498
G1 X101.504 Y134.563 E5.15827
G1 X101.01 Y134.387 E5.18269
G1 X100.4 Y134.153 E5.21311
G1 X100.068 Y134.02 E5.22977
G1 X99.787 Y133.9 E5.24399
G1 X99.214 Y133.646 E5.27318
G1 X98.879 Y133.492 E5.29035
G1 X98.594 Y133.354 E5.30509
G1 X98.041 Y133.076 E5.33391
G1 X97.658 Y132.875 E5.35405
G1 X97.42 Y132.743 E5.36673
G1 X96.868 Y132.429 E5.3963
G1 X96.494 Y132.207 E5.41655
G1 X96.299 Y132.086 E5.42724
G1 X95.767 Y131.747 E5.45661
G1 X95.424 Y131.52 E5.47576
G1 X95.177 Y131.349 E5.48975
G1 X94.679 Y130.994 E5.51823
G1 X94.464 Y130.837 E5.53062
G1 X94.312 Y130.723 E5.53947
G1 X94.069 Y130.535 E5.55378
G1 X93.592 Y130.156 E5.58215
G1 X93.287 Y129.906 E5.60051
G1 X93.071 Y129.721 E5.61375
G1 X92.579 Y129.288 E5.64427
G1 X92.31 Y129.044 E5.66118
G1 X92.027 Y128.777 E5.6793
G1 X91.662 Y128.419 E5.70311
G1 X91.479 Y128.235 E5.71519
G1 X91.267 Y128.017 E5.72935
G1 X91.069 Y127.808 E5.74275
G1 X90.674 Y127.38 E5.76987
G1 X90.431 Y127.108 E5.78686
G1 X90.203 Y126.839 E5.80328
G1 X89.804 Y126.357 E5.83241
G1 X89.561 Y126.055 E5.85046
G1 X89.375 Y125.814 E5.86464
G1 X89.022 Y125.343 E5.89205
G1 X88.833 Y125.084 E5.90698
G1 X88.554 Y124.683 E5.92972
G1 X88.238 Y124.211 E5.95617
G1 X88.077 Y123.963 E5.96994
G1 X87.976 Y123.803 E5.97875
G1 X87.839 Y123.579 E5.99098
G1 X87.556 Y123.106 E6.01664
G1 X87.4 Y122.836 E6.03116
G1 X87.179 Y122.437 E6.0524
G1 X86.839 Y121.793 E6.08631
G1 X86.605 Y121.322 E6.1108
G1 X86.317 Y120.707 E6.14242
G1 X86.142 Y120.315 E6.16241
G1 X85.833 Y119.564 E6.20023
G1 X85.687 Y119.19 E6.21892
G1 X85.58 Y118.899 E6.23336
G1 X85.361 Y118.275 E6.26415
G1 X85.196 Y117.766 E6.28907
G1 X85.001 Y117.11 E6.32093
G1 X84.906 Y116.773 E6.33724
G1 X84.827 Y116.465 E6.35204
G1 X84.667 Y115.806 E6.38362
G1 X84.561 Y115.327 E6.40646
G1 X84.422 Y114.618 E6.44011
G1 X84.331 Y114.084 E6.46533
G1 X84.231 Y113.396 E6.4977
G1 X84.17 Y112.889 E6.52148
G1 X84.103 Y112.207 E6.55339
G1 X84.067 Y111.736 E6.57539
G1 X84.031 Y111.081 E6.60593
G1 X84.014 Y110.555 E6.63044
G1 X84.009 Y109.849 E6.66331
G1 X84.016 Y109.378 E6.68525
G1 X84.039 Y108.734 E6.71525
G1 X84.069 Y108.221 E6.73918
G1 X84.128 Y107.507 E6.77254
G1 X84.178 Y107.028 E6.79497
G1 X84.262 Y106.366 E6.82604
G1 X84.343 Y105.838 E6.85091
G1 X84.467 Y105.136 E6.88411
G1 X84.57 Y104.621 E6.90856
G1 X84.725 Y103.936 E6.94127
G1 X84.858 Y103.409 E6.96658
G1 X85.063 Y102.674 E7.00211
G1 X85.209 Y102.194 E7.02547
G1 X85.424 Y101.54 E7.05752
G1 X85.598 Y101.049 E7.08178
G1 X85.841 Y100.413 E7.11348
G1 X85.958 Y100.119 E7.12822
G1 X86.102 Y99.779 E7.14541
G1 X86.354 Y99.211 E7.17435
G1 X86.52 Y98.852 E7.19276
G1 X86.649 Y98.588 E7.20644
G1 X86.928 Y98.034 E7.23533
G1 X87.11 Y97.686 E7.25361
G1 X87.256 Y97.421 E7.2677
G1 X87.573 Y96.864 E7.29755
G1 X87.802 Y96.478 E7.31844
G1 X88.253 Y95.767 E7.35765
G1 X88.467 Y95.443 E7.37573
G1 X88.65 Y95.178 E7.39073
G1 X89.005 Y94.68 E7.4192
G1 X89.265 Y94.328 E7.43958
G1 X89.462 Y94.072 E7.45462
G1 X89.846 Y93.589 E7.48335
G1 X90.094 Y93.287 E7.50155
G1 X90.283 Y93.067 E7.51506
G1 X90.734 Y92.555 E7.54683
G1 X90.963 Y92.302 E7.56272
G1 X91.222 Y92.028 E7.58027
G1 X91.581 Y91.662 E7.60415
G0 F6000 X91.867 Y91.942
G1 F1200 X92.049 Y91.761 E7.6161
G1 X92.258 Y91.558 E7.62967
G1 X92.457 Y91.37 E7.64241
G1 X92.894 Y90.967 E7.67009
G1 X93.154 Y90.735 E7.68632
G1 X93.406 Y90.52 E7.70174
G1 X93.888 Y90.12 E7.73091
G1 X94.193 Y89.874 E7.74916
G1 X94.426 Y89.695 E7.76284
G1 X94.897 Y89.342 E7.79024
G1 X95.129 Y89.173 E7.80361
G1 X95.519 Y88.901 E7.82575
G1 X96.021 Y88.565 E7.85388
G1 X96.409 Y88.316 E7.87535
G1 X96.635 Y88.177 E7.8877
G1 X97.109 Y87.894 E7.91341
G1 X97.491 Y87.675 E7.93391
G1 X97.744 Y87.536 E7.94735
G1 X98.387 Y87.196 E7.98122
G1 X98.853 Y86.965 E8.00544
G1 X99.469 Y86.677 E8.0371
G1 X99.844 Y86.51 E8.05622
G1 X100.03 Y86.431 E8.06563
G1 X100.587 Y86.203 E8.09365
G1 X100.953 Y86.06 E8.11195
G1 X101.234 Y85.957 E8.12588
G1 X101.858 Y85.738 E8.15668
G1 X102.348 Y85.579 E8.18067
G1 X103.004 Y85.384 E8.21253
G1 X103.333 Y85.292 E8.22844
G1 X103.629 Y85.215 E8.24268
G1 X104.288 Y85.055 E8.27426
G1 X104.75 Y84.954 E8.29628
G1 X105.459 Y84.815 E8.32992
G1 X105.973 Y84.727 E8.3542
G1 X106.661 Y84.627 E8.38658
G1 X107.15 Y84.568 E8.40951
G1 X107.832 Y84.501 E8.44142
G1 X108.288 Y84.466 E8.46272
G1 X108.945 Y84.43 E8.49336
G1 X109.45 Y84.414 E8.51688
G1 X110.154 Y84.409 E8.54967
G1 X110.607 Y84.416 E8.57076
G1 X111.252 Y84.439 E8.60081
G1 X111.749 Y84.468 E8.624
G1 X112.461 Y84.527 E8.65726
G1 X112.918 Y84.575 E8.67866
G1 X113.581 Y84.659 E8.70978
G1 X114.093 Y84.737 E8.7339
G1 X114.795 Y84.861 E8.76709
G1 X115.276 Y84.957 E8.78993
G1 X115.961 Y85.111 E8.82262
G1 X116.497 Y85.246 E8.84836
G1 X117.232 Y85.452 E8.8839
G1 X117.687 Y85.591 E8.90606
G1 X118.364 Y85.814 E8.93925
G1 X118.84 Y85.983 E8.96277
G1 X119.443 Y86.214 E8.99283
G1 X119.772 Y86.346 E9.00934
G1 X120.05 Y86.465 E9.02342
G1 X120.811 Y86.804 E9.06221
G1 X120.946 Y86.867 E9.06915
G1 X121.224 Y87.002 E9.08354
G1 X121.779 Y87.281 E9.11247
G1 X122.126 Y87.463 E9.13071
G1 X122.388 Y87.608 E9.14465
G1 X122.944 Y87.925 E9.17446
G1 X123.271 Y88.118 E9.19214
G1 X123.486 Y88.252 E9.20393
G1 X124.018 Y88.591 E9.23331
G1 X124.334 Y88.799 E9.25092
G1 X124.59 Y88.976 E9.26542
G1 X125.088 Y89.331 E9.29389
G1 X125.439 Y89.59 E9.31421
G1 X125.672 Y89.77 E9.32792
G1 X126.158 Y90.156 E9.35682
G1 X126.456 Y90.401 E9.37478
G1 X126.665 Y90.58 E9.38759
G1 X127.296 Y91.137 E9.42678
G1 X127.398 Y91.23 E9.43321
G1 X127.671 Y91.488 E9.4507
G1 X128.05 Y91.859 E9.4754
G1 X128.239 Y92.049 E9.48788
G1 X128.442 Y92.258 E9.50144
G1 X128.63 Y92.457 E9.51419
G1 X129.033 Y92.894 E9.54187
G1 X129.265 Y93.154 E9.5581
G1 X129.48 Y93.406 E9.57352
G1 X129.88 Y93.888 E9.60269
G1 X130.126 Y94.193 E9.62093
G1 X130.305 Y94.426 E9.63461
G1 X130.658 Y94.897 E9.66202
G1 X130.836 Y95.141 E9.67609
G1 X131.085 Y95.499 E9.69639
G1 X131.422 Y96.001 E9.72455
G1 X131.585 Y96.251 E9.73844
G1 X131.686 Y96.411 E9.74725
G1 X131.825 Y96.638 E9.75965
G1 X132.106 Y97.109 E9.78519
G1 X132.318 Y97.477 E9.80496
G1 X132.452 Y97.722 E9.81796
G1 X132.761 Y98.303 E9.84861
G1 X132.914 Y98.602 E9.86425
G1 X133.035 Y98.853 E9.87722
G1 X133.323 Y99.469 E9.90888
G1 X133.49 Y99.844 E9.928
G1 X133.569 Y100.03 E9.93741
G1 X133.797 Y100.587 E9.96543
G1 X133.94 Y100.953 E9.98373
G1 X134.041 Y101.229 E9.99742
G1 X134.26 Y101.852 E10.02817
G1 X134.422 Y102.351 E10.0526
G1 X134.617 Y103.008 E10.08451
G1 X134.708 Y103.333 E10.10022
G1 X134.785 Y103.629 E10.11446
G1 X134.945 Y104.288 E10.14604
G1 X135.045 Y104.747 E10.16792
G1 X135.184 Y105.455 E10.20151
G1 X135.273 Y105.972 E10.22594
G1 X135.373 Y106.66 E10.25831
G1 X135.432 Y107.149 E10.28125
G1 X135.499 Y107.831 E10.31316
G1 X135.534 Y108.287 E10.33445
G1 X135.57 Y108.944 E10.36509
G1 X135.586 Y109.449 E10.38862
G1 X135.591 Y110.153 E10.4214
G1 X135.584 Y110.605 E10.44245
G1 X135.561 Y111.251 E10.47255
G1 X135.532 Y111.749 E10.49578
G1 X135.473 Y112.461 E10.52905
G1 X135.424 Y112.923 E10.55068
G1 X135.341 Y113.576 E10.58133
G1 X135.266 Y114.072 E10.60469
G1 X135.141 Y114.784 E10.63835
G1 X135.042 Y115.279 E10.66185
G1 X134.888 Y115.963 E10.6945
G1 X134.756 Y116.488 E10.71971
G1 X134.55 Y117.225 E10.75534
G1 X134.409 Y117.687 E10.77783
G1 X134.194 Y118.34 E10.80985
G1 X134.03 Y118.803 E10.83272
G1 X133.792 Y119.427 E10.86382
G1 X133.685 Y119.696 E10.8773
G1 X133.546 Y120.026 E10.89397
G1 X133.287 Y120.612 E10.9238
G1 X133.182 Y120.844 E10.93566
G1 X132.991 Y121.24 E10.95613
G1 X132.712 Y121.793 E10.98497
G1 X132.537 Y122.126 E11.00249
G1 X132.395 Y122.385 E11.01625
G1 X132.08 Y122.938 E11.04588
G1 X131.874 Y123.284 E11.06463
G1 X131.753 Y123.479 E11.07532
G1 X131.414 Y124.012 E11.10473
G1 X131.177 Y124.37 E11.12472
G1 X131.024 Y124.59 E11.1372
G1 X130.669 Y125.088 E11.16568
G1 X130.415 Y125.433 E11.18563
G1 X130.225 Y125.679 E11.2001
G1 X129.841 Y126.162 E11.22883
G1 X129.592 Y126.465 E11.24709
G1 X129.413 Y126.673 E11.25987
G1 X128.981 Y127.163 E11.29029
G1 X128.718 Y127.452 E11.30848
G1 X128.512 Y127.67 E11.32245
G1 X128.154 Y128.037 E11.34632
G1 X127.97 Y128.221 E11.35844
G1 X127.761 Y128.425 E11.37204
G1 X127.542 Y128.632 E11.38607
G1 X127.106 Y129.034 E11.41369
G1 X126.847 Y129.265 E11.42985
