;FLAVOR:Marlin
;TIME:11307
;Filament used: 5.30903m
;Layer height: 0.12
;MINX:75.016
;MINY:75.008
;MINZ:0.12
;MAXX:144.984
;MAXY:144.992
;MAXZ:21.96
;Generated with Cura_SteamEngine 5.2.1
M82 ;absolute extrusion mode
; Ender 3 Custom Start G-code
G92 E0 ; Reset Extruder
G28 ; Home all axes
M104 S175 ; Start heating up the nozzle most of the way
M190 S60 ; Start heating the bed, wait until target temperature reached
M109 S200 ; Finish heating the nozzle
G1 Z2.0 F3000 ; Move Z Axis up little to prevent scratching of Heat Bed
G1 X0.1 Y20 Z0.3 F5000.0 ; Move to start position
G1 X0.1 Y200.0 Z0.3 F1500.0 E15 ; Draw the first line
G1 X0.4 Y200.0 Z0.3 F5000.0 ; Move to side a little
G1 X0.4 Y20 Z0.3 F1500.0 E30 ; Draw the second line
G92 E0 ; Reset Extruder
G1 Z2.0 F3000 ; Move Z Axis up little to prevent scratching of Heat Bed
G1 X5 Y20 Z0.3 F5000.0 ; Move over to prevent blob squish
G92 E0
G92 E0
G1 F1500 E-6.5
;LAYER_COUNT:183
;LAYER:0
M107
G0 F6000 X86.118 Y84.449 Z0.12
;TYPE:SKIRT
G1 F1500 E0
G1 F1200 X86.58 Y83.998 E0.01288
G1 X87.557 Y83.151 E0.03869
G1 X88.492 Y82.433 E0.06221
G1 X90.058 Y81.273 E0.10111
G1 X90.728 Y80.79 E0.11759
G1 X91.823 Y80.096 E0.14346
G1 X92.634 Y79.647 E0.16196
G1 X94.559 Y78.623 E0.20547
G1 X95.308 Y78.239 E0.22227
G1 X96.467 Y77.728 E0.24754
G1 X97.558 Y77.323 E0.27077
G1 X99.463 Y76.653 E0.31107
G1 X100.181 Y76.411 E0.32619
G1 X101.429 Y76.071 E0.352
G1 X102.373 Y75.873 E0.37125
G1 X104.54 Y75.457 E0.41528
G1 X105.301 Y75.322 E0.43071
G1 X106.585 Y75.173 E0.4565
G1 X107.57 Y75.117 E0.47619
G1 X109.917 Y75.023 E0.52307
G1 X110.515 Y75.008 E0.535
G1 X111.801 Y75.051 E0.56068
G1 X112.777 Y75.141 E0.58024
G1 X114.972 Y75.383 E0.62431
G1 X115.73 Y75.477 E0.63955
G1 X117.005 Y75.713 E0.66543
G1 X118.11 Y75.988 E0.68815
G1 X120.173 Y76.539 E0.73077
G1 X120.805 Y76.716 E0.74386
G1 X122.035 Y77.14 E0.76983
G1 X123.115 Y77.588 E0.79316
G1 X124.922 Y78.373 E0.83248
G1 X125.655 Y78.703 E0.84852
G1 X126.789 Y79.297 E0.87407
G1 X127.817 Y79.916 E0.89801
G1 X129.466 Y80.948 E0.93683
G1 X130.135 Y81.378 E0.9527
G1 X131.195 Y82.154 E0.97892
G1 X132.066 Y82.877 E1.00151
G1 X133.58 Y84.175 E1.04131
G1 X134.189 Y84.711 E1.0575
G1 X135.106 Y85.621 E1.08328
G1 X135.857 Y86.462 E1.10578
G1 X137.169 Y87.982 E1.14585
G1 X137.672 Y88.579 E1.16143
G1 X138.458 Y89.634 E1.18768
G1 X138.987 Y90.441 E1.20694
G1 X140.143 Y92.27 E1.25012
G1 X140.559 Y92.948 E1.26599
G1 X141.171 Y94.095 E1.29193
G1 X141.675 Y95.195 E1.31608
G1 X142.433 Y96.925 E1.35377
G1 X142.76 Y97.698 E1.37052
G1 X143.195 Y98.926 E1.39652
G1 X143.521 Y100.058 E1.42003
G1 X144.03 Y101.943 E1.45899
G1 X144.231 Y102.728 E1.47517
G1 X144.476 Y104.001 E1.50104
G1 X144.626 Y105.145 E1.52406
G1 X144.863 Y107.224 E1.56582
G1 X144.931 Y107.899 E1.57936
G1 X144.984 Y109.198 E1.6053
G1 X144.961 Y110.401 E1.62931
G1 X144.892 Y112.347 E1.66817
G1 X144.853 Y113.146 E1.68414
G1 X144.714 Y114.423 E1.70977
G1 X144.561 Y115.33 E1.72813
G1 X144.118 Y117.7 E1.77624
G1 X143.996 Y118.302 E1.7885
G1 X143.67 Y119.536 E1.81397
G1 X143.309 Y120.634 E1.83703
G1 X142.601 Y122.667 E1.88
G1 X142.387 Y123.257 E1.89252
G1 X141.867 Y124.461 E1.91869
G1 X141.425 Y125.337 E1.93827
G1 X140.435 Y127.221 E1.98075
G1 X140.042 Y127.945 E1.99718
G1 X139.364 Y129.036 E2.02282
G1 X138.803 Y129.83 E2.04222
G1 X137.414 Y131.72 E2.08903
G1 X137.031 Y132.226 E2.10169
G1 X136.188 Y133.212 E2.12758
G1 X135.398 Y134.031 E2.15029
G1 X133.882 Y135.551 E2.19313
G1 X133.42 Y136.002 E2.20601
G1 X132.443 Y136.849 E2.23182
G1 X131.508 Y137.567 E2.25534
G1 X129.942 Y138.727 E2.29423
G1 X129.263 Y139.216 E2.31093
G1 X128.181 Y139.901 E2.33649
G1 X127.371 Y140.35 E2.35497
G1 X125.441 Y141.377 E2.3986
G1 X124.692 Y141.761 E2.4154
G1 X123.528 Y142.274 E2.44078
G1 X122.637 Y142.606 E2.45976
G1 X120.539 Y143.346 E2.50415
G1 X119.819 Y143.589 E2.51932
G1 X118.571 Y143.929 E2.54513
G1 X117.627 Y144.127 E2.56438
G1 X115.46 Y144.543 E2.60841
G1 X114.699 Y144.678 E2.62384
G1 X113.415 Y144.827 E2.64963
G1 X112.43 Y144.883 E2.66932
G1 X110.083 Y144.977 E2.71619
G1 X109.485 Y144.992 E2.72813
G1 X108.199 Y144.949 E2.75381
G1 X107.223 Y144.859 E2.77337
G1 X105.028 Y144.617 E2.81744
G1 X104.27 Y144.523 E2.83268
G1 X102.995 Y144.287 E2.85856
G1 X101.89 Y144.012 E2.88128
G1 X99.827 Y143.461 E2.92389
G1 X99.195 Y143.284 E2.93699
G1 X97.965 Y142.86 E2.96295
G1 X96.885 Y142.412 E2.98629
G1 X95.078 Y141.627 E3.0256
G1 X94.341 Y141.295 E3.04174
G1 X93.207 Y140.701 E3.06728
G1 X92.183 Y140.084 E3.09114
G1 X90.534 Y139.052 E3.12996
G1 X89.865 Y138.622 E3.14583
G1 X88.805 Y137.846 E3.17205
G1 X87.933 Y137.122 E3.19467
G1 X86.417 Y135.822 E3.23452
G1 X85.809 Y135.287 E3.25068
G1 X84.891 Y134.376 E3.27649
G1 X84.143 Y133.538 E3.29891
G1 X82.831 Y132.018 E3.33898
G1 X82.328 Y131.421 E3.35456
G1 X81.542 Y130.366 E3.38081
G1 X80.911 Y129.401 E3.40382
G1 X79.853 Y127.725 E3.44337
G1 X79.438 Y127.048 E3.45922
G1 X78.829 Y125.905 E3.48506
G1 X78.325 Y124.805 E3.50921
G1 X77.509 Y122.941 E3.54982
G1 X77.239 Y122.302 E3.56366
G1 X76.802 Y121.068 E3.58978
G1 X76.479 Y119.942 E3.61316
G1 X75.97 Y118.057 E3.65213
G1 X75.769 Y117.272 E3.6683
G1 X75.524 Y115.999 E3.69417
G1 X75.374 Y114.855 E3.71719
G1 X75.137 Y112.776 E3.75895
G1 X75.069 Y112.101 E3.77249
G1 X75.016 Y110.802 E3.79843
G1 X75.039 Y109.599 E3.82244
G1 X75.108 Y107.653 E3.8613
G1 X75.147 Y106.854 E3.87727
G1 X75.286 Y105.577 E3.9029
G1 X75.439 Y104.67 E3.92126
G1 X75.882 Y102.3 E3.96937
G1 X76.004 Y101.698 E3.98163
G1 X76.33 Y100.464 E4.0071
G1 X76.691 Y99.366 E4.03017
G1 X77.399 Y97.333 E4.07313
G1 X77.613 Y96.743 E4.08565
G1 X78.133 Y95.539 E4.11182
G1 X78.575 Y94.663 E4.1314
G1 X79.565 Y92.779 E4.17388
G1 X79.958 Y92.055 E4.19032
G1 X80.636 Y90.964 E4.21595
G1 X81.197 Y90.17 E4.23535
G1 X82.586 Y88.28 E4.28216
G1 X82.969 Y87.774 E4.29482
G1 X83.812 Y86.788 E4.32071
G1 X84.602 Y85.969 E4.34342
G1 X86.118 Y84.449 E4.38626
G0 F6000 X86.293 Y84.838
G1 F1200 X86.86 Y84.284 E4.40208
G1 X87.801 Y83.468 E4.42694
G1 X88.731 Y82.754 E4.45033
G1 X90.297 Y81.594 E4.48922
G1 X90.962 Y81.115 E4.50558
G1 X92.017 Y80.446 E4.53051
G1 X92.828 Y79.997 E4.54901
G1 X94.747 Y78.976 E4.59239
G1 X95.49 Y78.595 E4.60905
G1 X96.607 Y78.103 E4.63341
G1 X97.691 Y77.7 E4.65649
G1 X99.596 Y77.03 E4.69679
G1 X100.309 Y76.79 E4.7118
G1 X101.511 Y76.463 E4.73666
G1 X102.639 Y76.228 E4.75965
G1 X104.615 Y75.85 E4.7998
G1 X105.371 Y75.716 E4.81512
G1 X106.607 Y75.572 E4.83995
G1 X107.775 Y75.507 E4.8633
G1 X109.927 Y75.423 E4.90628
G1 X110.525 Y75.408 E4.91822
G1 X111.764 Y75.45 E4.94295
G1 X112.936 Y75.56 E4.96645
G1 X115.072 Y75.798 E5.00934
G1 X115.681 Y75.874 E5.02158
G1 X116.91 Y76.101 E5.04652
G1 X118.007 Y76.374 E5.06908
G1 X119.938 Y76.889 E5.10897
G1 X120.697 Y77.101 E5.12469
G1 X121.882 Y77.51 E5.14971
G1 X122.956 Y77.955 E5.17291
G1 X124.902 Y78.801 E5.21525
G1 X125.491 Y79.067 E5.22815
G1 X126.583 Y79.64 E5.25276
G1 X127.604 Y80.255 E5.27655
G1 X129.37 Y81.361 E5.31813
G1 X129.918 Y81.714 E5.33114
G1 X130.94 Y82.462 E5.35641
G1 X131.668 Y83.065 E5.37528
G1 X133.432 Y84.577 E5.42164
G1 X133.924 Y85.011 E5.43474
G1 X134.808 Y85.888 E5.45959
G1 X135.426 Y86.578 E5.47807
G1 X136.95 Y88.342 E5.52459
G1 X137.366 Y88.836 E5.53748
G1 X138.123 Y89.853 E5.56278
G1 X138.751 Y90.814 E5.58569
G1 X139.882 Y92.608 E5.62801
G1 X140.218 Y93.157 E5.64086
G1 X140.808 Y94.262 E5.66585
G1 X141.309 Y95.356 E5.68987
G1 X142.123 Y97.216 E5.73038
G1 X142.392 Y97.853 E5.74418
G1 X142.811 Y99.037 E5.76925
G1 X143.085 Y99.986 E5.78896
G1 X143.682 Y102.194 E5.8346
G1 X143.843 Y102.826 E5.84762
G1 X144.08 Y104.054 E5.87258
G1 X144.206 Y105.007 E5.89176
G1 X144.465 Y107.265 E5.93712
G1 X144.533 Y107.94 E5.95066
G1 X144.584 Y109.191 E5.97564
G1 X144.561 Y110.387 E5.99951
G1 X144.486 Y112.49 E6.04151
G1 X144.454 Y113.126 E6.05422
G1 X144.319 Y114.356 E6.07891
G1 X144.133 Y115.449 E6.10103
G1 X143.726 Y117.62 E6.14511
G1 X143.604 Y118.222 E6.15737
G1 X143.29 Y119.412 E6.18193
G1 X142.995 Y120.314 E6.20087
G1 X142.225 Y122.53 E6.24769
G1 X142.011 Y123.12 E6.26021
G1 X141.51 Y124.281 E6.28545
G1 X141.068 Y125.157 E6.30503
G1 X140.012 Y127.164 E6.35028
G1 X139.691 Y127.754 E6.36369
G1 X139.037 Y128.805 E6.38839
G1 X138.476 Y129.599 E6.40779
G1 X137.095 Y131.478 E6.45433
G1 X136.712 Y131.984 E6.46699
G1 X135.9 Y132.935 E6.49195
G1 X135.115 Y133.749 E6.51451
G1 X133.707 Y135.162 E6.55432
G1 X133.14 Y135.716 E6.57014
G1 X132.199 Y136.532 E6.595
G1 X131.269 Y137.246 E6.6184
G1 X129.576 Y138.499 E6.66043
G1 X129.03 Y138.891 E6.67384
G1 X127.987 Y139.551 E6.69847
G1 X127.011 Y140.09 E6.72072
G1 X125.253 Y141.024 E6.76045
G1 X124.51 Y141.405 E6.77711
G1 X123.388 Y141.899 E6.80158
G1 X122.316 Y142.297 E6.8244
G1 X120.407 Y142.969 E6.86478
G1 X119.691 Y143.21 E6.87986
G1 X118.489 Y143.537 E6.90472
G1 X117.361 Y143.772 E6.92771
G1 X115.385 Y144.15 E6.96786
G1 X114.629 Y144.284 E6.98318
G1 X113.393 Y144.428 E7.00802
G1 X112.225 Y144.493 E7.03136
G1 X110.073 Y144.577 E7.07434
G1 X109.475 Y144.592 E7.08628
G1 X108.236 Y144.55 E7.11102
G1 X107.064 Y144.44 E7.13451
G1 X104.928 Y144.202 E7.1774
G1 X104.319 Y144.126 E7.18965
G1 X103.09 Y143.899 E7.21459
G1 X101.993 Y143.626 E7.23715
G1 X100.062 Y143.111 E7.27703
G1 X99.303 Y142.899 E7.29275
G1 X98.118 Y142.49 E7.31777
G1 X97.044 Y142.045 E7.34097
G1 X95.237 Y141.26 E7.38029
G1 X94.506 Y140.931 E7.39628
G1 X93.413 Y140.359 E7.4209
G1 X92.562 Y139.848 E7.44071
G1 X90.63 Y138.639 E7.48619
G1 X90.082 Y138.286 E7.4992
G1 X89.06 Y137.538 E7.52448
G1 X88.194 Y136.819 E7.54694
G1 X86.678 Y135.519 E7.58679
G1 X86.074 Y134.987 E7.60285
G1 X85.189 Y134.109 E7.62773
G1 X84.573 Y133.421 E7.64616
G1 X83.05 Y131.658 E7.69265
G1 X82.634 Y131.164 E7.70554
G1 X81.877 Y130.147 E7.73084
G1 X81.348 Y129.34 E7.7501
G1 X80.111 Y127.382 E7.79632
G1 X79.779 Y126.839 E7.80902
G1 X79.192 Y125.738 E7.83392
G1 X78.691 Y124.644 E7.85793
G1 X77.878 Y122.786 E7.8984
G1 X77.608 Y122.147 E7.91225
G1 X77.187 Y120.957 E7.93744
G1 X76.914 Y120.01 E7.9571
G1 X76.318 Y117.806 E8.00267
G1 X76.157 Y117.174 E8.01568
G1 X75.92 Y115.946 E8.04064
G1 X75.794 Y114.993 E8.05982
G1 X75.535 Y112.735 E8.10518
G1 X75.467 Y112.06 E8.11872
G1 X75.416 Y110.809 E8.14371
G1 X75.439 Y109.613 E8.16758
G1 X75.514 Y107.51 E8.20957
G1 X75.546 Y106.874 E8.22228
G1 X75.681 Y105.644 E8.24697
G1 X75.867 Y104.551 E8.2691
G1 X76.274 Y102.38 E8.31318
G1 X76.396 Y101.778 E8.32544
G1 X76.71 Y100.588 E8.35
G1 X77.005 Y99.686 E8.36894
G1 X77.775 Y97.47 E8.41575
G1 X77.989 Y96.88 E8.42828
G1 X78.49 Y95.719 E8.45351
G1 X78.932 Y94.843 E8.47309
G1 X79.988 Y92.836 E8.51835
G1 X80.309 Y92.246 E8.53175
G1 X80.963 Y91.195 E8.55646
G1 X81.524 Y90.401 E8.57586
G1 X82.905 Y88.522 E8.62239
G1 X83.288 Y88.016 E8.63506
G1 X84.1 Y87.065 E8.66001
G1 X84.885 Y86.251 E8.68258
G1 X86.293 Y84.838 E8.72239
G0 F6000 X86.677 Y85.021
G1 F1200 X87.139 Y84.57 E8.73527
G1 X88.044 Y83.785 E8.75918
G1 X88.82 Y83.188 E8.77872
G1 X90.65 Y81.831 E8.82418
G1 X91.195 Y81.439 E8.83758
G1 X92.211 Y80.796 E8.86157
G1 X93.176 Y80.263 E8.88357
G1 X94.934 Y79.329 E8.9233
G1 X95.672 Y78.951 E8.93985
G1 X96.747 Y78.478 E8.96328
G1 X97.824 Y78.078 E8.98621
G1 X99.862 Y77.362 E9.02932
G1 X100.436 Y77.169 E9.0414
G1 X101.593 Y76.854 E9.06533
G1 X102.537 Y76.656 E9.08458
G1 X104.691 Y76.243 E9.12835
G1 X105.44 Y76.11 E9.14353
G1 X106.63 Y75.971 E9.16744
G1 X107.615 Y75.915 E9.18713
G1 X109.937 Y75.823 E9.2335
G1 X110.535 Y75.808 E9.24544
G1 X111.728 Y75.848 E9.26926
G1 X112.892 Y75.957 E9.29259
G1 X114.884 Y76.178 E9.33259
G1 X115.631 Y76.271 E9.34761
G1 X116.814 Y76.49 E9.37162
G1 X117.903 Y76.76 E9.39401
G1 X119.834 Y77.275 E9.43389
G1 X120.589 Y77.486 E9.44954
G1 X121.73 Y77.88 E9.47363
G1 X122.796 Y78.322 E9.49666
G1 X124.737 Y79.166 E9.53889
G1 X125.326 Y79.432 E9.55179
G1 X126.377 Y79.982 E9.57546
G1 X127.23 Y80.494 E9.59532
G1 X129.154 Y81.697 E9.6406
G1 X129.702 Y82.05 E9.65361
G1 X130.685 Y82.77 E9.67792
G1 X131.545 Y83.484 E9.70023
G1 X133.059 Y84.782 E9.74003
G1 X133.66 Y85.311 E9.75601
G1 X134.51 Y86.155 E9.77991
G1 X135.251 Y86.985 E9.80211
G1 X136.644 Y88.6 E9.84468
G1 X137.06 Y89.094 E9.85756
G1 X137.789 Y90.072 E9.88191
G1 X138.318 Y90.879 E9.90116
G1 X139.541 Y92.816 E9.94688
G1 X139.877 Y93.365 E9.95972
G1 X140.444 Y94.429 E9.98378
G1 X140.943 Y95.517 E10.00767
G1 X141.755 Y97.372 E10.04808
G1 X142.024 Y98.009 E10.06188
G1 X142.427 Y99.148 E10.08599
G1 X142.701 Y100.097 E10.1057
G1 X143.257 Y102.152 E10.14819
G1 X143.455 Y102.925 E10.16411
G1 X143.683 Y104.106 E10.18811
G1 X143.831 Y105.236 E10.21086
G1 X144.067 Y107.305 E10.25241
G1 X144.135 Y107.98 E10.26595
G1 X144.184 Y109.184 E10.29
G1 X144.162 Y110.372 E10.31371
G1 X144.093 Y112.318 E10.35257
G1 X144.054 Y113.106 E10.36831
G1 X143.925 Y114.29 E10.39208
G1 X143.74 Y115.376 E10.41407
G1 X143.334 Y117.541 E10.45802
G1 X143.212 Y118.143 E10.47028
G1 X142.91 Y119.288 E10.49391
G1 X142.554 Y120.371 E10.51666
G1 X141.894 Y122.268 E10.55675
G1 X141.635 Y122.984 E10.57194
G1 X141.152 Y124.101 E10.59623
G1 X140.631 Y125.132 E10.61928
G1 X139.728 Y126.848 E10.65797
G1 X139.34 Y127.563 E10.67421
G1 X138.71 Y128.574 E10.69798
G1 X138.036 Y129.525 E10.72124
G1 X136.776 Y131.237 E10.76366
G1 X136.393 Y131.743 E10.77633
G1 X135.612 Y132.658 E10.80033
G1 X134.958 Y133.338 E10.81916
G1 X133.323 Y134.979 E10.86539
G1 X132.861 Y135.43 E10.87827
G1 X131.956 Y136.215 E10.90218
G1 X131.18 Y136.812 E10.92172
G1 X129.343 Y138.174 E10.96736
G1 X128.797 Y138.566 E10.98077
G1 X127.793 Y139.201 E11.00448
G1 X126.824 Y139.737 E11.02658
G1 X125.066 Y140.671 E11.0663
G1 X124.328 Y141.049 E11.08285
G1 X123.248 Y141.524 E11.10639
G1 X122.183 Y141.919 E11.12906
G1 X120.138 Y142.638 E11.17232
G1 X119.564 Y142.831 E11.18441
G1 X118.407 Y143.146 E11.20834
G1 X117.463 Y143.344 E11.22758
G1 X115.309 Y143.757 E11.27135
G1 X114.56 Y143.89 E11.28653
G1 X113.37 Y144.029 E11.31044
G1 X112.385 Y144.085 E11.33013
G1 X110.063 Y144.177 E11.37651
G1 X109.465 Y144.192 E11.38844
G1 X108.272 Y144.152 E11.41226
G1 X107.108 Y144.043 E11.43559
G1 X105.116 Y143.822 E11.47559
G1 X104.369 Y143.729 E11.49061
G1 X103.186 Y143.51 E11.51462
G1 X102.097 Y143.24 E11.53701
G1 X100.166 Y142.725 E11.57689
G1 X99.411 Y142.514 E11.59254
G1 X98.27 Y142.12 E11.61663
G1 X97.204 Y141.678 E11.63966
G1 X95.397 Y140.893 E11.67897
G1 X94.671 Y140.566 E11.69486
G1 X93.619 Y140.016 E11.71855
G1 X92.768 Y139.505 E11.73836
G1 X90.846 Y138.303 E11.7836
G1 X90.298 Y137.95 E11.79661
G1 X89.315 Y137.23 E11.82093
G1 X88.454 Y136.515 E11.84326
G1 X86.83 Y135.121 E11.88597
G1 X86.338 Y134.687 E11.89906
G1 X85.487 Y133.842 E11.923
G1 X84.749 Y133.015 E11.94512
G1 X83.356 Y131.4 E11.98768
G1 X82.94 Y130.906 E12.00057
G1 X82.211 Y129.928 E12.02491
G1 X81.682 Y129.121 E12.04416
G1 X80.53 Y127.298 E12.0872
G1 X80.121 Y126.631 E12.10281
G1 X79.556 Y125.571 E12.12678
G1 X79.057 Y124.483 E12.15067
G1 X78.246 Y122.63 E12.19104
G1 X77.976 Y121.991 E12.20488
G1 X77.571 Y120.846 E12.22912
G1 X77.298 Y119.899 E12.24878
G1 X76.706 Y117.707 E12.2941
G1 X76.545 Y117.075 E12.30711
G1 X76.317 Y115.894 E12.33111
G1 X76.169 Y114.764 E12.35386
G1 X75.933 Y112.695 E12.39541
G1 X75.865 Y112.02 E12.40895
G1 X75.816 Y110.816 E12.433
G1 X75.838 Y109.628 E12.45671
G1 X75.907 Y107.682 E12.49557
G1 X75.946 Y106.894 E12.51131
G1 X76.075 Y105.71 E12.53508
G1 X76.26 Y104.624 E12.55707
G1 X76.666 Y102.459 E12.60102
G1 X76.788 Y101.857 E12.61328
G1 X77.09 Y100.712 E12.63691
G1 X77.446 Y99.629 E12.65966
G1 X78.106 Y97.732 E12.69975
G1 X78.365 Y97.016 E12.71494
G1 X78.848 Y95.899 E12.73923
G1 X79.369 Y94.868 E12.76228
G1 X80.272 Y93.152 E12.80098
G1 X80.66 Y92.437 E12.81721
G1 X81.29 Y91.426 E12.84098
G1 X81.964 Y90.475 E12.86424
G1 X83.224 Y88.763 E12.90666
G1 X83.607 Y88.257 E12.91933
G1 X84.388 Y87.342 E12.94334
G1 X85.042 Y86.662 E12.96216
G1 X86.677 Y85.021 E13.00839
G1 F1500 E6.50839
;MESH:Cylinder-nested.stl
G0 F6000 X100.2 Y103.752
G0 X99.784 Y108.785
G0 X99.716 Y110.319
G0 X99.878 Y111.849
G0 X100.268 Y113.336
G0 X100.87 Y114.746
G0 X101.683 Y116.057
G0 X102.675 Y117.226
G0 X103.839 Y118.24
G0 X105.136 Y119.066
G0 X106.27 Y119.57
