;FLAVOR:Marlin
;TIME:6773
;Filament used: 3.30901m
;Layer height: 0.12
;MINX:84
;MINY:90.6
;MINZ:0.12
;MAXX:136
;MAXY:129.039
;MAXZ:30
;Generated with Cura_SteamEngine 5.2.1
M82 ;absolute extrusion mode
; Ender 3 Custom Start G-code
G92 E0 ; Reset Extruder
G28 ; Home all axes
M104 S175 ; Start heating up the nozzle most of the way
M190 S60 ; Start heating the bed, wait until target temperature reached
M109 S200 ; Finish heating the nozzle
G1 Z2.0 F3000 ; Move Z Axis up little to prevent scratching of Heat Bed
G1 X0.1 Y20 Z0.3 F5000.0 ; Move to start position
G1 X0.1 Y200.0 Z0.3 F1500.0 E15 ; Draw the first line
G1 X0.4 Y200.0 Z0.3 F5000.0 ; Move to side a little
G1 X0.4 Y20 Z0.3 F1500.0 E30 ; Draw the second line
G92 E0 ; Reset Extruder
G1 Z2.0 F3000 ; Move Z Axis up little to prevent scratching of Heat Bed
G1 X5 Y20 Z0.3 F5000.0 ; Move over to prevent blob squish
G92 E0
G92 E0
G1 F1500 E-6.5
;LAYER_COUNT:250
;LAYER:0
M107
G0 F6000 X87.209 Y93.844 Z0.12
;TYPE:SKIRT
G1 F1500 E0
G1 F1200 X87.898 Y93.207 E0.01873
G1 X88.639 Y92.632 E0.03744
G1 X89.426 Y92.122 E0.05616
G1 X90.253 Y91.681 E0.07486
G1 X91.115 Y91.312 E0.09357
G1 X92.006 Y91.017 E0.1123
G1 X92.918 Y90.8 E0.13101
G1 X93.846 Y90.661 E0.14974
G1 X95.18 Y90.6 E0.17639
G1 X96.063 Y90.618 E0.19401
G1 X97.811 Y90.701 E0.22893
G1 X101.732 Y90.783 E0.3072
G1 X118.218 Y90.784 E0.63619
G1 X120.844 Y90.747 E0.6886
G1 X122.687 Y90.676 E0.72541
G1 X123.687 Y90.627 E0.74539
G1 X124.128 Y90.614 E0.7542
G1 X124.89 Y90.607 E0.7694
G1 X125.827 Y90.639 E0.78811
G1 X126.759 Y90.75 E0.80684
G1 X127.677 Y90.94 E0.82555
G1 X128.576 Y91.208 E0.84427
G1 X129.449 Y91.551 E0.86299
G1 X130.289 Y91.967 E0.8817
G1 X131.091 Y92.453 E0.90041
G1 X131.849 Y93.006 E0.91913
G1 X132.556 Y93.622 E0.93785
G1 X133.209 Y94.295 E0.95656
G1 X133.802 Y95.022 E0.97528
G1 X134.331 Y95.796 E0.99399
G1 X134.792 Y96.613 E1.01271
G1 X135.182 Y97.466 E1.03143
G1 X135.497 Y98.349 E1.05014
G1 X135.737 Y99.256 E1.06886
G1 X135.898 Y100.18 E1.08758
G1 X135.987 Y101.298 E1.10996
G1 X136 Y101.927 E1.12252
G1 X135.999 Y106.456 E1.2129
G1 X135.992 Y106.927 E1.2223
G1 X135.998 Y110.137 E1.28636
G1 X135.992 Y112.635 E1.33621
G1 X136 Y113.403 E1.35153
G1 X135.999 Y117.43 E1.4319
G1 X135.99 Y118.146 E1.44619
G1 X135.938 Y119.083 E1.46491
G1 X135.807 Y120.011 E1.48362
G1 X135.597 Y120.925 E1.50233
G1 X135.31 Y121.818 E1.52105
G1 X134.948 Y122.683 E1.53976
G1 X134.513 Y123.515 E1.5585
G1 X134.01 Y124.306 E1.57721
G1 X133.441 Y125.051 E1.59591
G1 X132.81 Y125.745 E1.61463
G1 X132.122 Y126.383 E1.63336
G1 X131.383 Y126.96 E1.65207
G1 X130.597 Y127.472 E1.67079
G1 X129.771 Y127.915 E1.68949
G1 X128.909 Y128.286 E1.70822
G1 X128.02 Y128.583 E1.72692
G1 X127.108 Y128.802 E1.74564
G1 X126.181 Y128.943 E1.76435
G1 X125.557 Y128.993 E1.77685
G1 X124.792 Y129.026 E1.79213
G1 X123.844 Y129.039 E1.81105
G1 X95.608 Y129.036 E2.37453
G1 X94.717 Y129.016 E2.39231
G1 X93.782 Y128.951 E2.41102
G1 X92.855 Y128.806 E2.42974
G1 X91.944 Y128.584 E2.44845
G1 X91.055 Y128.284 E2.46718
G1 X90.195 Y127.909 E2.4859
G1 X89.371 Y127.463 E2.5046
G1 X88.587 Y126.948 E2.52332
G1 X87.849 Y126.369 E2.54204
G1 X87.164 Y125.728 E2.56076
G1 X86.536 Y125.032 E2.57946
G1 X85.97 Y124.284 E2.59818
G1 X85.469 Y123.491 E2.6169
G1 X85.038 Y122.658 E2.63562
G1 X84.679 Y121.792 E2.65433
G1 X84.395 Y120.898 E2.67305
G1 X84.189 Y119.983 E2.69176
G1 X84.061 Y119.054 E2.71048
G1 X84.013 Y118.193 E2.72769
G1 X84.001 Y117.431 E2.7429
G1 X84.001 Y113.44 E2.82254
G1 X84.008 Y112.96 E2.83212
G1 X84.001 Y110.041 E2.89037
G1 X84.009 Y107.376 E2.94355
G1 X84 Y106.505 E2.96094
G1 X84.001 Y102.107 E3.0487
G1 X84.011 Y101.435 E3.06212
G1 X84.065 Y100.499 E3.08083
G1 X84.199 Y99.571 E3.09954
G1 X84.411 Y98.657 E3.11826
G1 X84.7 Y97.765 E3.13697
G1 X85.064 Y96.901 E3.15568
G1 X85.5 Y96.07 E3.17441
G1 X86.006 Y95.28 E3.19313
G1 X86.577 Y94.536 E3.21185
G1 X87.209 Y93.844 E3.23055
G0 F6000 X87.601 Y94.019
G1 F1200 X88.286 Y93.404 E3.24892
G1 X89.023 Y92.852 E3.2673
G1 X89.804 Y92.365 E3.28566
G1 X90.625 Y91.948 E3.30404
G1 X91.479 Y91.604 E3.32241
G1 X92.36 Y91.336 E3.34079
G1 X93.26 Y91.144 E3.35916
G1 X94.174 Y91.032 E3.37753
G1 X95.174 Y91 E3.3975
G1 X95.756 Y91.009 E3.40911
G1 X97.255 Y91.07 E3.43905
G1 X97.81 Y91.101 E3.45015
G1 X101.723 Y91.183 E3.52825
G1 X118.224 Y91.184 E3.85755
G1 X120.866 Y91.147 E3.91028
G1 X122.72 Y91.076 E3.9473
G1 X123.707 Y91.027 E3.96702
G1 X124.132 Y91.014 E3.97551
G1 X124.894 Y91.007 E3.99071
G1 X125.814 Y91.039 E4.00909
G1 X126.728 Y91.15 E4.02746
G1 X127.628 Y91.34 E4.04582
G1 X128.509 Y91.608 E4.06419
G1 X129.364 Y91.951 E4.08258
G1 X130.185 Y92.367 E4.10094
G1 X130.967 Y92.852 E4.11931
G1 X131.704 Y93.404 E4.13768
G1 X132.391 Y94.017 E4.15606
G1 X133.022 Y94.688 E4.17444
G1 X133.592 Y95.411 E4.19281
G1 X134.097 Y96.181 E4.21119
G1 X134.533 Y96.991 E4.22954
G1 X134.898 Y97.837 E4.24793
G1 X135.188 Y98.711 E4.26631
G1 X135.4 Y99.606 E4.28466
G1 X135.535 Y100.517 E4.30304
G1 X135.587 Y101.309 E4.31888
G1 X135.6 Y101.927 E4.33122
G1 X135.599 Y106.451 E4.4215
G1 X135.592 Y106.922 E4.4309
G1 X135.598 Y110.136 E4.49504
G1 X135.592 Y112.634 E4.54489
G1 X135.6 Y113.403 E4.56023
G1 X135.599 Y117.425 E4.6405
G1 X135.59 Y118.141 E4.65479
G1 X135.539 Y119.06 E4.67316
G1 X135.408 Y119.972 E4.69154
G1 X135.198 Y120.868 E4.70991
G1 X134.911 Y121.743 E4.72828
G1 X134.55 Y122.59 E4.74666
G1 X134.116 Y123.402 E4.76503
G1 X133.614 Y124.173 E4.78339
G1 X133.046 Y124.898 E4.80177
G1 X132.418 Y125.571 E4.82014
G1 X131.734 Y126.187 E4.83851
G1 X130.998 Y126.741 E4.85689
G1 X130.218 Y127.23 E4.87527
G1 X129.398 Y127.648 E4.89363
G1 X128.545 Y127.995 E4.91201
G1 X127.665 Y128.265 E4.93038
G1 X126.765 Y128.459 E4.94875
G1 X125.536 Y128.594 E4.97343
G1 X124.786 Y128.626 E4.98841
G1 X123.844 Y128.639 E5.00721
G1 X95.608 Y128.636 E5.57069
G1 X94.728 Y128.616 E5.58825
G1 X93.81 Y128.552 E5.60662
G1 X92.9 Y128.408 E5.625
G1 X92.007 Y128.185 E5.64337
G1 X91.136 Y127.886 E5.66175
G1 X90.295 Y127.512 E5.68012
G1 X89.489 Y127.067 E5.69849
G1 X88.725 Y126.554 E5.71685
G1 X88.008 Y125.976 E5.73523
G1 X87.344 Y125.338 E5.75361
G1 X86.738 Y124.645 E5.77198
G1 X86.194 Y123.903 E5.79034
G1 X85.717 Y123.115 E5.80872
G1 X85.31 Y122.289 E5.8271
G1 X84.976 Y121.431 E5.84547
G1 X84.718 Y120.548 E5.86383
G1 X84.537 Y119.645 E5.88221
G1 X84.436 Y118.73 E5.90058
G1 X84.413 Y118.187 E5.91143
G1 X84.401 Y117.425 E5.92664
G1 X84.401 Y113.445 E6.00606
G1 X84.408 Y112.964 E6.01566
G1 X84.401 Y110.043 E6.07395
G1 X84.409 Y107.345 E6.12779
G1 X84.4 Y106.505 E6.14456
G1 X84.401 Y102.113 E6.23221
G1 X84.411 Y101.441 E6.24562
G1 X84.465 Y100.522 E6.26399
G1 X84.598 Y99.611 E6.28236
G1 X84.81 Y98.715 E6.30074
G1 X85.099 Y97.841 E6.31911
G1 X85.462 Y96.995 E6.33748
G1 X85.897 Y96.184 E6.35584
G1 X86.402 Y95.414 E6.37422
G1 X86.971 Y94.69 E6.3926
G1 X87.601 Y94.019 E6.41096
G0 F6000 X87.992 Y94.197
G1 F1200 X88.674 Y93.605 E6.42899
G1 X89.406 Y93.076 E6.44701
G1 X90.182 Y92.614 E6.46503
G1 X90.995 Y92.222 E6.48304
G1 X91.841 Y91.904 E6.50108
G1 X92.711 Y91.662 E6.5191
G1 X93.599 Y91.497 E6.53712
G1 X94.498 Y91.412 E6.55515
G1 X95.168 Y91.4 E6.56852
G1 X96.029 Y91.417 E6.5857
G1 X97.778 Y91.5 E6.62065
G1 X101.715 Y91.583 E6.69923
G1 X118.23 Y91.584 E7.02881
G1 X120.845 Y91.547 E7.081
G1 X122.758 Y91.474 E7.1192
G1 X123.727 Y91.426 E7.13856
G1 X124.135 Y91.414 E7.14671
G1 X124.897 Y91.407 E7.16191
G1 X125.8 Y91.439 E7.17994
G1 X126.696 Y91.551 E7.19796
G1 X127.579 Y91.741 E7.21599
G1 X128.441 Y92.008 E7.234
G1 X129.277 Y92.351 E7.25203
G1 X130.079 Y92.767 E7.27006
G1 X130.841 Y93.251 E7.28807
G1 X131.557 Y93.801 E7.30609
G1 X132.222 Y94.413 E7.32413
G1 X132.83 Y95.081 E7.34215
G1 X133.376 Y95.8 E7.36017
G1 X133.857 Y96.564 E7.37819
G1 X134.268 Y97.368 E7.39621
G1 X134.607 Y98.205 E7.41423
G1 X134.87 Y99.069 E7.43225
G1 X135.056 Y99.953 E7.45028
G1 X135.163 Y100.85 E7.46831
G1 X135.187 Y101.32 E7.4777
G1 X135.2 Y101.927 E7.48981
G1 X135.199 Y106.445 E7.57997
G1 X135.192 Y106.917 E7.5894
G1 X135.198 Y110.135 E7.65361
G1 X135.192 Y112.633 E7.70346
G1 X135.2 Y113.403 E7.71883
G1 X135.199 Y117.42 E7.79899
G1 X135.19 Y118.136 E7.81328
G1 X135.139 Y119.038 E7.83131
G1 X135.008 Y119.931 E7.84933
G1 X134.799 Y120.81 E7.86736
G1 X134.512 Y121.666 E7.88537
G1 X134.151 Y122.494 E7.9034
G1 X133.719 Y123.287 E7.92142
G1 X133.218 Y124.038 E7.93944
G1 X132.652 Y124.742 E7.95746
G1 X132.026 Y125.394 E7.9755
G1 X131.345 Y125.987 E7.99352
G1 X130.615 Y126.518 E8.01153
G1 X129.84 Y126.982 E8.02956
G1 X129.027 Y127.375 E8.04758
G1 X128.183 Y127.696 E8.0656
G1 X127.313 Y127.94 E8.08363
G1 X126.426 Y128.107 E8.10164
G1 X125.516 Y128.195 E8.11989
G1 X124.78 Y128.226 E8.13459
G1 X123.844 Y128.239 E8.15327
G1 X95.608 Y128.236 E8.71675
G1 X94.739 Y128.216 E8.7341
G1 X93.838 Y128.152 E8.75212
G1 X92.946 Y128.009 E8.77015
G1 X92.071 Y127.787 E8.78817
G1 X91.218 Y127.488 E8.8062
G1 X90.396 Y127.116 E8.82421
G1 X89.609 Y126.672 E8.84224
G1 X88.865 Y126.16 E8.86026
G1 X88.169 Y125.584 E8.87829
G1 X87.527 Y124.949 E8.89631
G1 X86.944 Y124.26 E8.91433
G1 X86.423 Y123.522 E8.93235
G1 X85.97 Y122.741 E8.95037
G1 X85.588 Y121.923 E8.96839
G1 X85.28 Y121.074 E8.98641
G1 X85.048 Y120.201 E9.00444
G1 X84.894 Y119.311 E9.02246
G1 X84.813 Y118.181 E9.04507
G1 X84.801 Y117.419 E9.06028
G1 X84.801 Y113.451 E9.13946
G1 X84.808 Y112.969 E9.14908
G1 X84.801 Y110.044 E9.20746
G1 X84.809 Y107.346 E9.2613
G1 X84.8 Y106.505 E9.27808
G1 X84.801 Y102.119 E9.36561
G1 X84.811 Y101.447 E9.37902
G1 X84.865 Y100.546 E9.39703
G1 X84.997 Y99.652 E9.41507
G1 X85.209 Y98.774 E9.43309
G1 X85.497 Y97.919 E9.4511
G1 X85.86 Y97.092 E9.46912
G1 X86.295 Y96.3 E9.48715
G1 X86.797 Y95.55 E9.50516
G1 X87.365 Y94.847 E9.5232
G1 X87.992 Y94.197 E9.54122
G1 F1500 E3.04122
G0 F6000 X95.6 Y102.298
G1 F1500 E9.54122
G1 F1200 X95.947 Y102.383 E9.54835
G1 X124.012 Y102.384 E10.10842
G1 X124.293 Y102.314 E10.1142
G1 X124.4 Y102.257 E10.11662
G1 X124.4 Y103.035 E10.13214
G1 X123.422 Y103.013 E10.15167
G1 X96.565 Y103.014 E10.68763
G1 X95.6 Y103.035 E10.70689
G1 X95.6 Y102.298 E10.7216
G0 F6000 X95.898 Y101.983
G1 F1200 X124.063 Y101.984 E11.28366
G1 X124.416 Y101.797 E11.29163
G1 X124.8 Y101.797 E11.29929
G1 X124.8 Y103.444 E11.33216
G1 X123.422 Y103.413 E11.35967
G1 X96.574 Y103.414 E11.89545
G1 X95.2 Y103.444 E11.92287
G1 X95.2 Y101.798 E11.95572
G1 X95.544 Y101.798 E11.96259
G1 X95.898 Y101.983 E11.97056
G1 F1500 E5.47056
G0 F6000 X94.347 Y103.011
G0 X94.347 Y116.949
G0 X95.191 Y116.981
G0 X95.2 Y116.516
G1 F1500 E11.97056
G1 F1200 X97.893 Y116.575 E12.02431
G1 X122.112 Y116.574 E12.50763
G1 X124.8 Y116.515 E12.56128
G1 X124.8 Y117.834 E12.58761
G1 X95.699 Y117.838 E13.16835
G1 X95.2 Y117.832 E13.17831
G1 X95.2 Y116.516 E13.20457
G0 F6000 X95.6 Y116.925
G1 F1200 X97.893 Y116.975 E13.25034
G1 X122.121 Y116.974 E13.73384
G1 X124.4 Y116.924 E13.77933
G1 X124.4 Y117.439 E13.7896
G1 X95.6 Y117.437 E14.36434
G1 X95.6 Y116.925 E14.37456
G1 F1500 E7.87456
G0 F6000 X95.6 Y116.99
G0 X94.347 Y116.949
G0 X94.335 Y113.098
G0 X95.2 Y113.098
;TYPE:SUPPORT-INTERFACE
G1 F1500 E14.37456
G1 F1200 X96.31 Y113.136 E14.39672
G1 X123.691 Y113.135 E14.94314
G1 X124.8 Y113.098 E14.96528
G1 X124.8 Y116.115 E15.02549
G1 X122.104 Y116.174 E15.0793
G1 X97.897 Y116.175 E15.56238
G1 X95.2 Y116.115 E15.61621
G1 X95.2 Y113.098 E15.67642
G1 F1500 E9.17642
G0 F6000 X95.229 Y112.234
G0 X94.346 Y111.26
G0 X94.346 Y108.783
G0 X95.228 Y107.712
G0 X95.2 Y106.847
G1 F1500 E15.67642
G1 F1200 X95.2 Y103.845 E15.73633
G1 X96.582 Y103.814 E15.76392
G1 X123.417 Y103.813 E16.29944
G1 X124.8 Y103.845 E16.32704
G1 X124.8 Y106.847 E16.38695
G1 X124.486 Y106.836 E16.39322
G1 X95.513 Y106.837 E16.97141
G1 X95.2 Y106.847 E16.97766
G0 F6000 X96.456 Y106.638
G1 F1200 X95.4 Y105.582 E17.00746
G0 F6000 X95.4 Y104.852
G1 F1200 X96.231 Y104.021 E17.03092
G0 F6000 X97.225 Y104.013
G1 F1200 X99.85 Y106.638 E17.105
G0 F6000 X100.401 Y106.639
G1 F1200 X103.028 Y104.012 E17.17914
G0 F6000 X104.013 Y104.013
G1 F1200 X106.638 Y106.638 E17.25322
G0 F6000 X107.189 Y106.639
G1 F1200 X109.816 Y104.012 E17.32736
G0 F6000 X110.801 Y104.013
G1 F1200 X113.427 Y106.639 E17.40147
G0 F6000 X113.977 Y106.64
G1 F1200 X116.604 Y104.012 E17.47563
G0 F6000 X117.589 Y104.013
G1 F1200 X120.215 Y106.639 E17.54974
G0 F6000 X120.765 Y106.64
G1 F1200 X123.392 Y104.012 E17.62389
G0 F6000 X124.399 Y104.035
G1 F1200 X124.599 Y104.234 E17.62952
G0 F6000 X124.599 Y106.2
G1 F1200 X124.159 Y106.64 E17.64194
G0 F6000 X123.61 Y106.639
G1 F1200 X120.983 Y104.013 E17.71606
G0 F6000 X119.998 Y104.012
G1 F1200 X117.371 Y106.64 E17.79022
G0 F6000 X116.821 Y106.639
G1 F1200 X114.195 Y104.013 E17.86433
G0 F6000 X113.21 Y104.012
G1 F1200 X110.583 Y106.64 E17.93848
G0 F6000 X110.033 Y106.639
G1 F1200 X107.407 Y104.013 E18.0126
G0 F6000 X106.422 Y104.012
G1 F1200 X103.795 Y106.639 E18.08673
G0 F6000 X103.244 Y106.638
G1 F1200 X100.619 Y104.013 E18.16082
G0 F6000 X99.634 Y104.012
G1 F1200 X97.007 Y106.639 E18.23496
G1 F1500 E11.73496
G0 F6000 X97.008 Y107.701
G0 X94.346 Y108.783
G0 X94.346 Y111.26
G0 X97.098 Y112.271
G0 X97.099 Y113.335
G1 F1500 E18.23496
G1 F1200 X95.4 Y115.034 E18.28291
G0 F6000 X95.4 Y115.764
G1 F1200 X95.556 Y115.921 E18.28732
G0 F6000 X97.855 Y115.973
G1 F1200 X100.494 Y113.335 E18.36179
G0 F6000 X99.758 Y113.335
G1 F1200 X102.397 Y115.973 E18.43625
G0 F6000 X101.248 Y115.974
G1 F1200 X103.888 Y113.335 E18.51074
G0 F6000 X103.152 Y113.335
G1 F1200 X105.791 Y115.973 E18.58521
G0 F6000 X104.642 Y115.974
G1 F1200 X107.282 Y113.335 E18.6597
G0 F6000 X106.546 Y113.335
G1 F1200 X109.185 Y115.973 E18.73417
G0 F6000 X108.036 Y115.974
G1 F1200 X110.676 Y113.335 E18.80866
G0 F6000 X109.94 Y113.335
G1 F1200 X112.579 Y115.973 E18.88312
G0 F6000 X111.43 Y115.974
G1 F1200 X114.07 Y113.335 E18.95761
G0 F6000 X113.335 Y113.335
G1 F1200 X115.973 Y115.973 E19.03206
G0 F6000 X114.824 Y115.974
G1 F1200 X117.464 Y113.335 E19.10656
G0 F6000 X116.729 Y113.335
G1 F1200 X119.368 Y115.973 E19.18102
G0 F6000 X118.219 Y115.974
G1 F1200 X120.858 Y113.335 E19.2555
G0 F6000 X120.123 Y113.335
G1 F1200 X122.747 Y115.959 E19.32955
G0 F6000 X121.613 Y115.974
G1 F1200 X124.271 Y113.315 E19.40458
G0 F6000 X123.517 Y113.335
G1 F1200 X124.599 Y114.416 E19.4351
G1 F1500 E12.9351
G0 F6000 X125.665 Y114.416
G0 X125.653 Y116.95
G0 X123.648 Y116.999
G0 X99.004 Y117.039
G0 X99.003 Y115.973
G1 F1500 E19.4351
G1 F1200 X96.364 Y113.335 E19.50957
G1 F1500 E13.00957
;MESH:a3-Cylinder.stl
G0 F6000 X96.363 Y112.271
G0 X96.535 Y111.469
G0 X96.631 Y110.391
G0 X102.509 Y110.287
;TYPE:WALL-INNER
G1 F1500 E19.50957
G1 F954.3 X117.503 Y110.287 E19.88584
G1 F987.7 X118.242 Y110.236 E19.9038
G1 F1023.5 X120.751 Y110.008 E19.96275
G1 X118.232 Y109.767 E20.02196
G1 F987.7 X117.481 Y109.784 E20.04017
G1 F954.3 X102.52 Y109.783 E20.41562
G1 F987.7 X101.778 Y109.767 E20.43361
G1 F1021.3 X99.253 Y110.008 E20.49309
G1 X101.757 Y110.235 E20.55204
G1 F987.7 X102.509 Y110.287 E20.57032
G0 F6000 X102.489 Y110.738
G1 F1200 X117.512 Y110.739 E20.87012
G1 X124.4 Y110.113 E21.00814
G1 X124.4 Y109.923 E21.01194
G1 X118.253 Y109.333 E21.13517
G1 X101.746 Y109.333 E21.46459
G1 X95.601 Y109.923 E21.58778
G1 X95.601 Y110.018 E21.58967
G1 X95.601 Y110.114 E21.59159
G1 X102.489 Y110.738 E21.72961
G0 F6000 X102.471 Y111.138
;TYPE:WALL-OUTER
G1 F1200 X117.53 Y111.139 E22.03013
G1 X124.8 Y110.479 E22.17581
G1 X124.8 Y109.559 E22.19417
G1 X118.272 Y108.933 E22.32504
G1 X101.727 Y108.933 E22.65521
G1 X95.201 Y109.559 E22.78604
G1 X95.201 Y110.018 E22.7952
G1 X95.201 Y110.48 E22.80442
G1 X102.471 Y111.138 E22.9501
M104 S200
G0 F6000 X102.518 Y110.139
G1 F1500 E16.4501
;MESH:NONMESH
G0 F300 X102.518 Y110.139 Z0.24
G0 F6000 X95.849 Y109.697
G0 X95.748 Y108.639
G0 X94.348 Y107.728
G0 X94.347 Y103.011
G0 X95.081 Y101.679
;TIME_ELAPSED:74.186543
;LAYER:1
M106 S85
;TYPE:SUPPORT
G1 F1500 E22.9501
G1 F1350 X95.08 Y103.342 E22.98328
G1 X97.987 Y103.279 E23.04131
G1 X122.017 Y103.278 E23.52085
G1 X124.92 Y103.342 E23.5788
G1 X124.92 Y101.677 E23.61203
G1 X124.386 Y101.677 E23.62268
G1 X124.042 Y101.86 E23.63046
