;FLAVOR:Marlin
;TIME:3023
;Filament used: 1.75408m
;Layer height: 0.2
;MINX:91.375
;MINY:95.26
;MINZ:0.2
;MAXX:148.112
;MAXY:152.108
;MAXZ:31
;Generated with Cura_SteamEngine 5.2.1
M82 ;absolute extrusion mode
; Ender 3 Custom Start G-code
G92 E0 ; Reset Extruder
G28 ; Home all axes
M104 S175 ; Start heating up the nozzle most of the way
M190 S60 ; Start heating the bed, wait until target temperature reached
M109 S200 ; Finish heating the nozzle
G1 Z2.0 F3000 ; Move Z Axis up little to prevent scratching of Heat Bed
G1 X0.1 Y20 Z0.3 F5000.0 ; Move to start position
G1 X0.1 Y200.0 Z0.3 F1500.0 E15 ; Draw the first line
G1 X0.4 Y200.0 Z0.3 F5000.0 ; Move to side a little
G1 X0.4 Y20 Z0.3 F1500.0 E30 ; Draw the second line
G92 E0 ; Reset Extruder
G1 Z2.0 F3000 ; Move Z Axis up little to prevent scratching of Heat Bed
G1 X5 Y20 Z0.3 F5000.0 ; Move over to prevent blob squish
G92 E0
G92 E0
G1 F1500 E-6.5
;LAYER_COUNT:155
;LAYER:0
M107
G0 F6000 X95.783 Y98.515 Z0.2
;TYPE:SKIRT
G1 F1500 E0
G1 F1200 X96.471 Y97.879 E0.03116
G1 X97.212 Y97.303 E0.06238
G1 X97.999 Y96.793 E0.09357
G1 X98.826 Y96.352 E0.12474
G1 X99.688 Y95.982 E0.15594
G1 X100.579 Y95.688 E0.18715
G1 X101.491 Y95.47 E0.21834
G1 X102.419 Y95.331 E0.24955
G1 X103.297 Y95.273 E0.27881
G1 X103.96 Y95.26 E0.30087
G1 X107.926 Y95.271 E0.43278
G1 X108.477 Y95.28 E0.45111
G1 X110.789 Y95.271 E0.528
G1 X111.151 Y95.285 E0.54005
G1 X113.928 Y95.288 E0.63242
G1 X114.477 Y95.297 E0.65068
G1 X116.789 Y95.288 E0.72758
G1 X117.151 Y95.302 E0.73963
G1 X119.928 Y95.305 E0.83199
G1 X120.477 Y95.314 E0.85025
G1 X122.789 Y95.305 E0.92715
G1 X123.151 Y95.319 E0.9392
G1 X125.915 Y95.322 E1.03113
G1 X126.485 Y95.331 E1.05009
G1 X129.172 Y95.34 E1.13946
G1 X129.948 Y95.334 E1.16527
G1 X131.893 Y95.339 E1.22996
G1 X132.781 Y95.354 E1.2595
G1 X133.717 Y95.411 E1.29069
G1 X134.645 Y95.547 E1.32189
G1 X135.558 Y95.762 E1.35308
G1 X136.449 Y96.054 E1.38427
G1 X137.312 Y96.421 E1.41546
G1 X138.141 Y96.86 E1.44666
G1 X139.134 Y97.517 E1.48626
G1 X139.777 Y97.995 E1.51291
G1 X140.874 Y98.835 E1.55887
G1 X143.512 Y100.726 E1.66682
G1 X144.25 Y101.304 E1.698
G1 X144.936 Y101.943 E1.72918
G1 X145.566 Y102.639 E1.7604
G1 X146.133 Y103.385 E1.79157
G1 X146.635 Y104.178 E1.82279
G1 X147.068 Y105.01 E1.85398
G1 X147.429 Y105.875 E1.88516
G1 X147.714 Y106.769 E1.91636
G1 X147.922 Y107.683 E1.94754
G1 X148.052 Y108.612 E1.97874
G1 X148.097 Y109.321 E2.00237
G1 X148.112 Y109.985 E2.02446
G1 X148.111 Y112.08 E2.09414
G1 X148.104 Y112.568 E2.11037
G1 X148.104 Y115.258 E2.19984
G1 X148.112 Y115.972 E2.22359
G1 X148.111 Y118.08 E2.2937
G1 X148.104 Y118.568 E2.30994
G1 X148.104 Y121.258 E2.39941
G1 X148.112 Y121.972 E2.42316
G1 X148.111 Y124.08 E2.49327
G1 X148.104 Y124.568 E2.5095
G1 X148.104 Y127.258 E2.59897
G1 X148.112 Y127.972 E2.62272
G1 X148.111 Y130.08 E2.69283
G1 X148.104 Y130.568 E2.70907
G1 X148.104 Y133.258 E2.79854
G1 X148.112 Y133.972 E2.82228
G1 X148.111 Y136.108 E2.89333
G1 X148.101 Y136.811 E2.91671
G1 X148.048 Y137.748 E2.94793
G1 X147.915 Y138.676 E2.97911
G1 X147.703 Y139.59 E3.01031
G1 X147.415 Y140.482 E3.04149
G1 X147.051 Y141.347 E3.0727
G1 X146.554 Y142.282 E3.10792
G1 X145.251 Y144.471 E3.19265
G1 X144.123 Y146.481 E3.26931
G1 X143.63 Y147.278 E3.30048
G1 X143.07 Y148.031 E3.33169
G1 X142.448 Y148.733 E3.36289
G1 X141.769 Y149.38 E3.39408
G1 X141.037 Y149.967 E3.42529
G1 X140.258 Y150.489 E3.45648
G1 X139.438 Y150.943 E3.48765
G1 X138.581 Y151.325 E3.51886
G1 X137.695 Y151.633 E3.55006
G1 X136.786 Y151.864 E3.58125
G1 X135.861 Y152.017 E3.61244
G1 X134.869 Y152.093 E3.64553
G1 X134.206 Y152.108 E3.66759
G1 X132.115 Y152.107 E3.73713
G1 X131.627 Y152.1 E3.75337
G1 X128.937 Y152.1 E3.84284
G1 X128.223 Y152.108 E3.86658
G1 X126.115 Y152.107 E3.9367
G1 X125.627 Y152.1 E3.95293
G1 X122.937 Y152.1 E4.0424
G1 X122.223 Y152.108 E4.06615
G1 X120.115 Y152.107 E4.13626
G1 X119.627 Y152.1 E4.15249
G1 X116.937 Y152.1 E4.24196
G1 X116.223 Y152.108 E4.26571
G1 X114.115 Y152.107 E4.33582
G1 X113.627 Y152.1 E4.35206
G1 X110.937 Y152.1 E4.44153
G1 X110.223 Y152.108 E4.46528
G1 X108.086 Y152.107 E4.53635
G1 X107.385 Y152.097 E4.55967
G1 X106.449 Y152.044 E4.59085
G1 X105.52 Y151.911 E4.62207
G1 X104.475 Y151.662 E4.6578
G1 X101.92 Y150.92 E4.74629
G1 X99.596 Y150.311 E4.82619
G1 X98.699 Y150.035 E4.85741
G1 X97.83 Y149.684 E4.88858
G1 X96.994 Y149.259 E4.91977
G1 X96.196 Y148.765 E4.95099
G1 X95.444 Y148.205 E4.98217
G1 X94.743 Y147.583 E5.01334
G1 X94.096 Y146.903 E5.04456
G1 X93.511 Y146.17 E5.07575
G1 X92.989 Y145.391 E5.10694
G1 X92.536 Y144.57 E5.13813
G1 X92.155 Y143.713 E5.16932
G1 X91.847 Y142.827 E5.20052
G1 X91.617 Y141.918 E5.23171
G1 X91.465 Y140.992 E5.26292
G1 X91.39 Y140.006 E5.29581
G1 X91.375 Y139.343 E5.31787
G1 X91.376 Y137.269 E5.38685
G1 X91.383 Y136.793 E5.40268
G1 X91.376 Y131.277 E5.58614
G1 X91.383 Y130.801 E5.60198
G1 X91.376 Y125.288 E5.78534
G1 X91.383 Y124.812 E5.80117
G1 X91.376 Y119.298 E5.98457
G1 X91.383 Y118.812 E6.00074
G1 X91.383 Y116.122 E6.09021
G1 X91.375 Y115.392 E6.11449
G1 X91.384 Y109.217 E6.31987
G1 X91.398 Y108.529 E6.34276
G1 X91.457 Y107.593 E6.37395
G1 X91.596 Y106.666 E6.40513
G1 X91.813 Y105.753 E6.43634
G1 X92.107 Y104.863 E6.46751
G1 X92.441 Y104.073 E6.49604
G1 X92.772 Y103.369 E6.52192
G1 X93.293 Y102.304 E6.56135
G1 X93.638 Y101.573 E6.58823
G1 X94.074 Y100.742 E6.61945
G1 X94.58 Y99.952 E6.65065
G1 X95.15 Y99.208 E6.68182
G1 X95.783 Y98.515 E6.71304
G0 F6000 X96.114 Y98.749
G1 F1200 X96.795 Y98.129 E6.74367
G1 X97.527 Y97.571 E6.77429
G1 X98.304 Y97.078 E6.80489
G1 X99.122 Y96.654 E6.83554
G1 X99.973 Y96.303 E6.86615
G1 X100.851 Y96.028 E6.89675
G1 X101.75 Y95.829 E6.92738
G1 X102.663 Y95.709 E6.95801
G1 X103.308 Y95.673 E6.97949
G1 X103.958 Y95.66 E7.00112
G1 X108.073 Y95.672 E7.13798
G1 X108.52 Y95.68 E7.15285
G1 X110.79 Y95.671 E7.22835
G1 X111.146 Y95.685 E7.2402
G1 X114.073 Y95.689 E7.33756
G1 X114.52 Y95.697 E7.35243
G1 X116.79 Y95.688 E7.42793
G1 X117.146 Y95.702 E7.43978
G1 X120.073 Y95.706 E7.53713
G1 X120.52 Y95.714 E7.552
G1 X122.79 Y95.705 E7.6275
G1 X123.146 Y95.719 E7.63935
G1 X125.913 Y95.722 E7.73138
G1 X126.477 Y95.731 E7.75014
G1 X129.174 Y95.74 E7.83984
G1 X129.947 Y95.734 E7.86555
G1 X131.892 Y95.739 E7.93025
G1 X132.773 Y95.754 E7.95955
G1 X133.692 Y95.81 E7.99018
G1 X134.603 Y95.947 E8.02082
G1 X135.498 Y96.161 E8.05142
G1 X136.371 Y96.453 E8.08204
G1 X137.216 Y96.819 E8.11267
G1 X138.026 Y97.257 E8.1433
G1 X138.896 Y97.838 E8.17809
G1 X139.407 Y98.217 E8.19925
G1 X140.628 Y99.15 E8.25036
G1 X143.279 Y101.051 E8.35886
G1 X144.003 Y101.619 E8.38947
G1 X144.675 Y102.248 E8.42008
G1 X145.29 Y102.933 E8.4507
G1 X145.843 Y103.669 E8.48132
G1 X146.331 Y104.45 E8.51195
G1 X146.748 Y105.271 E8.54258
G1 X147.093 Y106.125 E8.57321
G1 X147.363 Y107.005 E8.60383
G1 X147.555 Y107.905 E8.63443
G1 X147.668 Y108.819 E8.66506
G1 X147.697 Y109.334 E8.68222
G1 X147.712 Y109.985 E8.70388
G1 X147.711 Y112.074 E8.77336
G1 X147.704 Y112.562 E8.78959
G1 X147.704 Y115.263 E8.87943
G1 X147.712 Y115.972 E8.90301
G1 X147.711 Y118.074 E8.97292
G1 X147.704 Y118.562 E8.98916
G1 X147.704 Y121.263 E9.07899
G1 X147.712 Y121.972 E9.10257
G1 X147.711 Y124.074 E9.17249
G1 X147.704 Y124.562 E9.18872
G1 X147.704 Y127.263 E9.27856
G1 X147.712 Y127.972 E9.30214
G1 X147.711 Y130.074 E9.37205
G1 X147.704 Y130.562 E9.38828
G1 X147.704 Y133.263 E9.47812
G1 X147.712 Y133.972 E9.5017
G1 X147.711 Y136.103 E9.57258
G1 X147.701 Y136.806 E9.59596
G1 X147.648 Y137.725 E9.62658
G1 X147.515 Y138.636 E9.6572
G1 X147.304 Y139.532 E9.68782
G1 X147.016 Y140.406 E9.71843
G1 X146.653 Y141.253 E9.74907
G1 X146.21 Y142.077 E9.78019
G1 X144.908 Y144.264 E9.86485
G1 X143.774 Y146.285 E9.94192
G1 X143.289 Y147.068 E9.97256
G1 X142.738 Y147.805 E10.00316
G1 X142.125 Y148.492 E10.03379
G1 X141.455 Y149.123 E10.0644
G1 X140.732 Y149.694 E10.09504
G1 X139.963 Y150.2 E10.12566
G1 X139.153 Y150.637 E10.15627
G1 X138.308 Y151.002 E10.18688
G1 X137.434 Y151.292 E10.21751
G1 X136.539 Y151.506 E10.24812
G1 X135.628 Y151.641 E10.27875
G1 X134.857 Y151.693 E10.30445
G1 X134.206 Y151.708 E10.32611
G1 X132.121 Y151.707 E10.39546
G1 X131.633 Y151.7 E10.41169
G1 X128.932 Y151.7 E10.50152
G1 X128.223 Y151.708 E10.52511
G1 X126.121 Y151.707 E10.59502
G1 X125.633 Y151.7 E10.61125
G1 X122.932 Y151.7 E10.70109
G1 X122.223 Y151.708 E10.72467
G1 X120.121 Y151.707 E10.79458
G1 X119.633 Y151.7 E10.81082
G1 X116.932 Y151.7 E10.90065
G1 X116.223 Y151.708 E10.92423
G1 X114.121 Y151.707 E10.99415
G1 X113.633 Y151.7 E11.01038
G1 X110.932 Y151.7 E11.10022
G1 X110.223 Y151.708 E11.1238
G1 X108.092 Y151.707 E11.19468
G1 X107.391 Y151.697 E11.21799
G1 X106.472 Y151.644 E11.24861
G1 X105.561 Y151.511 E11.27923
G1 X104.587 Y151.278 E11.31254
G1 X102.063 Y150.545 E11.39996
G1 X99.697 Y149.925 E11.48131
G1 X98.818 Y149.653 E11.51191
G1 X97.965 Y149.305 E11.54255
G1 X97.146 Y148.886 E11.57315
G1 X96.366 Y148.396 E11.60379
G1 X95.631 Y147.841 E11.63442
G1 X94.948 Y147.224 E11.66503
G1 X94.321 Y146.55 E11.69565
G1 X93.754 Y145.825 E11.72626
G1 X93.253 Y145.052 E11.7569
G1 X92.82 Y144.24 E11.78751
G1 X92.46 Y143.392 E11.81815
G1 X92.174 Y142.517 E11.84877
G1 X91.966 Y141.62 E11.87939
G1 X91.836 Y140.709 E11.91
G1 X91.79 Y139.994 E11.93383
G1 X91.775 Y139.343 E11.95549
G1 X91.776 Y137.275 E12.02427
G1 X91.783 Y136.799 E12.0401
G1 X91.776 Y131.283 E12.22357
G1 X91.783 Y130.807 E12.2394
G1 X91.776 Y125.294 E12.42276
G1 X91.783 Y124.818 E12.4386
G1 X91.776 Y119.304 E12.62199
G1 X91.783 Y118.818 E12.63816
G1 X91.783 Y116.117 E12.728
G1 X91.775 Y115.393 E12.75208
G1 X91.784 Y109.225 E12.95723
G1 X91.798 Y108.537 E12.98011
G1 X91.857 Y107.619 E13.01071
G1 X91.995 Y106.708 E13.04136
G1 X92.212 Y105.814 E13.07195
G1 X92.505 Y104.941 E13.10258
G1 X92.803 Y104.243 E13.12782
G1 X93.134 Y103.539 E13.1537
G1 X93.657 Y102.47 E13.19328
G1 X94 Y101.743 E13.22002
G1 X94.429 Y100.929 E13.25062
G1 X94.926 Y100.154 E13.28124
G1 X95.49 Y99.426 E13.31187
G1 X96.114 Y98.749 E13.3425
G0 F6000 X96.445 Y98.985
G1 F1200 X97.117 Y98.382 E13.37253
G1 X97.84 Y97.841 E13.40256
G1 X98.608 Y97.365 E13.43261
G1 X99.415 Y96.96 E13.46264
G1 X100.255 Y96.628 E13.49268
G1 X101.121 Y96.371 E13.52273
G1 X102.006 Y96.192 E13.55276
G1 X103.318 Y96.072 E13.59658
G1 X103.957 Y96.06 E13.61784
G1 X108.067 Y96.072 E13.75454
G1 X108.515 Y96.08 E13.76944
G1 X110.792 Y96.071 E13.84517
G1 X111.142 Y96.085 E13.85682
G1 X114.067 Y96.089 E13.95411
G1 X114.515 Y96.097 E13.96901
G1 X116.792 Y96.088 E14.04475
G1 X117.142 Y96.102 E14.0564
G1 X120.067 Y96.106 E14.15368
G1 X120.515 Y96.114 E14.16859
G1 X122.792 Y96.105 E14.24432
G1 X123.142 Y96.119 E14.25597
G1 X125.912 Y96.122 E14.3481
G1 X126.469 Y96.131 E14.36663
G1 X129.176 Y96.14 E14.45666
G1 X129.946 Y96.134 E14.48228
G1 X131.891 Y96.139 E14.54697
G1 X132.766 Y96.154 E14.57607
G1 X133.668 Y96.21 E14.60613
G1 X134.56 Y96.346 E14.63614
G1 X135.438 Y96.56 E14.6662
G1 X136.293 Y96.851 E14.69624
G1 X137.118 Y97.217 E14.72626
G1 X137.909 Y97.654 E14.75632
G1 X138.657 Y98.159 E14.78633
G1 X139.29 Y98.63 E14.81258
G1 X140.386 Y99.469 E14.85848
G1 X143.046 Y101.376 E14.96734
G1 X143.756 Y101.934 E14.99738
G1 X144.413 Y102.553 E15.0274
G1 X145.014 Y103.227 E15.05743
G1 X145.552 Y103.953 E15.08749
G1 X146.024 Y104.722 E15.1175
G1 X146.427 Y105.531 E15.14756
G1 X146.756 Y106.372 E15.1776
G1 X147.009 Y107.239 E15.20764
G1 X147.185 Y108.125 E15.23768
G1 X147.297 Y109.346 E15.27846
G1 X147.312 Y109.985 E15.29972
G1 X147.311 Y112.068 E15.369
G1 X147.304 Y112.556 E15.38523
G1 X147.304 Y115.308 E15.47677
G1 X147.312 Y115.972 E15.49885
G1 X147.311 Y118.068 E15.56857
G1 X147.304 Y118.556 E15.5848
G1 X147.304 Y121.308 E15.67633
G1 X147.312 Y121.972 E15.69842
G1 X147.311 Y124.068 E15.76813
G1 X147.304 Y124.556 E15.78436
G1 X147.304 Y127.308 E15.87589
G1 X147.312 Y127.972 E15.89798
G1 X147.311 Y130.068 E15.96769
G1 X147.304 Y130.556 E15.98393
G1 X147.304 Y133.308 E16.07546
G1 X147.312 Y133.972 E16.09754
G1 X147.311 Y136.097 E16.16822
G1 X147.301 Y136.8 E16.19161
G1 X147.248 Y137.702 E16.22166
G1 X147.116 Y138.595 E16.25168
G1 X146.905 Y139.473 E16.28172
G1 X146.617 Y140.329 E16.31176
G1 X146.255 Y141.156 E16.34178
G1 X145.866 Y141.873 E16.36891
G1 X144.555 Y144.075 E16.45415
G1 X143.425 Y146.089 E16.53096
G1 X142.949 Y146.857 E16.56101
G1 X142.407 Y147.579 E16.59104
G1 X141.802 Y148.25 E16.62109
G1 X141.141 Y148.865 E16.65112
G1 X140.428 Y149.42 E16.68117
G1 X139.669 Y149.909 E16.7112
G1 X138.87 Y150.329 E16.74122
G1 X138.036 Y150.676 E16.77127
G1 X137.175 Y150.949 E16.80131
G1 X136.294 Y151.144 E16.83132
G1 X135.398 Y151.261 E16.86137
G1 X134.845 Y151.293 E16.8798
G1 X134.206 Y151.308 E16.90106
G1 X132.127 Y151.307 E16.9702
G1 X131.639 Y151.3 E16.98644
G1 X128.927 Y151.3 E17.07664
G1 X128.223 Y151.308 E17.10005
G1 X126.127 Y151.307 E17.16977
G1 X125.639 Y151.3 E17.186
G1 X122.927 Y151.3 E17.2762
G1 X122.223 Y151.308 E17.29962
G1 X120.127 Y151.307 E17.36933
G1 X119.639 Y151.3 E17.38556
G1 X116.927 Y151.3 E17.47577
G1 X116.223 Y151.308 E17.49918
G1 X114.127 Y151.307 E17.5689
G1 X113.639 Y151.3 E17.58513
G1 X110.927 Y151.3 E17.67533
G1 X110.223 Y151.308 E17.69875
G1 X108.098 Y151.307 E17.76942
G1 X107.397 Y151.297 E17.79274
G1 X106.495 Y151.244 E17.82279
G1 X105.602 Y151.112 E17.85282
G1 X104.698 Y150.894 E17.88375
G1 X102.151 Y150.155 E17.97195
G1 X99.799 Y149.538 E18.05283
G1 X98.936 Y149.27 E18.08289
G1 X98.1 Y148.927 E18.11294
G1 X97.298 Y148.512 E18.14297
G1 X96.536 Y148.028 E18.173
G1 X95.82 Y147.478 E18.20303
G1 X95.155 Y146.866 E18.23309
G1 X94.547 Y146.199 E18.26311
G1 X94.001 Y145.48 E18.29313
G1 X93.52 Y144.715 E18.32319
G1 X93.108 Y143.911 E18.35324
G1 X92.769 Y143.074 E18.38327
G1 X92.506 Y142.21 E18.41331
G1 X92.32 Y141.327 E18.44332
G1 X92.19 Y139.982 E18.48827
G1 X92.175 Y139.343 E18.50953
G1 X92.176 Y137.281 E18.57811
G1 X92.183 Y136.8 E18.59411
G1 X92.176 Y131.289 E18.7774
G1 X92.183 Y130.812 E18.79327
G1 X92.176 Y125.3 E18.9766
G1 X92.183 Y124.823 E18.99247
G1 X92.175 Y119.472 E19.17044
G1 X92.183 Y118.824 E19.192
G1 X92.183 Y116.074 E19.28346
G1 X92.175 Y115.393 E19.30611
G1 X92.184 Y109.233 E19.511
G1 X92.198 Y108.545 E19.53389
G1 X92.256 Y107.644 E19.56391
G1 X92.394 Y106.752 E19.59394
G1 X92.61 Y105.875 E19.62398
G1 X92.903 Y105.021 E19.65401
G1 X93.165 Y104.413 E19.67603
G1 X93.496 Y103.709 E19.7019
G1 X94.006 Y102.666 E19.74052
G1 X94.361 Y101.914 E19.76817
G1 X94.783 Y101.115 E19.79823
G1 X95.273 Y100.357 E19.82825
G1 X95.829 Y99.645 E19.85829
G1 X96.445 Y98.985 E19.88832
G1 F1500 E13.38832
;MESH:BOX-mesh.stl
G0 F6000 X103.995 Y105.595
G0 X103.827 Y107.01
;TYPE:WALL-OUTER
G1 F1500 E19.88832
G1 F961.9 X105.31 Y107.013 E19.94985
G1 F960 X105.312 Y106.514 E19.9706
G1 F961.9 X103.828 Y106.509 E20.03217
G1 X103.827 Y107.01 E20.05296
G1 F1500 E13.55296
G0 F6000 X104.047 Y106.79
G0 X105.142 Y106.789
G0 X106.001 Y106.795
G0 X105.831 Y107.015
G1 F1500 E20.05296
G1 F961.9 X108.331 Y107.023 E20.15669
G1 X108.333 Y106.522 E20.17748
G1 X105.833 Y106.515 E20.28121
G1 F960 X105.831 Y107.015 E20.302
G1 F1500 E13.802
G0 F6000 X106.052 Y106.795
G0 X108.162 Y106.791
G0 X109.247 Y106.794
G0 X110.916 Y106.809
G0 X111.831 Y107.032
G1 F1500 E20.302
G1 F961.9 X114.331 Y107.04 E20.40573
G1 X114.333 Y106.539 E20.42652
G1 X111.833 Y106.532 E20.53025
G1 F960 X111.831 Y107.032 E20.55104
G1 F1500 E14.05104
G0 F6000 X112.052 Y106.812
G0 X114.162 Y106.808
G0 X115.247 Y106.811
G0 X116.916 Y106.826
G0 X117.831 Y107.049
G1 F1500 E20.55104
G1 F961.9 X120.331 Y107.057 E20.65477
G1 X120.333 Y106.556 E20.67555
G1 X117.833 Y106.549 E20.77928
G1 F960 X117.831 Y107.049 E20.80007
G1 F1500 E14.30007
G0 F6000 X118.052 Y106.829
G0 X120.162 Y106.825
G0 X121.247 Y106.828
G0 X122.916 Y106.843
G0 X123.831 Y107.066
G1 F1500 E20.80007
G1 F961.9 X126.331 Y107.074 E20.9038
G1 X126.333 Y106.573 E20.92459
G1 X123.833 Y106.566 E21.02832
G1 F960 X123.831 Y107.066 E21.04911
G1 F1500 E14.54911
G0 F6000 X124.052 Y106.846
G0 X126.162 Y106.843
G0 X127.247 Y106.846
G0 X128.916 Y106.861
G0 X129.831 Y107.084
G1 F1500 E21.04911
G1 F961.9 X132.33 Y107.09 E21.1528
