;FLAVOR:Marlin
;TIME:4931
;Filament used: 4.47142m
;Layer height: 0.28
;MINX:34
;MINY:79
;MINZ:0.28
;MAXX:186
;MAXY:141
;MAXZ:5.04
;Generated with Cura_SteamEngine 5.2.1
M82 ;absolute extrusion mode
; Ender 3 Custom Start G-code
G92 E0 ; Reset Extruder
G28 ; Home all axes
M104 S175 ; Start heating up the nozzle most of the way
M190 S60 ; Start heating the bed, wait until target temperature reached
M109 S200 ; Finish heating the nozzle
G1 Z2.0 F3000 ; Move Z Axis up little to prevent scratching of Heat Bed
G1 X0.1 Y20 Z0.3 F5000.0 ; Move to start position
G1 X0.1 Y200.0 Z0.3 F1500.0 E15 ; Draw the first line
G1 X0.4 Y200.0 Z0.3 F5000.0 ; Move to side a little
G1 X0.4 Y20 Z0.3 F1500.0 E30 ; Draw the second line
G92 E0 ; Reset Extruder
G1 Z2.0 F3000 ; Move Z Axis up little to prevent scratching of Heat Bed
G1 X5 Y20 Z0.3 F5000.0 ; Move over to prevent blob squish
G92 E0
G92 E0
G1 F1500 E-6.5
;LAYER_COUNT:18
;LAYER:0
M107
G0 F6000 X44.091 Y80.17 Z0.28
;TYPE:SKIRT
G1 F1500 E0
G1 F1200 X44.947 Y79.787 E0.04367
G1 X45.832 Y79.478 E0.08732
G1 X46.741 Y79.246 E0.131
G1 X47.666 Y79.092 E0.17466
G1 X48.667 Y79.015 E0.22141
G1 X49.33 Y79 E0.25229
G1 X54.072 Y79.001 E0.4731
G1 X56.396 Y79.039 E0.58133
G1 X58.985 Y79.037 E0.70188
G1 X60.715 Y79 E0.78246
G1 X69.072 Y79.001 E1.1716
G1 X71.396 Y79.039 E1.27983
G1 X73.985 Y79.037 E1.40038
G1 X75.715 Y79 E1.48095
G1 X80.451 Y79.001 E1.70148
G1 X81.149 Y79.011 E1.73399
G1 X82.052 Y79.061 E1.7761
G1 X82.684 Y79.122 E1.80566
G1 X85.2 Y79.336 E1.92324
G1 X87.74 Y79.479 E2.0417
G1 X90.264 Y79.55 E2.15928
G1 X92.787 Y79.55 E2.27676
G1 X95.283 Y79.478 E2.39303
G1 X97.785 Y79.337 E2.50972
G1 X100.959 Y79.059 E2.65808
G1 X101.701 Y79.013 E2.6927
G1 X102.33 Y79 E2.72199
G1 X106.446 Y79.001 E2.91365
G1 X107.163 Y79.011 E2.94704
G1 X108.121 Y79.047 E2.99168
G1 X110.759 Y79.122 E3.11457
G1 X113.247 Y79.122 E3.23042
G1 X115.821 Y79.049 E3.35032
G1 X116.179 Y79.031 E3.36701
G1 X117.33 Y79 E3.42063
G1 X121.449 Y79.001 E3.61243
G1 X122.154 Y79.011 E3.64526
G1 X123.054 Y79.045 E3.6872
G1 X124.708 Y79.138 E3.76433
G1 X127.256 Y79.209 E3.88303
G1 X129.779 Y79.209 E4.00051
G1 X132.269 Y79.138 E4.1165
G1 X134.408 Y79.025 E4.21624
G1 X135.33 Y79 E4.25919
G1 X144.072 Y79.001 E4.66625
G1 X146.396 Y79.039 E4.77448
G1 X148.985 Y79.037 E4.89504
G1 X150.715 Y79 E4.97561
G1 X159.072 Y79.001 E5.36475
G1 X161.396 Y79.039 E5.47298
G1 X163.985 Y79.037 E5.59353
G1 X165.715 Y79 E5.67411
G1 X174.451 Y79.001 E6.08089
G1 X175.149 Y79.011 E6.1134
G1 X176.085 Y79.065 E6.15705
G1 X177.013 Y79.197 E6.2007
G1 X177.927 Y79.409 E6.24439
G1 X178.819 Y79.698 E6.28805
G1 X179.684 Y80.061 E6.33173
G1 X180.514 Y80.497 E6.37539
G1 X181.305 Y81.002 E6.41909
G1 X182.049 Y81.573 E6.46276
G1 X182.742 Y82.205 E6.50643
G1 X183.379 Y82.893 E6.55009
G1 X183.954 Y83.634 E6.59376
G1 X184.465 Y84.42 E6.63742
G1 X184.907 Y85.248 E6.68112
G1 X185.276 Y86.11 E6.72478
G1 X185.571 Y87 E6.76844
G1 X185.789 Y87.912 E6.8121
G1 X185.929 Y88.84 E6.8558
G1 X185.987 Y89.701 E6.89599
G1 X186 Y90.33 E6.92528
G1 X185.999 Y99.072 E7.33235
G1 X185.961 Y101.396 E7.44058
G1 X185.963 Y103.986 E7.56118
G1 X186 Y105.714 E7.64166
G1 X185.999 Y114.072 E8.03084
G1 X185.961 Y116.396 E8.13907
G1 X185.963 Y118.986 E8.25967
G1 X186 Y120.715 E8.3402
G1 X185.999 Y129.415 E8.74531
G1 X185.989 Y130.142 E8.77916
G1 X185.936 Y131.079 E8.82287
G1 X185.804 Y132.007 E8.86651
G1 X185.593 Y132.921 E8.91019
G1 X185.304 Y133.813 E8.95385
G1 X184.941 Y134.678 E8.99753
G1 X184.506 Y135.509 E9.04121
G1 X184.001 Y136.299 E9.08487
G1 X183.431 Y137.044 E9.12855
G1 X182.8 Y137.738 E9.17222
G1 X182.111 Y138.375 E9.21592
G1 X181.371 Y138.951 E9.25958
G1 X180.585 Y139.462 E9.30324
G1 X179.758 Y139.904 E9.3469
G1 X178.896 Y140.274 E9.39058
G1 X178.006 Y140.569 E9.43424
G1 X177.094 Y140.788 E9.47791
G1 X176.167 Y140.928 E9.52157
G1 X175.299 Y140.987 E9.56208
G1 X174.67 Y141 E9.59137
G1 X165.928 Y140.999 E9.99844
G1 X163.604 Y140.961 E10.10667
G1 X161.015 Y140.963 E10.22722
G1 X159.285 Y141 E10.3078
G1 X150.928 Y140.999 E10.69693
G1 X148.604 Y140.961 E10.80516
G1 X146.015 Y140.963 E10.92572
G1 X144.285 Y141 E11.00629
G1 X135.551 Y140.999 E11.41298
G1 X134.846 Y140.989 E11.44581
G1 X133.946 Y140.955 E11.48775
G1 X132.292 Y140.862 E11.56489
G1 X129.744 Y140.791 E11.68358
G1 X127.221 Y140.791 E11.80106
G1 X124.731 Y140.862 E11.91706
G1 X122.592 Y140.975 E12.0168
G1 X121.67 Y141 E12.05974
G1 X117.554 Y140.999 E12.2514
G1 X116.837 Y140.989 E12.28479
G1 X115.879 Y140.953 E12.32943
G1 X113.241 Y140.878 E12.45232
G1 X110.753 Y140.878 E12.56817
G1 X108.179 Y140.951 E12.68807
G1 X107.821 Y140.969 E12.70476
G1 X106.67 Y141 E12.75838
G1 X102.549 Y140.999 E12.95027
G1 X101.852 Y140.989 E12.98273
G1 X100.951 Y140.939 E13.02475
G1 X100.333 Y140.879 E13.05366
G1 X97.8 Y140.664 E13.17203
G1 X95.261 Y140.521 E13.29044
G1 X92.736 Y140.45 E13.40807
G1 X90.212 Y140.45 E13.52559
G1 X87.717 Y140.522 E13.64182
G1 X85.214 Y140.663 E13.75855
G1 X82.044 Y140.94 E13.90673
G1 X81.299 Y140.987 E13.94149
G1 X80.67 Y141 E13.97078
G1 X75.928 Y140.999 E14.19159
G1 X73.604 Y140.961 E14.29982
G1 X71.015 Y140.963 E14.42037
G1 X69.285 Y141 E14.50095
G1 X60.928 Y140.999 E14.89008
G1 X58.604 Y140.961 E14.99831
G1 X56.015 Y140.963 E15.11887
G1 X54.285 Y141 E15.19944
G1 X49.55 Y140.999 E15.41992
G1 X48.851 Y140.989 E15.45248
G1 X47.914 Y140.935 E15.49618
G1 X46.986 Y140.803 E15.53982
G1 X46.072 Y140.591 E15.58351
G1 X45.18 Y140.302 E15.62718
G1 X44.315 Y139.939 E15.67086
G1 X43.485 Y139.503 E15.71451
G1 X42.695 Y138.998 E15.75817
G1 X41.95 Y138.427 E15.80188
G1 X41.257 Y137.795 E15.84555
G1 X40.62 Y137.107 E15.88921
G1 X40.045 Y136.366 E15.93289
G1 X39.534 Y135.58 E15.97654
G1 X39.092 Y134.752 E16.02024
G1 X38.664 Y133.733 E16.07171
G1 X37.483 Y130.469 E16.23334
G1 X36.559 Y128.131 E16.3504
G1 X35.297 Y125.213 E16.49843
G1 X34.985 Y124.523 E16.5337
G1 X34.635 Y123.653 E16.57736
G1 X34.361 Y122.756 E16.62104
G1 X34.165 Y121.839 E16.6647
G1 X34.047 Y120.908 E16.7084
G1 X34.013 Y120.299 E16.7368
G1 X34 Y119.67 E16.76609
G1 X34.001 Y115.953 E16.93917
G1 X34.02 Y114.924 E16.9871
G1 X34.069 Y113.77 E17.04088
G1 X34.142 Y111.229 E17.15925
G1 X34.142 Y108.704 E17.27682
G1 X34.07 Y106.13 E17.39673
G1 X34.028 Y105.297 E17.43556
G1 X34 Y104.27 E17.4834
G1 X34.001 Y100.536 E17.65727
G1 X34.012 Y99.827 E17.69029
G1 X34.067 Y98.891 E17.73395
G1 X34.201 Y97.963 E17.77761
G1 X34.414 Y97.049 E17.82131
G1 X34.703 Y96.157 E17.86497
G1 X34.979 Y95.487 E17.89871
G1 X35.901 Y93.436 E18.00342
G1 X36.882 Y91.09 E18.12183
G1 X37.793 Y88.728 E18.23971
G1 X38.636 Y86.343 E18.3575
G1 X38.986 Y85.473 E18.40116
G1 X39.409 Y84.636 E18.44483
G1 X39.902 Y83.838 E18.48851
G1 X40.461 Y83.085 E18.53218
G1 X41.082 Y82.382 E18.57586
G1 X41.76 Y81.734 E18.61953
G1 X42.492 Y81.147 E18.66322
G1 X43.27 Y80.624 E18.70687
G1 X44.091 Y80.17 E18.75055
G0 F6000 X44.406 Y80.461
G1 F1200 X45.252 Y80.097 E18.79344
G1 X46.126 Y79.809 E18.83629
G1 X47.022 Y79.597 E18.87916
G1 X47.933 Y79.465 E18.92202
G1 X48.679 Y79.415 E18.95684
G1 X49.33 Y79.4 E18.98716
G1 X54.066 Y79.401 E19.20769
G1 X56.391 Y79.439 E19.31596
G1 X58.994 Y79.437 E19.43717
G1 X60.715 Y79.4 E19.51733
G1 X69.066 Y79.401 E19.90618
G1 X71.391 Y79.439 E20.01446
G1 X73.994 Y79.437 E20.13567
G1 X75.715 Y79.4 E20.21582
G1 X80.445 Y79.401 E20.43607
G1 X81.143 Y79.411 E20.46858
G1 X82.013 Y79.459 E20.50915
G1 X82.601 Y79.516 E20.53666
G1 X85.214 Y79.739 E20.65877
G1 X87.707 Y79.879 E20.77504
G1 X90.253 Y79.95 E20.89364
G1 X92.764 Y79.95 E21.01056
G1 X95.315 Y79.877 E21.12939
G1 X97.843 Y79.734 E21.2473
G1 X100.997 Y79.458 E21.39472
G1 X101.712 Y79.413 E21.42808
G1 X102.33 Y79.4 E21.45686
G1 X106.441 Y79.401 E21.64829
G1 X107.158 Y79.411 E21.68168
G1 X108.092 Y79.447 E21.7252
G1 X110.748 Y79.522 E21.84893
G1 X113.258 Y79.522 E21.9658
G1 X115.852 Y79.449 E22.08664
G1 X116.433 Y79.421 E22.11372
G1 X117.33 Y79.4 E22.1555
G1 X121.443 Y79.401 E22.34702
G1 X122.445 Y79.419 E22.39369
G1 X123.037 Y79.444 E22.42128
G1 X124.708 Y79.538 E22.49921
G1 X127.245 Y79.609 E22.61739
G1 X129.756 Y79.609 E22.73431
G1 X132.343 Y79.535 E22.85482
G1 X134.429 Y79.425 E22.95209
G1 X135.33 Y79.4 E22.99406
G1 X144.066 Y79.401 E23.40084
G1 X146.391 Y79.439 E23.50912
G1 X148.994 Y79.437 E23.63033
G1 X150.715 Y79.4 E23.71048
G1 X159.066 Y79.401 E24.09934
G1 X161.391 Y79.439 E24.20762
G1 X163.994 Y79.437 E24.32882
G1 X165.715 Y79.4 E24.40898
G1 X174.445 Y79.401 E24.81548
G1 X175.143 Y79.411 E24.84799
G1 X176.062 Y79.464 E24.89085
G1 X176.973 Y79.597 E24.93372
G1 X177.869 Y79.808 E24.97658
G1 X178.743 Y80.096 E25.01943
G1 X179.59 Y80.459 E25.06234
G1 X180.401 Y80.894 E25.1052
G1 X181.171 Y81.398 E25.14805
G1 X181.895 Y81.967 E25.19093
G1 X182.567 Y82.597 E25.23382
G1 X183.182 Y83.282 E25.27668
G1 X183.735 Y84.018 E25.31955
G1 X184.222 Y84.799 E25.36241
G1 X184.639 Y85.62 E25.40529
G1 X184.984 Y86.474 E25.44817
G1 X185.253 Y87.354 E25.49102
G1 X185.445 Y88.255 E25.53392
G1 X185.558 Y89.168 E25.57676
G1 X185.587 Y89.712 E25.60212
G1 X185.6 Y90.33 E25.63091
G1 X185.599 Y99.066 E26.03769
G1 X185.561 Y101.391 E26.14597
G1 X185.563 Y103.995 E26.26722
G1 X185.6 Y105.714 E26.34728
G1 X185.599 Y114.066 E26.73619
G1 X185.561 Y116.391 E26.84446
G1 X185.563 Y118.995 E26.96572
G1 X185.6 Y120.715 E27.04583
G1 X185.599 Y129.41 E27.4507
G1 X185.589 Y130.137 E27.48456
G1 X185.536 Y131.056 E27.52742
G1 X185.404 Y131.967 E27.57028
G1 X185.193 Y132.863 E27.61315
G1 X184.906 Y133.738 E27.65602
G1 X184.543 Y134.584 E27.69889
G1 X184.109 Y135.396 E27.74176
G1 X183.605 Y136.167 E27.78465
G1 X183.037 Y136.891 E27.8275
G1 X182.408 Y137.563 E27.87036
G1 X181.723 Y138.178 E27.91323
G1 X180.987 Y138.731 E27.9561
G1 X180.206 Y139.219 E27.99898
G1 X179.386 Y139.637 E28.04184
G1 X178.532 Y139.982 E28.08472
G1 X177.652 Y140.251 E28.12757
G1 X176.751 Y140.444 E28.17048
G1 X175.838 Y140.557 E28.21332
G1 X175.288 Y140.587 E28.23896
G1 X174.67 Y140.6 E28.26775
G1 X165.934 Y140.599 E28.67453
G1 X163.609 Y140.561 E28.78281
G1 X161.006 Y140.563 E28.90401
G1 X159.285 Y140.6 E28.98417
G1 X150.934 Y140.599 E29.37303
G1 X148.609 Y140.561 E29.4813
G1 X146.006 Y140.563 E29.60251
G1 X144.285 Y140.6 E29.68267
G1 X135.557 Y140.599 E30.08908
G1 X134.555 Y140.581 E30.13574
G1 X133.963 Y140.556 E30.16333
G1 X132.292 Y140.462 E30.24127
G1 X129.755 Y140.391 E30.35944
G1 X127.244 Y140.391 E30.47637
G1 X124.657 Y140.465 E30.59688
G1 X122.571 Y140.575 E30.69415
G1 X121.67 Y140.6 E30.73612
G1 X117.559 Y140.599 E30.92754
G1 X116.842 Y140.589 E30.96093
G1 X115.908 Y140.553 E31.00446
G1 X113.252 Y140.478 E31.12818
G1 X110.742 Y140.478 E31.24505
G1 X108.148 Y140.551 E31.36589
G1 X107.567 Y140.579 E31.39298
G1 X106.67 Y140.6 E31.43476
G1 X102.555 Y140.599 E31.62637
G1 X101.858 Y140.589 E31.65883
G1 X100.989 Y140.541 E31.69935
G1 X100.408 Y140.485 E31.72653
G1 X97.786 Y140.261 E31.84907
G1 X95.294 Y140.121 E31.96529
G1 X92.747 Y140.05 E32.08393
G1 X90.236 Y140.05 E32.20086
G1 X87.684 Y140.123 E32.31974
G1 X85.157 Y140.266 E32.43759
G1 X82.588 Y140.486 E32.55765
G1 X82.006 Y140.542 E32.58488
G1 X81.288 Y140.587 E32.61838
G1 X80.67 Y140.6 E32.64716
G1 X75.934 Y140.599 E32.86769
G1 X73.609 Y140.561 E32.97596
G1 X71.006 Y140.563 E33.09717
G1 X69.285 Y140.6 E33.17733
G1 X60.934 Y140.599 E33.56618
G1 X58.609 Y140.561 E33.67446
G1 X56.006 Y140.563 E33.79567
G1 X54.285 Y140.6 E33.87582
G1 X49.555 Y140.599 E34.09607
G1 X48.856 Y140.589 E34.12862
G1 X47.937 Y140.536 E34.17149
G1 X47.026 Y140.403 E34.21436
G1 X46.13 Y140.192 E34.25722
G1 X45.256 Y139.904 E34.30007
G1 X44.41 Y139.541 E34.34293
G1 X43.598 Y139.106 E34.38583
G1 X42.828 Y138.602 E34.42868
G1 X42.104 Y138.033 E34.47156
G1 X41.432 Y137.404 E34.51442
G1 X40.817 Y136.718 E34.55732
G1 X40.264 Y135.982 E34.60019
G1 X39.777 Y135.201 E34.64304
G1 X39.36 Y134.38 E34.68592
G1 X39.04 Y133.597 E34.72531
G1 X37.855 Y130.323 E34.88744
G1 X36.933 Y127.991 E35.0042
G1 X35.67 Y125.07 E35.15239
G1 X35.349 Y124.359 E35.18871
G1 X35.007 Y123.504 E35.23159
G1 X34.74 Y122.623 E35.27446
G1 X34.551 Y121.722 E35.31733
G1 X34.44 Y120.808 E35.3602
G1 X34.413 Y120.288 E35.38444
G1 X34.4 Y119.67 E35.41323
G1 X34.401 Y115.959 E35.58603
G1 X34.411 Y115.245 E35.61928
G1 X34.466 Y113.869 E35.6834
G1 X34.542 Y111.206 E35.80745
G1 X34.542 Y108.693 E35.92447
G1 X34.471 Y106.144 E36.04321
G1 X34.427 Y105.277 E36.08363
G1 X34.4 Y104.27 E36.13054
G1 X34.401 Y100.543 E36.30408
G1 X34.412 Y99.834 E36.3371
G1 X34.467 Y98.915 E36.37997
G1 X34.6 Y98.004 E36.42284
G1 X34.813 Y97.108 E36.46572
G1 X35.102 Y96.234 E36.50859
G1 X35.343 Y95.651 E36.53796
G1 X36.277 Y93.574 E36.644
G1 X37.253 Y91.239 E36.76185
G1 X38.167 Y88.869 E36.88013
G1 X39.013 Y86.476 E36.99831
G1 X39.358 Y85.622 E37.0412
G1 X39.775 Y84.802 E37.08404
G1 X40.262 Y84.02 E37.12693
G1 X40.814 Y83.284 E37.16977
G1 X41.429 Y82.598 E37.21267
G1 X42.101 Y81.969 E37.25553
G1 X42.824 Y81.4 E37.29837
G1 X43.595 Y80.896 E37.34127
G1 X44.406 Y80.461 E37.38412
G0 F6000 X44.72 Y80.755
G1 F1200 X45.555 Y80.412 E37.42615
G1 X46.418 Y80.144 E37.46823
G1 X47.3 Y79.954 E37.51024
G1 X48.197 Y79.842 E37.55233
G1 X48.691 Y79.815 E37.57537
G1 X49.33 Y79.8 E37.60513
G1 X54.059 Y79.801 E37.82534
G1 X56.384 Y79.839 E37.93361
G1 X59.004 Y79.837 E38.05561
G1 X60.715 Y79.8 E38.1353
G1 X69.059 Y79.801 E38.52383
G1 X71.384 Y79.839 E38.63211
G1 X74.004 Y79.837 E38.75411
G1 X75.715 Y79.8 E38.8338
G1 X80.439 Y79.801 E39.05377
G1 X81.137 Y79.811 E39.08627
G1 X81.975 Y79.858 E39.12535
G1 X82.534 Y79.912 E39.1515
G1 X85.159 Y80.136 E39.27418
G1 X87.708 Y80.279 E39.39306
G1 X90.242 Y80.35 E39.5111
G1 X92.775 Y80.35 E39.62904
G1 X95.315 Y80.277 E39.74737
G1 X97.863 Y80.133 E39.8662
G1 X101.035 Y79.856 E40.01446
G1 X101.723 Y79.813 E40.04656
G1 X102.33 Y79.8 E40.07483
G1 X106.435 Y79.801 E40.26598
G1 X107.444 Y79.819 E40.31297
G1 X108.133 Y79.848 E40.34508
G1 X110.737 Y79.922 E40.46638
G1 X113.27 Y79.922 E40.58433
G1 X115.838 Y79.849 E40.70396
G1 X116.445 Y79.821 E40.73225
G1 X117.33 Y79.8 E40.77347
G1 X121.438 Y79.801 E40.96476
G1 X122.428 Y79.819 E41.01086
G1 X123.168 Y79.851 E41.04535
G1 X124.711 Y79.938 E41.11732
G1 X127.234 Y80.009 E41.23484
G1 X129.767 Y80.009 E41.35279
G1 X132.334 Y79.935 E41.47237
G1 X134.45 Y79.824 E41.57104
G1 X135.033 Y79.804 E41.5982
G1 X144.059 Y79.801 E42.01849
G1 X146.384 Y79.839 E42.12676
G1 X149.004 Y79.837 E42.24876
G1 X150.715 Y79.8 E42.32845
G1 X159.059 Y79.801 E42.71698
G1 X161.384 Y79.839 E42.82526
G1 X164.004 Y79.837 E42.94726
G1 X165.715 Y79.8 E43.02695
G1 X174.439 Y79.801 E43.43317
G1 X175.137 Y79.811 E43.46568
G1 X176.039 Y79.864 E43.50775
G1 X176.932 Y79.996 E43.54979
G1 X177.81 Y80.207 E43.59183
G1 X178.666 Y80.495 E43.63389
G1 X179.493 Y80.857 E43.67592
G1 X180.285 Y81.292 E43.718
G1 X181.036 Y81.794 E43.76006
G1 X181.739 Y82.361 E43.80212
G1 X182.389 Y82.988 E43.84417
G1 X182.981 Y83.67 E43.88622
G1 X183.511 Y84.401 E43.92827
G1 X183.973 Y85.177 E43.97032
G1 X184.366 Y85.99 E44.01237
G1 X184.684 Y86.835 E44.05441
G1 X184.927 Y87.705 E44.09647
G1 X185.092 Y88.593 E44.13853
G1 X185.187 Y89.723 E44.19133
G1 X185.2 Y90.33 E44.2196
G1 X185.199 Y99.059 E44.62606
G1 X185.161 Y101.384 E44.73433
G1 X185.163 Y104.005 E44.85638
G1 X185.2 Y105.714 E44.93598
G1 X185.199 Y114.059 E45.32455
G1 X185.161 Y116.384 E45.43283
G1 X185.163 Y119.005 E45.55488
G1 X185.2 Y120.715 E45.63452
G1 X185.199 Y129.404 E46.03911
G1 X185.189 Y130.131 E46.07297
G1 X185.137 Y131.033 E46.11504
G1 X185.005 Y131.926 E46.15707
G1 X184.794 Y132.805 E46.19917
G1 X184.507 Y133.661 E46.24121
G1 X184.145 Y134.488 E46.28324
G1 X183.711 Y135.28 E46.3253
G1 X183.209 Y136.031 E46.36736
G1 X182.643 Y136.734 E46.40938
G1 X182.016 Y137.385 E46.45147
G1 X181.335 Y137.977 E46.49349
G1 X180.604 Y138.507 E46.53553
G1 X179.828 Y138.97 E46.57761
G1 X179.015 Y139.363 E46.61966
G1 X178.17 Y139.683 E46.66173
G1 X177.301 Y139.926 E46.70375
G1 X176.413 Y140.091 E46.7458
G1 X175.277 Y140.187 E46.79889
G1 X174.67 Y140.2 E46.82716
G1 X165.941 Y140.199 E47.23362
G1 X163.616 Y140.161 E47.34189
G1 X160.996 Y140.163 E47.46389
G1 X159.285 Y140.2 E47.54358
G1 X150.941 Y140.199 E47.93211
