;FLAVOR:Marlin
;TIME:11843
;Filament used: 8.61504m
;Layer height: 0.2
;MINX:34.5
;MINY:54.911
;MINZ:0.2
;MAXX:185.5
;MAXY:165.089
;MAXZ:5
;Generated with Cura_SteamEngine 5.2.1
M82 ;absolute extrusion mode
; Ender 3 Custom Start G-code
G92 E0 ; Reset Extruder
G28 ; Home all axes
M104 S175 ; Start heating up the nozzle most of the way
M190 S60 ; Start heating the bed, wait until target temperature reached
M109 S200 ; Finish heating the nozzle
G1 Z2.0 F3000 ; Move Z Axis up little to prevent scratching of Heat Bed
G1 X0.1 Y20 Z0.3 F5000.0 ; Move to start position
G1 X0.1 Y200.0 Z0.3 F1500.0 E15 ; Draw the first line
G1 X0.4 Y200.0 Z0.3 F5000.0 ; Move to side a little
G1 X0.4 Y20 Z0.3 F1500.0 E30 ; Draw the second line
G92 E0 ; Reset Extruder
G1 Z2.0 F3000 ; Move Z Axis up little to prevent scratching of Heat Bed
G1 X5 Y20 Z0.3 F5000.0 ; Move over to prevent blob squish
G92 E0
G92 E0
G1 F1500 E-6.5
;LAYER_COUNT:25
;LAYER:0
M107
G0 F6000 X42.992 Y57.236 Z0.2
;TYPE:SKIRT
G1 F1500 E0
G1 F1200 X43.77 Y56.713 E0.03118
G1 X44.591 Y56.259 E0.06238
G1 X45.447 Y55.876 E0.09357
G1 X46.332 Y55.567 E0.12475
G1 X47.241 Y55.335 E0.15595
G1 X48.166 Y55.181 E0.18714
G1 X49.167 Y55.104 E0.22054
G1 X49.83 Y55.089 E0.24259
G1 X54.94 Y55.09 E0.41255
G1 X56.771 Y55.116 E0.47346
G1 X59.41 Y55.116 E0.56123
G1 X60.703 Y55.09 E0.60424
G1 X69.94 Y55.09 E0.91147
G1 X71.771 Y55.116 E0.97237
G1 X74.41 Y55.116 E1.06015
G1 X75.702 Y55.09 E1.10313
G1 X80.949 Y55.09 E1.27764
G1 X81.655 Y55.1 E1.30113
G1 X82.274 Y55.126 E1.32173
G1 X83.142 Y55.187 E1.35068
G1 X85.619 Y55.328 E1.43319
G1 X89.496 Y55.409 E1.56217
G1 X91.972 Y55.374 E1.64453
G1 X94.473 Y55.268 E1.72779
G1 X97.201 Y55.073 E1.81876
G1 X98.498 Y54.961 E1.86205
G1 X99.134 Y54.924 E1.88324
G1 X99.763 Y54.911 E1.90417
G1 X103.726 Y54.911 E2.03598
G1 X104.597 Y54.922 E2.06495
G1 X105.554 Y54.958 E2.0968
G1 X108.192 Y55.033 E2.18458
G1 X110.681 Y55.033 E2.26736
G1 X113.256 Y54.96 E2.35304
G1 X113.613 Y54.942 E2.36493
G1 X114.763 Y54.911 E2.40319
G1 X118.884 Y54.912 E2.54026
G1 X119.582 Y54.922 E2.56348
G1 X120.197 Y54.948 E2.58395
G1 X122.045 Y55.085 E2.64558
G1 X124.587 Y55.223 E2.73026
G1 X127.082 Y55.29 E2.81327
G1 X129.557 Y55.284 E2.89559
G1 X133.408 Y55.143 E3.02376
G1 X133.855 Y55.117 E3.03865
G1 X134.83 Y55.089 E3.07109
G1 X143.94 Y55.09 E3.37409
G1 X145.771 Y55.116 E3.435
G1 X148.41 Y55.116 E3.52277
G1 X149.703 Y55.09 E3.56579
G1 X158.94 Y55.09 E3.87301
G1 X160.771 Y55.116 E3.93392
G1 X163.41 Y55.116 E4.02169
G1 X164.703 Y55.09 E4.0647
G1 X173.951 Y55.09 E4.37229
G1 X174.649 Y55.1 E4.39551
G1 X175.585 Y55.154 E4.42669
G1 X176.513 Y55.286 E4.45787
G1 X177.427 Y55.498 E4.48908
G1 X178.319 Y55.787 E4.52026
G1 X179.184 Y56.15 E4.55146
G1 X180.014 Y56.586 E4.58265
G1 X180.805 Y57.091 E4.61386
G1 X181.549 Y57.662 E4.64505
G1 X182.242 Y58.294 E4.67625
G1 X182.879 Y58.982 E4.70743
G1 X183.454 Y59.723 E4.73863
G1 X183.965 Y60.509 E4.76981
G1 X184.407 Y61.337 E4.80103
G1 X184.776 Y62.199 E4.83222
G1 X185.071 Y63.089 E4.8634
G1 X185.289 Y64.001 E4.89459
G1 X185.429 Y64.929 E4.9258
G1 X185.486 Y65.782 E4.95424
G1 X185.5 Y66.411 E4.97516
G1 X185.499 Y75.529 E5.27843
G1 X185.473 Y77.36 E5.33933
G1 X185.473 Y79.999 E5.42711
G1 X185.499 Y81.292 E5.47012
G1 X185.499 Y90.529 E5.77735
G1 X185.473 Y92.36 E5.83825
G1 X185.473 Y94.999 E5.92602
G1 X185.499 Y96.292 E5.96904
G1 X185.499 Y105.542 E6.27669
G1 X185.481 Y106.721 E6.31591
G1 X185.424 Y108.774 E6.38422
G1 X185.424 Y111.332 E6.4693
G1 X185.5 Y114.396 E6.57124
G1 X185.499 Y123.529 E6.87501
G1 X185.473 Y125.36 E6.93591
G1 X185.473 Y127.999 E7.02369
G1 X185.499 Y129.292 E7.0667
G1 X185.499 Y138.529 E7.37392
G1 X185.473 Y140.36 E7.43483
G1 X185.473 Y142.999 E7.5226
G1 X185.499 Y144.292 E7.56562
G1 X185.499 Y153.489 E7.87151
G1 X185.49 Y154.216 E7.89569
G1 X185.439 Y155.153 E7.9269
G1 X185.307 Y156.081 E7.95808
G1 X185.098 Y156.995 E7.98926
G1 X184.811 Y157.888 E8.02046
G1 X184.449 Y158.754 E8.05168
G1 X184.015 Y159.585 E8.08286
G1 X183.511 Y160.376 E8.11406
G1 X182.942 Y161.121 E8.14524
G1 X182.311 Y161.816 E8.17646
G1 X181.624 Y162.454 E8.20764
G1 X180.885 Y163.031 E8.23883
G1 X180.099 Y163.543 E8.27002
G1 X179.273 Y163.986 E8.3012
G1 X178.411 Y164.358 E8.33243
G1 X177.522 Y164.654 E8.36359
G1 X176.61 Y164.874 E8.39479
G1 X175.683 Y165.015 E8.42598
G1 X174.799 Y165.076 E8.45545
G1 X174.17 Y165.089 E8.47638
G1 X165.06 Y165.088 E8.77938
G1 X163.229 Y165.062 E8.84028
G1 X160.59 Y165.062 E8.92806
G1 X159.297 Y165.088 E8.97107
G1 X150.06 Y165.088 E9.27829
G1 X148.229 Y165.062 E9.3392
G1 X145.59 Y165.062 E9.42697
G1 X144.297 Y165.088 E9.46999
G1 X135.049 Y165.088 E9.77758
G1 X134.352 Y165.078 E9.80076
G1 X133.737 Y165.052 E9.82123
G1 X131.888 Y164.915 E9.8829
G1 X129.346 Y164.777 E9.96757
G1 X126.851 Y164.71 E10.05059
G1 X124.376 Y164.716 E10.13291
G1 X120.525 Y164.857 E10.26108
G1 X120.078 Y164.883 E10.27597
G1 X119.103 Y164.911 E10.30841
G1 X114.987 Y164.91 E10.44531
G1 X114.269 Y164.9 E10.46919
G1 X113.312 Y164.864 E10.50104
G1 X110.674 Y164.789 E10.58882
G1 X108.185 Y164.789 E10.6716
G1 X105.612 Y164.862 E10.75722
G1 X105.254 Y164.88 E10.76914
G1 X104.103 Y164.911 E10.80744
G1 X99.984 Y164.91 E10.94443
G1 X99.277 Y164.9 E10.96795
G1 X98.657 Y164.874 E10.98859
G1 X97.786 Y164.812 E11.01763
G1 X95.314 Y164.672 E11.09998
G1 X91.437 Y164.591 E11.22896
G1 X88.961 Y164.626 E11.31132
G1 X86.46 Y164.732 E11.39458
G1 X83.732 Y164.927 E11.48555
G1 X82.435 Y165.039 E11.52885
G1 X81.799 Y165.076 E11.55003
G1 X81.17 Y165.089 E11.57096
G1 X76.06 Y165.088 E11.74092
G1 X74.229 Y165.062 E11.80182
G1 X71.59 Y165.062 E11.8896
G1 X70.297 Y165.088 E11.93261
G1 X61.06 Y165.088 E12.23984
G1 X59.229 Y165.062 E12.30074
G1 X56.59 Y165.062 E12.38851
G1 X55.298 Y165.088 E12.4315
G1 X50.05 Y165.088 E12.60604
G1 X49.351 Y165.078 E12.6293
G1 X48.414 Y165.024 E12.66051
G1 X47.486 Y164.892 E12.69169
G1 X46.572 Y164.68 E12.7229
G1 X45.68 Y164.391 E12.75408
G1 X44.815 Y164.028 E12.78528
G1 X43.985 Y163.592 E12.81647
G1 X43.195 Y163.087 E12.84765
G1 X42.45 Y162.516 E12.87887
G1 X41.757 Y161.884 E12.91007
G1 X41.12 Y161.196 E12.94125
G1 X40.545 Y160.455 E12.97245
G1 X40.034 Y159.669 E13.00363
G1 X39.592 Y158.841 E13.03484
G1 X39.164 Y157.822 E13.07161
G1 X37.983 Y154.558 E13.18705
G1 X37.059 Y152.22 E13.27067
G1 X35.797 Y149.302 E13.37641
G1 X35.485 Y148.612 E13.4016
G1 X35.135 Y147.742 E13.43279
G1 X34.861 Y146.845 E13.46398
G1 X34.665 Y145.928 E13.49517
G1 X34.547 Y144.997 E13.52638
G1 X34.513 Y144.388 E13.54667
G1 X34.5 Y143.759 E13.5676
G1 X34.501 Y139.643 E13.70449
G1 X34.511 Y138.926 E13.72834
G1 X34.547 Y137.968 E13.76023
G1 X34.622 Y135.33 E13.84801
G1 X34.622 Y132.84 E13.93082
G1 X34.549 Y130.268 E14.0164
G1 X34.531 Y129.91 E14.02832
G1 X34.5 Y128.759 E14.06662
G1 X34.501 Y124.638 E14.20369
G1 X34.511 Y123.941 E14.22687
G1 X34.597 Y122.717 E14.26768
G1 X34.759 Y121.434 E14.31069
G1 X35.055 Y118.834 E14.39773
G1 X35.267 Y116.34 E14.48098
G1 X35.408 Y113.857 E14.5637
G1 X35.48 Y111.299 E14.64881
G1 X35.48 Y108.811 E14.73156
G1 X35.408 Y106.252 E14.81671
G1 X35.267 Y103.769 E14.89942
G1 X35.055 Y101.279 E14.98254
G1 X34.76 Y98.681 E15.06951
G1 X34.607 Y97.54 E15.1078
G1 X34.513 Y96.388 E15.14624
G1 X34.5 Y95.759 E15.16716
G1 X34.501 Y91.643 E15.30406
G1 X34.511 Y90.926 E15.32791
G1 X34.547 Y89.968 E15.3598
G1 X34.622 Y87.33 E15.44757
G1 X34.622 Y84.84 E15.53039
G1 X34.549 Y82.268 E15.61597
G1 X34.531 Y81.91 E15.62789
G1 X34.5 Y80.759 E15.66619
G1 X34.501 Y76.625 E15.80369
G1 X34.512 Y75.916 E15.82727
G1 X34.567 Y74.98 E15.85846
G1 X34.701 Y74.052 E15.88964
G1 X34.914 Y73.138 E15.92086
G1 X35.203 Y72.246 E15.95204
G1 X35.479 Y71.576 E15.97614
G1 X36.401 Y69.525 E16.05094
G1 X37.382 Y67.179 E16.13551
G1 X38.293 Y64.817 E16.21971
G1 X39.136 Y62.432 E16.30385
G1 X39.486 Y61.562 E16.33504
G1 X39.909 Y60.725 E16.36623
G1 X40.402 Y59.927 E16.39743
G1 X40.961 Y59.174 E16.42862
G1 X41.582 Y58.471 E16.45982
G1 X42.26 Y57.823 E16.49101
G1 X42.992 Y57.236 E16.52222
G0 F6000 X43.324 Y57.489
G1 F1200 X44.095 Y56.985 E16.55286
G1 X44.906 Y56.55 E16.58346
G1 X45.752 Y56.186 E16.6141
G1 X46.626 Y55.898 E16.6447
G1 X47.522 Y55.686 E16.67533
G1 X48.433 Y55.554 E16.70594
G1 X49.179 Y55.504 E16.73081
G1 X49.83 Y55.489 E16.75247
G1 X54.935 Y55.49 E16.92226
G1 X56.766 Y55.516 E16.98317
G1 X59.419 Y55.516 E17.07141
G1 X60.703 Y55.49 E17.11412
G1 X69.935 Y55.49 E17.42118
G1 X71.766 Y55.516 E17.48209
G1 X74.419 Y55.516 E17.57032
G1 X75.702 Y55.49 E17.61301
G1 X80.943 Y55.49 E17.78732
G1 X81.649 Y55.5 E17.81081
G1 X82.246 Y55.525 E17.83068
G1 X83.09 Y55.585 E17.85882
G1 X85.616 Y55.728 E17.94297
G1 X89.494 Y55.809 E18.07198
G1 X91.995 Y55.774 E18.15517
G1 X94.485 Y55.668 E18.23807
G1 X97.191 Y55.475 E18.3283
G1 X98.532 Y55.359 E18.37307
G1 X99.145 Y55.324 E18.39349
G1 X99.763 Y55.311 E18.41405
G1 X103.726 Y55.311 E18.54586
G1 X104.592 Y55.322 E18.57466
G1 X105.525 Y55.358 E18.60572
G1 X108.181 Y55.433 E18.69409
G1 X110.692 Y55.433 E18.77761
G1 X113.287 Y55.36 E18.86395
G1 X113.866 Y55.332 E18.88323
G1 X114.763 Y55.311 E18.91307
G1 X118.878 Y55.312 E19.04994
G1 X119.576 Y55.322 E19.07316
G1 X120.169 Y55.347 E19.0929
G1 X122.06 Y55.487 E19.15597
G1 X124.555 Y55.623 E19.23907
G1 X127.072 Y55.69 E19.32282
G1 X129.571 Y55.684 E19.40594
G1 X133.446 Y55.542 E19.53491
G1 X134.178 Y55.504 E19.55928
G1 X134.83 Y55.489 E19.58098
G1 X143.935 Y55.49 E19.88381
G1 X145.766 Y55.516 E19.94472
G1 X148.419 Y55.516 E20.03295
G1 X149.703 Y55.49 E20.07567
G1 X158.935 Y55.49 E20.38273
G1 X160.766 Y55.516 E20.44363
G1 X163.419 Y55.516 E20.53187
G1 X164.703 Y55.49 E20.57459
G1 X173.945 Y55.49 E20.88198
G1 X174.643 Y55.5 E20.90519
G1 X175.562 Y55.553 E20.93581
G1 X176.473 Y55.686 E20.96643
G1 X177.369 Y55.897 E20.99705
G1 X178.243 Y56.185 E21.02766
G1 X179.09 Y56.548 E21.0583
G1 X179.901 Y56.983 E21.08891
G1 X180.671 Y57.487 E21.11952
G1 X181.395 Y58.056 E21.15015
G1 X182.067 Y58.686 E21.18079
G1 X182.682 Y59.371 E21.2114
G1 X183.235 Y60.107 E21.24202
G1 X183.722 Y60.888 E21.27264
G1 X184.139 Y61.709 E21.30326
G1 X184.484 Y62.563 E21.3339
G1 X184.753 Y63.443 E21.3645
G1 X184.945 Y64.344 E21.39514
G1 X185.058 Y65.257 E21.42574
G1 X185.087 Y65.793 E21.4436
G1 X185.1 Y66.411 E21.46416
G1 X185.099 Y75.524 E21.76725
G1 X185.073 Y77.355 E21.82816
G1 X185.073 Y80.008 E21.9164
G1 X185.099 Y81.292 E21.95911
G1 X185.099 Y90.524 E22.26617
G1 X185.073 Y92.355 E22.32708
G1 X185.073 Y95.008 E22.41532
G1 X185.099 Y96.292 E22.45803
G1 X185.099 Y105.536 E22.76549
G1 X185.081 Y106.71 E22.80454
G1 X185.024 Y108.763 E22.87285
G1 X185.024 Y111.341 E22.95859
G1 X185.1 Y114.396 E23.06023
G1 X185.099 Y123.524 E23.36383
G1 X185.073 Y125.355 E23.42474
G1 X185.073 Y128.008 E23.51298
G1 X185.099 Y129.292 E23.55569
G1 X185.099 Y138.524 E23.86275
G1 X185.073 Y140.355 E23.92366
G1 X185.073 Y143.008 E24.01189
G1 X185.099 Y144.292 E24.05461
G1 X185.099 Y153.484 E24.36034
G1 X185.09 Y154.211 E24.38452
G1 X185.039 Y155.13 E24.41513
G1 X184.908 Y156.042 E24.44578
G1 X184.698 Y156.938 E24.47639
G1 X184.412 Y157.813 E24.507
G1 X184.051 Y158.66 E24.53763
G1 X183.617 Y159.472 E24.56825
G1 X183.115 Y160.244 E24.59888
G1 X182.547 Y160.969 E24.62951
G1 X181.919 Y161.642 E24.66013
G1 X181.235 Y162.258 E24.69074
G1 X180.5 Y162.812 E24.72135
G1 X179.72 Y163.301 E24.75197
G1 X178.9 Y163.72 E24.7826
G1 X178.047 Y164.066 E24.81322
G1 X177.167 Y164.337 E24.84384
G1 X176.267 Y164.53 E24.87446
G1 X175.353 Y164.645 E24.9051
G1 X174.788 Y164.676 E24.92392
G1 X174.17 Y164.689 E24.94448
G1 X165.065 Y164.688 E25.24731
G1 X163.234 Y164.662 E25.30822
G1 X160.581 Y164.662 E25.39645
G1 X159.297 Y164.688 E25.43917
G1 X150.065 Y164.688 E25.74623
G1 X148.234 Y164.662 E25.80713
G1 X145.581 Y164.662 E25.89537
G1 X144.297 Y164.688 E25.93809
G1 X135.055 Y164.688 E26.24548
G1 X134.358 Y164.678 E26.26866
G1 X133.766 Y164.653 E26.28837
G1 X131.873 Y164.513 E26.3515
G1 X129.378 Y164.377 E26.43461
G1 X126.861 Y164.31 E26.51835
G1 X124.362 Y164.316 E26.60147
G1 X120.487 Y164.458 E26.73044
G1 X119.755 Y164.496 E26.75482
G1 X119.103 Y164.511 E26.77651
G1 X114.992 Y164.51 E26.91324
G1 X114.274 Y164.5 E26.93713
G1 X113.341 Y164.464 E26.96818
G1 X110.685 Y164.389 E27.05656
G1 X108.174 Y164.389 E27.14007
G1 X105.581 Y164.462 E27.22635
G1 X105 Y164.49 E27.2457
G1 X104.103 Y164.511 E27.27554
G1 X99.99 Y164.51 E27.41234
G1 X99.283 Y164.5 E27.43586
G1 X98.685 Y164.475 E27.45576
G1 X97.838 Y164.415 E27.484
G1 X95.317 Y164.272 E27.56799
G1 X91.439 Y164.191 E27.697
G1 X88.938 Y164.226 E27.78019
G1 X86.448 Y164.332 E27.86308
G1 X83.742 Y164.525 E27.95331
G1 X82.401 Y164.641 E27.99808
G1 X81.788 Y164.676 E28.0185
G1 X81.17 Y164.689 E28.03906
G1 X76.065 Y164.688 E28.20886
G1 X74.234 Y164.662 E28.26976
G1 X71.581 Y164.662 E28.358
G1 X70.297 Y164.688 E28.40072
G1 X61.065 Y164.688 E28.70777
G1 X59.234 Y164.662 E28.76868
G1 X56.581 Y164.662 E28.85692
G1 X55.298 Y164.688 E28.8996
G1 X50.055 Y164.688 E29.07398
G1 X49.356 Y164.678 E29.09723
G1 X48.437 Y164.625 E29.12785
G1 X47.526 Y164.492 E29.15847
G1 X46.63 Y164.281 E29.18909
G1 X45.756 Y163.993 E29.21969
G1 X44.91 Y163.63 E29.25031
G1 X44.098 Y163.195 E29.28095
G1 X43.328 Y162.691 E29.31156
G1 X42.604 Y162.122 E29.34219
G1 X41.932 Y161.493 E29.3728
G1 X41.317 Y160.807 E29.40345
G1 X40.764 Y160.071 E29.43406
G1 X40.277 Y159.29 E29.46468
G1 X39.86 Y158.469 E29.4953
G1 X39.54 Y157.686 E29.52344
G1 X38.355 Y154.412 E29.63924
G1 X37.433 Y152.08 E29.72265
G1 X36.17 Y149.159 E29.8285
G1 X35.849 Y148.448 E29.85444
G1 X35.507 Y147.593 E29.88507
G1 X35.24 Y146.712 E29.91569
G1 X35.051 Y145.811 E29.94631
G1 X34.94 Y144.897 E29.97693
G1 X34.913 Y144.377 E29.99425
G1 X34.9 Y143.759 E30.01481
G1 X34.901 Y139.648 E30.15154
G1 X34.911 Y138.931 E30.17539
G1 X34.947 Y137.997 E30.20648
G1 X35.022 Y135.341 E30.29485
G1 X35.022 Y132.829 E30.3784
G1 X34.949 Y130.237 E30.46465
G1 X34.921 Y129.656 E30.48399
G1 X34.9 Y128.759 E30.51384
G1 X34.901 Y124.644 E30.6507
G1 X34.911 Y123.947 E30.67389
G1 X34.994 Y122.767 E30.71323
G1 X35.165 Y121.417 E30.75849
G1 X35.449 Y118.912 E30.84234
G1 X35.666 Y116.362 E30.92746
G1 X35.808 Y113.855 E31.01098
G1 X35.88 Y111.31 E31.09566
G1 X35.88 Y108.8 E31.17914
G1 X35.808 Y106.254 E31.26385
G1 X35.666 Y103.747 E31.34737
G1 X35.449 Y101.201 E31.43236
G1 X35.162 Y98.675 E31.51691
G1 X35.003 Y97.486 E31.55681
G1 X34.913 Y96.377 E31.59382
G1 X34.9 Y95.759 E31.61438
G1 X34.901 Y91.648 E31.75111
G1 X34.911 Y90.931 E31.77496
G1 X34.947 Y89.997 E31.80605
G1 X35.022 Y87.341 E31.89442
G1 X35.022 Y84.829 E31.97797
G1 X34.949 Y82.237 E32.06422
G1 X34.921 Y81.656 E32.08356
G1 X34.9 Y80.759 E32.11341
G1 X34.901 Y76.632 E32.25067
G1 X34.912 Y75.923 E32.27426
G1 X34.967 Y75.004 E32.30488
G1 X35.1 Y74.093 E32.3355
G1 X35.313 Y73.197 E32.36613
G1 X35.602 Y72.323 E32.39675
G1 X35.843 Y71.74 E32.41773
G1 X36.777 Y69.663 E32.49347
G1 X37.753 Y67.328 E32.57765
G1 X38.667 Y64.958 E32.66213
G1 X39.513 Y62.565 E32.74655
G1 X39.858 Y61.711 E32.77719
G1 X40.275 Y60.891 E32.80778
G1 X40.762 Y60.109 E32.83842
G1 X41.314 Y59.373 E32.86902
G1 X41.929 Y58.687 E32.89967
G1 X42.601 Y58.058 E32.93028
G1 X43.324 Y57.489 E32.96088
G0 F6000 X43.656 Y57.744
G1 F1200 X44.418 Y57.259 E32.99092
G1 X45.22 Y56.844 E33.02096
G1 X46.055 Y56.501 E33.05098
G1 X46.918 Y56.233 E33.08104
G1 X47.8 Y56.043 E33.11105
G1 X48.697 Y55.931 E33.14111
G1 X49.191 Y55.904 E33.15757
G1 X49.83 Y55.889 E33.17883
G1 X54.929 Y55.89 E33.34842
G1 X56.76 Y55.916 E33.40932
G1 X59.382 Y55.916 E33.49653
G1 X60.481 Y55.892 E33.53309
G1 X69.929 Y55.89 E33.84734
G1 X71.76 Y55.916 E33.90824
G1 X74.382 Y55.916 E33.99545
G1 X75.481 Y55.892 E34.03201
G1 X80.937 Y55.89 E34.21348
G1 X81.643 Y55.9 E34.23696
G1 X82.218 Y55.924 E34.2561
G1 X83.042 Y55.982 E34.28358
G1 X85.613 Y56.128 E34.36923
G1 X89.491 Y56.209 E34.49824
G1 X91.982 Y56.174 E34.5811
G1 X94.532 Y56.066 E34.66599
G1 X97.255 Y55.871 E34.75679
G1 X98.567 Y55.758 E34.80059
G1 X99.156 Y55.724 E34.82021
G1 X99.763 Y55.711 E34.8404
G1 X103.726 Y55.711 E34.97221
G1 X104.586 Y55.722 E35.00082
G1 X105.566 Y55.759 E35.03344
G1 X108.17 Y55.833 E35.12008
