;FLAVOR:Marlin
;TIME:42172
;Filament used: 39.6345m
;Layer height: 0.28
;MINX:29.908
;MINY:9.502
;MINZ:0.28
;MAXX:190.092
;MAXY:210.498
;MAXZ:35.84
;Generated with Cura_SteamEngine 5.2.1
M82 ;absolute extrusion mode
; Ender 3 Custom Start G-code
G92 E0 ; Reset Extruder
G28 ; Home all axes
M104 S175 ; Start heating up the nozzle most of the way
M190 S60 ; Start heating the bed, wait until target temperature reached
M109 S200 ; Finish heating the nozzle
G1 Z2.0 F3000 ; Move Z Axis up little to prevent scratching of Heat Bed
G1 X0.1 Y20 Z0.3 F5000.0 ; Move to start position
G1 X0.1 Y200.0 Z0.3 F1500.0 E15 ; Draw the first line
G1 X0.4 Y200.0 Z0.3 F5000.0 ; Move to side a little
G1 X0.4 Y20 Z0.3 F1500.0 E30 ; Draw the second line
G92 E0 ; Reset Extruder
G1 Z2.0 F3000 ; Move Z Axis up little to prevent scratching of Heat Bed
G1 X5 Y20 Z0.3 F5000.0 ; Move over to prevent blob squish
G92 E0
G92 E0
G1 F1500 E-6.5
;LAYER_COUNT:128
;LAYER:0
M107
G0 F6000 X30.965 Y15.826 Z0.28
;TYPE:SKIRT
G1 F1500 E0
G1 F1200 X31.4 Y14.995 E0.04368
G1 X31.904 Y14.205 E0.08731
G1 X32.474 Y13.46 E0.13099
G1 X33.106 Y12.766 E0.1747
G1 X33.794 Y12.129 E0.21836
G1 X34.534 Y11.553 E0.26202
G1 X35.32 Y11.041 E0.3057
G1 X36.147 Y10.599 E0.34936
G1 X37.009 Y10.229 E0.39304
G1 X37.899 Y9.933 E0.43672
G1 X38.811 Y9.715 E0.48038
G1 X39.738 Y9.574 E0.52404
G1 X40.609 Y9.515 E0.56469
G1 X41.238 Y9.502 E0.59399
G1 X178.543 Y9.503 E6.98748
G1 X179.241 Y9.513 E7.01999
G1 X180.177 Y9.567 E7.06365
G1 X181.105 Y9.699 E7.10729
G1 X182.019 Y9.911 E7.15098
G1 X182.911 Y10.2 E7.19464
G1 X183.776 Y10.563 E7.23832
G1 X184.606 Y10.999 E7.28198
G1 X185.397 Y11.504 E7.32568
G1 X186.141 Y12.075 E7.36935
G1 X186.834 Y12.707 E7.41302
G1 X187.471 Y13.395 E7.45668
G1 X188.046 Y14.136 E7.50035
G1 X188.557 Y14.922 E7.54401
G1 X188.999 Y15.75 E7.58771
G1 X189.368 Y16.612 E7.63137
G1 X189.663 Y17.502 E7.67503
G1 X189.881 Y18.414 E7.7187
G1 X190.021 Y19.342 E7.7624
G1 X190.079 Y20.203 E7.80258
G1 X190.092 Y20.832 E7.83188
G1 X190.091 Y198.898 E16.12337
G1 X190.082 Y199.625 E16.15723
G1 X190.031 Y200.562 E16.20092
G1 X189.899 Y201.49 E16.24457
G1 X189.69 Y202.404 E16.28823
G1 X189.403 Y203.297 E16.33191
G1 X189.041 Y204.163 E16.37561
G1 X188.607 Y204.994 E16.41927
G1 X188.103 Y205.785 E16.46294
G1 X187.534 Y206.53 E16.50659
G1 X186.903 Y207.225 E16.5503
G1 X186.216 Y207.863 E16.59396
G1 X185.477 Y208.44 E16.63761
G1 X184.691 Y208.952 E16.68129
G1 X183.865 Y209.395 E16.72494
G1 X183.003 Y209.767 E16.76866
G1 X182.114 Y210.063 E16.81229
G1 X181.202 Y210.283 E16.85597
G1 X180.275 Y210.424 E16.89963
G1 X179.391 Y210.485 E16.94089
G1 X178.762 Y210.498 E16.97019
G1 X41.473 Y210.497 E23.36294
G1 X40.775 Y210.488 E23.39544
G1 X39.839 Y210.436 E23.43909
G1 X38.91 Y210.304 E23.48279
G1 X37.996 Y210.094 E23.52645
G1 X37.103 Y209.807 E23.57013
G1 X36.238 Y209.444 E23.61381
G1 X35.407 Y209.01 E23.65747
G1 X34.616 Y208.506 E23.70114
G1 X33.871 Y207.936 E23.74482
G1 X33.177 Y207.305 E23.7885
G1 X32.54 Y206.618 E23.83212
G1 X31.963 Y205.878 E23.87581
G1 X31.451 Y205.092 E23.91949
G1 X31.008 Y204.265 E23.96318
G1 X30.637 Y203.404 E24.00683
G1 X30.341 Y202.514 E24.05051
G1 X30.122 Y201.602 E24.09418
G1 X29.981 Y200.675 E24.13784
G1 X29.921 Y199.786 E24.17933
G1 X29.908 Y199.156 E24.20868
G1 X29.909 Y21.027 E32.50311
G1 X29.918 Y20.362 E32.53408
G1 X29.971 Y19.426 E32.57773
G1 X30.103 Y18.497 E32.62142
G1 X30.314 Y17.583 E32.6651
G1 X30.602 Y16.691 E32.70875
G1 X30.965 Y15.826 E32.75243
G0 F6000 X31.363 Y15.92
G1 F1200 X31.797 Y15.108 E32.7953
G1 X32.3 Y14.337 E32.83817
G1 X32.869 Y13.613 E32.88104
G1 X33.497 Y12.941 E32.92387
G1 X34.182 Y12.325 E32.96677
G1 X34.918 Y11.772 E33.00964
G1 X35.699 Y11.284 E33.05252
G1 X36.519 Y10.866 E33.09538
G1 X37.373 Y10.521 E33.13826
G1 X38.253 Y10.251 E33.18113
G1 X39.153 Y10.059 E33.22398
G1 X40.067 Y9.945 E33.26687
G1 X40.62 Y9.915 E33.29265
G1 X41.238 Y9.902 E33.32144
G1 X178.537 Y9.903 E39.71465
G1 X179.235 Y9.913 E39.74716
G1 X180.154 Y9.966 E39.79002
G1 X181.065 Y10.099 E39.83289
G1 X181.961 Y10.31 E39.87575
G1 X182.835 Y10.598 E39.9186
G1 X183.682 Y10.961 E39.96151
G1 X184.493 Y11.396 E40.00437
G1 X185.263 Y11.9 E40.04722
G1 X185.987 Y12.469 E40.0901
G1 X186.659 Y13.099 E40.13299
G1 X187.274 Y13.784 E40.17585
G1 X187.827 Y14.52 E40.21872
G1 X188.314 Y15.301 E40.26158
G1 X188.731 Y16.122 E40.30446
G1 X189.076 Y16.976 E40.34734
G1 X189.345 Y17.856 E40.39019
G1 X189.537 Y18.757 E40.43309
G1 X189.65 Y19.67 E40.47593
G1 X189.679 Y20.214 E40.50129
G1 X189.692 Y20.832 E40.53008
G1 X189.691 Y198.893 E48.82134
G1 X189.682 Y199.62 E48.8552
G1 X189.631 Y200.539 E48.89806
G1 X189.5 Y201.451 E48.94096
G1 X189.29 Y202.347 E48.98381
G1 X189.004 Y203.222 E49.02668
G1 X188.643 Y204.069 E49.06955
G1 X188.209 Y204.881 E49.11242
G1 X187.707 Y205.653 E49.1553
G1 X187.139 Y206.378 E49.19818
G1 X186.511 Y207.051 E49.24105
G1 X185.827 Y207.667 E49.28391
G1 X185.092 Y208.221 E49.32677
G1 X184.312 Y208.71 E49.36963
G1 X183.492 Y209.129 E49.41251
G1 X182.639 Y209.475 E49.45538
G1 X181.759 Y209.746 E49.49825
G1 X180.859 Y209.939 E49.54111
G1 X179.945 Y210.054 E49.58401
G1 X179.38 Y210.085 E49.61035
G1 X178.762 Y210.098 E49.63914
G1 X41.478 Y210.097 E56.03166
G1 X40.78 Y210.088 E56.06416
G1 X39.861 Y210.036 E56.10702
G1 X38.95 Y209.905 E56.14988
G1 X38.054 Y209.695 E56.19273
G1 X37.179 Y209.408 E56.23561
G1 X36.332 Y209.046 E56.2785
G1 X35.52 Y208.612 E56.32137
G1 X34.749 Y208.11 E56.36421
G1 X34.024 Y207.542 E56.4071
G1 X33.351 Y206.913 E56.44999
G1 X32.736 Y206.229 E56.49282
G1 X32.182 Y205.494 E56.53568
G1 X31.694 Y204.713 E56.57856
G1 X31.275 Y203.893 E56.62144
G1 X30.929 Y203.04 E56.6643
G1 X30.659 Y202.16 E56.70717
G1 X30.466 Y201.259 E56.75007
G1 X30.352 Y200.346 E56.79292
G1 X30.321 Y199.775 E56.81954
G1 X30.308 Y199.156 E56.84837
G1 X30.309 Y21.033 E65.14253
G1 X30.318 Y20.368 E65.17349
G1 X30.37 Y19.448 E65.2164
G1 X30.502 Y18.537 E65.25926
G1 X30.713 Y17.641 E65.30213
G1 X31 Y16.766 E65.34501
G1 X31.363 Y15.92 E65.38787
G0 F6000 X31.761 Y16.016
G1 F1200 X32.194 Y15.224 E65.4299
G1 X32.696 Y14.473 E65.47197
G1 X33.263 Y13.769 E65.51406
G1 X33.889 Y13.119 E65.55608
G1 X34.57 Y12.526 E65.59812
G1 X35.302 Y11.996 E65.64021
G1 X36.077 Y11.533 E65.68224
G1 X36.89 Y11.14 E65.72429
G1 X37.735 Y10.82 E65.76636
G1 X38.604 Y10.577 E65.80838
G1 X39.492 Y10.411 E65.85045
G1 X40.631 Y10.315 E65.90367
G1 X41.238 Y10.302 E65.93194
G1 X178.531 Y10.303 E72.32488
G1 X179.229 Y10.313 E72.35738
G1 X180.131 Y10.366 E72.39946
G1 X181.024 Y10.498 E72.44149
G1 X181.902 Y10.709 E72.48354
G1 X182.758 Y10.997 E72.52559
G1 X183.585 Y11.359 E72.56763
G1 X184.377 Y11.794 E72.6097
G1 X185.128 Y12.296 E72.65177
G1 X185.831 Y12.863 E72.69382
G1 X186.481 Y13.49 E72.73588
G1 X187.073 Y14.172 E72.77793
G1 X187.603 Y14.903 E72.81997
G1 X188.065 Y15.679 E72.86202
G1 X188.458 Y16.492 E72.90407
G1 X188.776 Y17.337 E72.94611
G1 X189.019 Y18.207 E72.98817
G1 X189.184 Y19.095 E73.03023
G1 X189.279 Y20.225 E73.08303
G1 X189.292 Y20.832 E73.1113
G1 X189.291 Y198.888 E81.40234
G1 X189.282 Y199.615 E81.43619
G1 X189.231 Y200.517 E81.47826
G1 X189.1 Y201.411 E81.52033
G1 X188.891 Y202.289 E81.56236
G1 X188.605 Y203.146 E81.60443
G1 X188.244 Y203.974 E81.64649
G1 X187.812 Y204.766 E81.6885
G1 X187.311 Y205.518 E81.73057
G1 X186.745 Y206.222 E81.77263
G1 X186.12 Y206.873 E81.81466
G1 X185.439 Y207.467 E81.85673
G1 X184.708 Y207.998 E81.89881
G1 X183.934 Y208.462 E81.94083
G1 X183.121 Y208.856 E81.98289
G1 X182.277 Y209.176 E82.02492
G1 X181.407 Y209.421 E82.06701
G1 X180.52 Y209.587 E82.10903
G1 X179.369 Y209.685 E82.16282
G1 X178.762 Y209.698 E82.19109
G1 X41.483 Y209.697 E88.58338
G1 X40.785 Y209.688 E88.61588
G1 X39.884 Y209.637 E88.6579
G1 X38.99 Y209.505 E88.69998
G1 X38.112 Y209.296 E88.74201
G1 X37.255 Y209.009 E88.78409
G1 X36.428 Y208.648 E88.82611
G1 X35.635 Y208.215 E88.86818
G1 X34.884 Y207.714 E88.91022
G1 X34.18 Y207.148 E88.95228
G1 X33.529 Y206.522 E88.99433
G1 X32.936 Y205.841 E89.03638
G1 X32.406 Y205.11 E89.07842
G1 X31.942 Y204.335 E89.12049
G1 X31.548 Y203.522 E89.16255
G1 X31.228 Y202.678 E89.20458
G1 X30.984 Y201.808 E89.24666
G1 X30.818 Y200.92 E89.28872
G1 X30.721 Y199.765 E89.34269
G1 X30.708 Y199.156 E89.37106
G1 X30.709 Y21.038 E97.66498
G1 X30.718 Y20.373 E97.69595
G1 X30.77 Y19.471 E97.73802
G1 X30.902 Y18.578 E97.78005
G1 X31.112 Y17.7 E97.82209
G1 X31.399 Y16.843 E97.86417
G1 X31.761 Y16.016 E97.90621
G1 F1500 E91.40621
;MESH:Snowflake6.0.stl
G0 F6000 X40.243 Y199.298
G0 X41.108 Y199.298
;TYPE:WALL-OUTER
G1 F1500 E97.90621
G1 F1200 X178.892 Y199.298 E104.32201
G1 X178.892 Y20.702 E112.63818
G1 X41.108 Y20.702 E119.05399
G1 X41.108 Y199.298 E127.37016
G0 F6000 X41.468 Y198.938
;TYPE:SKIN
G1 F1200 X178.532 Y198.938 E133.75244
G1 X178.532 Y21.062 E142.03509
G1 X41.468 Y21.062 E148.41736
G1 X41.468 Y198.938 E156.70001
G0 F6000 X42.042 Y198.737
G1 F1200 X41.667 Y198.362 E156.72471
G0 F6000 X41.667 Y197.796
G1 F1200 X42.608 Y198.737 E156.78668
G0 F6000 X43.173 Y198.737
G1 F1200 X41.667 Y197.231 E156.88585
G0 F6000 X41.667 Y196.665
G1 F1200 X43.739 Y198.737 E157.02229
G0 F6000 X44.305 Y198.737
G1 F1200 X41.667 Y196.099 E157.19601
G0 F6000 X41.667 Y195.534
G1 F1200 X44.87 Y198.737 E157.40693
G0 F6000 X45.436 Y198.737
G1 F1200 X41.667 Y194.968 E157.65513
G0 F6000 X41.667 Y194.402
G1 F1200 X46.002 Y198.737 E157.94059
G0 F6000 X46.567 Y198.737
G1 F1200 X41.667 Y193.837 E158.26327
G0 F6000 X41.667 Y193.271
G1 F1200 X47.133 Y198.737 E158.62321
G0 F6000 X47.699 Y198.737
G1 F1200 X41.667 Y192.705 E159.02043
G0 F6000 X41.667 Y192.14
G1 F1200 X48.264 Y198.737 E159.45485
G0 F6000 X48.83 Y198.737
G1 F1200 X41.667 Y191.574 E159.92655
G0 F6000 X41.667 Y191.008
G1 F1200 X49.396 Y198.737 E160.43552
G0 F6000 X49.962 Y198.737
G1 F1200 X41.667 Y190.442 E160.98176
G0 F6000 X41.667 Y189.877
G1 F1200 X50.527 Y198.737 E161.5652
G0 F6000 X51.093 Y198.737
G1 F1200 X41.667 Y189.311 E162.18592
G0 F6000 X41.667 Y188.745
G1 F1200 X51.659 Y198.737 E162.84391
G0 F6000 X52.224 Y198.737
G1 F1200 X41.667 Y188.18 E163.53911
G0 F6000 X41.667 Y187.614
G1 F1200 X52.79 Y198.737 E164.27158
G0 F6000 X53.356 Y198.737
G1 F1200 X41.667 Y187.048 E165.04132
G0 F6000 X41.667 Y186.483
G1 F1200 X53.921 Y198.737 E165.84827
G0 F6000 X54.487 Y198.737
G1 F1200 X41.667 Y185.917 E166.69248
G0 F6000 X41.667 Y185.351
G1 F1200 X55.053 Y198.737 E167.57398
G0 F6000 X55.618 Y198.737
G1 F1200 X41.667 Y184.786 E168.49267
G0 F6000 X41.667 Y184.22
G1 F1200 X56.184 Y198.737 E169.44864
G0 F6000 X56.75 Y198.737
G1 F1200 X41.667 Y183.654 E170.44188
G0 F6000 X41.667 Y183.089
G1 F1200 X57.315 Y198.737 E171.47233
G0 F6000 X57.881 Y198.737
G1 F1200 X41.667 Y182.523 E172.54005
G0 F6000 X41.667 Y181.957
G1 F1200 X58.447 Y198.737 E173.64504
G0 F6000 X59.013 Y198.737
G1 F1200 X41.667 Y181.391 E174.78731
G0 F6000 X41.667 Y180.826
G1 F1200 X59.578 Y198.737 E175.96678
G0 F6000 X60.144 Y198.737
G1 F1200 X41.667 Y180.26 E177.18352
G0 F6000 X41.667 Y179.694
G1 F1200 X60.71 Y198.737 E178.43753
G0 F6000 X61.275 Y198.737
G1 F1200 X41.667 Y179.129 E179.72875
G0 F6000 X41.667 Y178.563
G1 F1200 X61.841 Y198.737 E181.05724
G0 F6000 X62.407 Y198.737
G1 F1200 X41.667 Y177.997 E182.42301
G0 F6000 X41.667 Y177.432
G1 F1200 X62.972 Y198.737 E183.82598
G0 F6000 X63.538 Y198.737
G1 F1200 X41.667 Y176.866 E185.26622
G0 F6000 X41.667 Y176.3
G1 F1200 X64.104 Y198.737 E186.74374
G0 F6000 X64.669 Y198.737
G1 F1200 X41.667 Y175.735 E188.25846
G0 F6000 X41.667 Y175.169
G1 F1200 X65.235 Y198.737 E189.81045
G0 F6000 X65.801 Y198.737
G1 F1200 X41.667 Y174.603 E191.39972
G0 F6000 X41.667 Y174.038
G1 F1200 X66.366 Y198.737 E193.02619
G0 F6000 X66.932 Y198.737
G1 F1200 X41.667 Y173.472 E194.68993
G0 F6000 X41.667 Y172.906
G1 F1200 X67.498 Y198.737 E196.39095
G0 F6000 X68.063 Y198.737
G1 F1200 X41.667 Y172.341 E198.12917
G0 F6000 X41.667 Y171.775
G1 F1200 X68.629 Y198.737 E199.90466
G0 F6000 X69.195 Y198.737
G1 F1200 X41.667 Y171.209 E201.71743
G0 F6000 X41.667 Y170.643
G1 F1200 X69.761 Y198.737 E203.56746
G0 F6000 X70.326 Y198.737
G1 F1200 X41.667 Y170.078 E205.45471
G0 F6000 X41.667 Y169.512
G1 F1200 X70.892 Y198.737 E207.37923
G0 F6000 X71.458 Y198.737
G1 F1200 X41.667 Y168.946 E209.34101
G0 F6000 X41.667 Y168.381
G1 F1200 X72.023 Y198.737 E211.34001
G0 F6000 X72.589 Y198.737
G1 F1200 X41.667 Y167.815 E213.37627
G0 F6000 X41.667 Y167.249
G1 F1200 X73.155 Y198.737 E215.44981
G0 F6000 X73.72 Y198.737
G1 F1200 X41.667 Y166.684 E217.56056
G0 F6000 X41.667 Y166.118
G1 F1200 X74.286 Y198.737 E219.70857
G0 F6000 X74.852 Y198.737
G1 F1200 X41.667 Y165.552 E221.89386
G0 F6000 X41.667 Y164.987
G1 F1200 X75.417 Y198.737 E224.11636
G0 F6000 X75.983 Y198.737
G1 F1200 X41.667 Y164.421 E226.37613
G0 F6000 X41.667 Y163.855
G1 F1200 X76.549 Y198.737 E228.67317
G0 F6000 X77.114 Y198.737
G1 F1200 X41.667 Y163.29 E231.00741
G0 F6000 X41.667 Y162.724
G1 F1200 X77.68 Y198.737 E233.37893
G0 F6000 X78.246 Y198.737
G1 F1200 X41.667 Y162.158 E235.78772
G0 F6000 X41.667 Y161.592
G1 F1200 X78.812 Y198.737 E238.23378
G0 F6000 X79.377 Y198.737
G1 F1200 X41.667 Y161.027 E240.71705
G0 F6000 X41.667 Y160.461
G1 F1200 X79.943 Y198.737 E243.23759
G0 F6000 X80.509 Y198.737
G1 F1200 X41.667 Y159.895 E245.7954
G0 F6000 X41.667 Y159.33
G1 F1200 X81.074 Y198.737 E248.39042
G0 F6000 X81.64 Y198.737
G1 F1200 X41.667 Y158.764 E251.02271
G0 F6000 X41.667 Y158.198
G1 F1200 X82.206 Y198.737 E253.69227
G0 F6000 X82.771 Y198.737
G1 F1200 X41.667 Y157.633 E256.39904
G0 F6000 X41.667 Y157.067
G1 F1200 X83.337 Y198.737 E259.14308
G0 F6000 X83.903 Y198.737
G1 F1200 X41.667 Y156.501 E261.92439
G0 F6000 X41.667 Y155.936
G1 F1200 X84.468 Y198.737 E264.74291
G0 F6000 X85.034 Y198.737
G1 F1200 X41.667 Y155.37 E267.5987
G0 F6000 X41.667 Y154.804
G1 F1200 X85.6 Y198.737 E270.49177
G0 F6000 X86.165 Y198.737
G1 F1200 X41.667 Y154.239 E273.42203
G0 F6000 X41.667 Y153.673
G1 F1200 X86.731 Y198.737 E276.38958
G0 F6000 X87.297 Y198.737
G1 F1200 X41.667 Y153.107 E279.39439
G0 F6000 X41.667 Y152.542
G1 F1200 X87.862 Y198.737 E282.43641
G0 F6000 X88.428 Y198.737
G1 F1200 X41.667 Y151.976 E285.5157
G0 F6000 X41.667 Y151.41
G1 F1200 X88.994 Y198.737 E288.63226
G0 F6000 X89.56 Y198.737
G1 F1200 X41.667 Y150.844 E291.7861
G0 F6000 X41.667 Y150.279
G1 F1200 X90.125 Y198.737 E294.97714
G0 F6000 X90.691 Y198.737
G1 F1200 X41.667 Y149.713 E298.20546
G0 F6000 X41.667 Y149.147
G1 F1200 X91.257 Y198.737 E301.47104
G0 F6000 X91.822 Y198.737
G1 F1200 X41.667 Y148.582 E304.77384
G0 F6000 X41.667 Y148.016
G1 F1200 X92.388 Y198.737 E308.1139
G0 F6000 X92.954 Y198.737
G1 F1200 X41.667 Y147.45 E311.49124
G0 F6000 X41.667 Y146.885
G1 F1200 X93.519 Y198.737 E314.90578
G0 F6000 X94.085 Y198.737
G1 F1200 X41.667 Y146.319 E318.35759
G0 F6000 X41.667 Y145.753
G1 F1200 X94.651 Y198.737 E321.84668
G0 F6000 X95.216 Y198.737
G1 F1200 X41.667 Y145.188 E325.37297
G0 F6000 X41.667 Y144.622
G1 F1200 X95.782 Y198.737 E328.93654
G0 F6000 X96.348 Y198.737
G1 F1200 X41.667 Y144.056 E332.53738
G0 F6000 X41.667 Y143.491
G1 F1200 X96.913 Y198.737 E336.17542
G0 F6000 X97.479 Y198.737
G1 F1200 X41.667 Y142.925 E339.85073
G0 F6000 X41.667 Y142.359
G1 F1200 X98.045 Y198.737 E343.56332
G0 F6000 X98.61 Y198.737
G1 F1200 X41.667 Y141.794 E347.31312
G0 F6000 X41.667 Y141.228
G1 F1200 X99.176 Y198.737 E351.10018
G0 F6000 X99.742 Y198.737
G1 F1200 X41.667 Y140.662 E354.92452
G0 F6000 X41.667 Y140.096
G1 F1200 X100.308 Y198.737 E358.78613
G0 F6000 X100.873 Y198.737
G1 F1200 X41.667 Y139.531 E362.68495
G0 F6000 X41.667 Y138.965
G1 F1200 X101.439 Y198.737 E366.62103
G0 F6000 X102.005 Y198.737
G1 F1200 X41.667 Y138.399 E370.59439
G0 F6000 X41.667 Y137.834
G1 F1200 X102.57 Y198.737 E374.60496
G0 F6000 X103.136 Y198.737
G1 F1200 X41.667 Y137.268 E378.6528
G0 F6000 X41.667 Y136.702
G1 F1200 X103.702 Y198.737 E382.73791
G0 F6000 X104.267 Y198.737
G1 F1200 X41.667 Y136.137 E386.86023
G0 F6000 X41.667 Y135.571
G1 F1200 X104.833 Y198.737 E391.01982
G0 F6000 X105.399 Y198.737
G1 F1200 X41.667 Y135.005 E395.21668
G0 F6000 X41.667 Y134.44
G1 F1200 X105.964 Y198.737 E399.45074
G0 F6000 X106.53 Y198.737
